(.../eduards/EAGLE/pcb-gcode/pcb-gcode.ulp)
(Copyright 2005 - 2012 by John Johnson)
(See readme.txt for licensing terms.)
(This file generated from the board:)
(.../New_Project/AFM_QFM_sensor.brd)
(Current profile is .../pcb-gcode/profiles/generic.pp  )
(This file generated 12/29/23 11:33 PM)
(Settings from pcb-machine.h)
(  Tool Size)
(0.1000 )
(Z Axis Settings)
(  High     Up        Down     Drill)
(12.7000 	2.5400 	-0.1000 	-0.8128 )
(spindle on time = 3.0000)
(milling depth = -0.1000)
(text depth = -0.1270)
(tool change at 12.7000 15.2400 25.4000 )
(feed rate xy = F300.00 )
(feed rate z  = F254.00 )
(Settings from pcb-defaults.h)
(isolate min = 0.0010)
(isolate max = 2.0000)
(isolate step = 0.1200)
(Generated top outlines, top drill, )
(Unit of measure: mm)
( Tool|       Size       |  Min Sub |  Max Sub |   Count )
( T01  0.350mm 0.0138in 0.0000in 0.0000in )
( T02  1.118mm 0.0440in 0.0000in 0.0000in )
(Metric Mode)
G21
(Absolute Coordinates)
G90
M05
G00 Z25.4000 
G00 X12.7000 Y15.2400 
M06 T01  ; 0.3500 
G01 Z0.0000 F254.00 
M06 T01  ; 0.3500 
G00 Z2.5400 
M03
G04 P3.000000
G00 Z2.540000
G00 X3.8100 Y13.9700 
G01 Z-0.8128 F254.00 
G01 Z2.540000
(R2.5400  P1.000000)
(G00 Z2.540000)
G00 X10.1600 Y38.1000 
G01 Z-0.812800
G01 Z2.540000
(G00 Z2.540000)
G00 X13.9700 Y1.2700 
G01 Z-0.812800
G01 Z2.540000
(G00 Z2.540000)
G00 X15.2400 Y11.4300 
G01 Z-0.812800
G01 Z2.540000
(G00 Z2.540000)
G00 X15.2400 Y21.5900 
G01 Z-0.812800
G01 Z2.540000
(G00 Z2.540000)
G00 X15.2400 Y30.4800 
G01 Z-0.812800
G01 Z2.540000
(G00 Z2.540000)
G00 X16.5100 Y21.5900 
G01 Z-0.812800
G01 Z2.540000
M05
G00 Z25.4000 
M06 T02  ; 1.1176 
G01 Z0.0000 F254.00 
M06 T02  ; 1.1176 
G00 Z2.5400 
M03
G04 P3.000000
G00 Z2.540000
G00 X19.0500 Y33.0200 
G01 Z-0.8128 F254.00 
G01 Z2.540000
(R2.5400  P1.000000)
(G00 Z2.540000)
G00 X19.0500 Y35.5600 
G01 Z-0.812800
G01 Z2.540000
(G00 Z2.540000)
G00 X19.0500 Y38.1000 
G01 Z-0.812800
G01 Z2.540000
(G00 Z2.540000)
G00 X19.0500 Y40.6400 
G01 Z-0.812800
G01 Z2.540000
(G00 Z2.540000)
G00 X19.0500 Y43.1800 
G01 Z-0.812800
G01 Z2.540000
(G00 Z2.540000)
G00 X20.3200 Y13.9700 
G01 Z-0.812800
G01 Z2.540000
(G00 Z2.540000)
G00 X2.5400 Y19.0500 
G01 Z-0.812800
G01 Z2.540000
(G00 Z2.540000)
G00 X2.5400 Y21.5900 
G01 Z-0.812800
G01 Z2.540000
T01 
G00 Z12.7000 
M05
M02
