(.../eduards/EAGLE/pcb-gcode/pcb-gcode.ulp)
(Copyright 2005 - 2012 by John Johnson)
(See readme.txt for licensing terms.)
(This file generated from the board:)
(.../New_Project/AFM_QFM_Piezo_controller.brd)
(Current profile is .../pcb-gcode/profiles/generic.pp  )
(This file generated 4/2/24 1:04 AM)
(Settings from pcb-machine.h)
(  Tool Size)
(0.0000 )
(Z Axis Settings)
(  High     Up        Down     Drill)
(12.7000 	2.5400 	-0.0200 	-0.8128 )
(spindle on time = 3.0000)
(milling depth = 0.0000)
(text depth = -0.1270)
(tool change at 12.7000 15.2400 25.4000 )
(feed rate xy = F300.00 )
(feed rate z  = F254.00 )
(Settings from pcb-defaults.h)
(isolate min = 0.0010)
(isolate max = 2.0000)
(isolate step = 0.1200)
(Generated top outlines, top drill, )
(Unit of measure: mm)
(Metric Mode)
G21
(Absolute Coordinates)
G90
G00 X0.0000 Y0.0000 
M03
G04 P3.000000
G00 Z2.5400 
G00 X44.7986 Y38.7627 
G01 Z-0.0200 F254.00 
G01 X44.8554 Y38.8195 F300.00 
G01 X44.8554 Y38.8195 
G01 X44.8643 Y38.8283 
G01 X44.9199 Y38.8514 
G01 X45.7801 Y38.8514 
G01 X45.8357 Y38.8283 
G01 X45.8783 Y38.7857 
G01 X45.9014 Y38.7301 
G01 X45.9014 Y38.5360 
G01 X45.9402 Y38.4423 
G01 X46.0119 Y38.3706 
G01 X47.0079 Y37.3746 
G01 X47.1934 Y37.1891 
G01 X47.2938 Y36.9468 
G01 X47.2938 Y36.4891 
G01 X47.3326 Y36.3954 
G01 X47.4043 Y36.3237 
G01 X47.4843 Y36.2437 
G01 X47.4843 Y35.9944 
G01 X47.5220 Y35.9033 
G01 X47.5231 Y35.9006 
G01 X47.5948 Y35.8289 
G01 X47.6867 Y35.7908 
G01 X47.7900 Y35.7901 
G01 X47.8811 Y35.8278 
G01 X47.8838 Y35.8289 
G01 X47.9555 Y35.9006 
G01 X48.2433 Y36.1884 
G01 X48.3352 Y36.2804 
G01 X48.3716 Y36.3167 
G01 X48.3782 Y36.3195 
G01 X48.4430 Y36.3463 
G01 X48.5393 Y36.3862 
G01 X48.7172 Y36.3862 
G01 X48.8109 Y36.4250 
G01 X48.8673 Y36.4814 
G01 X50.1927 Y36.4814 
G01 X50.2583 Y36.4157 
G01 X50.2814 Y36.3601 
G01 X50.2814 Y35.4673 
G01 X50.1927 Y35.3786 
G01 X48.7787 Y35.3786 
G01 X48.6849 Y35.3398 
G01 X48.6132 Y35.2681 
G01 X48.5632 Y35.2180 
G01 X48.5244 Y35.1243 
G01 X48.5244 Y35.0229 
G01 X48.5632 Y34.9291 
G01 X48.6349 Y34.8574 
G01 X48.7286 Y34.8186 
G01 X51.3981 Y34.8186 
G01 X51.4919 Y34.8574 
G01 X51.5614 Y34.9269 
G01 X51.7291 Y34.9964 
G01 X51.9105 Y34.9964 
G01 X52.0782 Y34.9269 
G01 X52.2201 Y34.7850 
G01 X52.3139 Y34.7462 
G01 X53.3021 Y34.7462 
G01 X53.3958 Y34.7850 
G01 X53.4675 Y34.8567 
G01 X53.6239 Y35.0131 
G01 X53.8289 Y35.0980 
G01 X54.0508 Y35.0980 
G01 X54.2558 Y35.0131 
G01 X54.2938 Y34.9750 
G01 X54.3803 Y34.8885 
G01 X54.6378 Y34.6310 
G01 X54.6916 Y34.6087 
G01 X54.7315 Y34.5922 
G01 X54.8330 Y34.5922 
G01 X54.9595 Y34.6446 
G01 X55.2195 Y34.6446 
G01 X55.3133 Y34.6834 
G01 X55.3850 Y34.7551 
G01 X55.4238 Y34.8489 
G01 X55.4238 Y35.9565 
G01 X55.3850 Y36.0503 
G01 X55.3133 Y36.1220 
G01 X55.2818 Y36.1534 
G01 X55.1932 Y36.2420 
G01 X55.1158 Y36.3194 
G01 X54.9786 Y36.6507 
G01 X54.9786 Y37.0093 
G01 X55.1158 Y37.3406 
G01 X55.3694 Y37.5941 
G01 X55.7007 Y37.7314 
G01 X56.0593 Y37.7314 
G01 X56.3906 Y37.5941 
G01 X56.6442 Y37.3406 
G01 X56.7814 Y37.0093 
G01 X56.7814 Y36.6507 
G01 X56.6442 Y36.3194 
G01 X56.4782 Y36.1534 
G01 X56.3750 Y36.0503 
G01 X56.3362 Y35.9565 
G01 X56.3362 Y34.6821 
G01 X56.3750 Y34.5883 
G01 X56.4467 Y34.5166 
G01 X56.5405 Y34.4778 
G01 X58.5309 Y34.4778 
G01 X58.5464 Y34.4714 
G01 X59.0501 Y34.4714 
G01 X59.1057 Y34.4483 
G01 X59.1483 Y34.4057 
G01 X59.1714 Y34.3501 
G01 X59.1714 Y33.4899 
G01 X59.1483 Y33.4342 
G01 X59.0827 Y33.3686 
G01 X58.5464 Y33.3686 
G01 X58.5309 Y33.3622 
G01 X55.4212 Y33.3622 
G01 X55.3275 Y33.3234 
G01 X55.2753 Y33.2712 
G01 X55.2557 Y33.2517 
G01 X55.2207 Y33.2166 
G01 X55.1685 Y33.1645 
G01 X55.1308 Y33.0734 
G01 X55.1297 Y33.0707 
G01 X55.1297 Y32.9693 
G01 X55.1685 Y32.8755 
G01 X55.2128 Y32.8313 
G01 X55.2614 Y32.7827 
G01 X55.2614 Y31.5899 
G01 X55.2402 Y31.5387 
G01 X55.2383 Y31.5343 
G01 X55.2066 Y31.5025 
G01 X55.1678 Y31.4088 
G01 X55.1678 Y30.8212 
G01 X55.2066 Y30.7275 
G01 X55.2383 Y30.6958 
G01 X55.2402 Y30.6913 
G01 X55.2614 Y30.6401 
G01 X55.2614 Y29.4473 
G01 X55.2404 Y29.4263 
G01 X55.2179 Y29.3719 
G01 X55.2016 Y29.3326 
G01 X55.2016 Y29.2311 
G01 X55.2240 Y29.1770 
G01 X55.2404 Y29.1374 
G01 X55.3097 Y29.0680 
G01 X55.3128 Y29.0646 
G01 X55.3374 Y29.0221 
G01 X55.3482 Y28.9960 
G01 X53.8718 Y28.9960 
G01 X53.8826 Y29.0222 
G01 X53.8934 Y29.0408 
G01 X53.9072 Y29.0646 
G01 X53.9101 Y29.0675 
G01 X53.9796 Y29.1374 
G01 X54.0070 Y29.2036 
G01 X54.0184 Y29.2311 
G01 X54.0184 Y29.3326 
G01 X53.9943 Y29.3907 
G01 X53.9796 Y29.4263 
G01 X53.9586 Y29.4473 
G01 X53.9586 Y30.6727 
G01 X54.0134 Y30.7275 
G01 X54.0522 Y30.8212 
G01 X54.0522 Y31.1911 
G01 X54.0134 Y31.2849 
G01 X53.9417 Y31.3566 
G01 X53.8479 Y31.3954 
G01 X53.2695 Y31.3954 
G01 X53.1391 Y31.4494 
G01 X52.9677 Y31.6209 
G01 X52.2045 Y32.3840 
G01 X52.1159 Y32.4726 
G01 X52.0128 Y32.5758 
G01 X51.9190 Y32.6146 
G01 X50.3833 Y32.6146 
G01 X50.2343 Y32.6763 
G01 X50.2079 Y32.7028 
G01 X50.1859 Y32.7119 
G01 X50.1141 Y32.7416 
G01 X50.0640 Y32.7416 
G01 X50.0127 Y32.7416 
G01 X49.9630 Y32.7211 
G01 X49.9190 Y32.7028 
G01 X49.8834 Y32.6672 
G01 X49.8472 Y32.6311 
G01 X49.8381 Y32.6091 
G01 X49.8084 Y32.5374 
G01 X49.8084 Y32.4872 
G01 X49.8084 Y32.4359 
G01 X49.8084 Y32.0998 
G01 X49.8472 Y32.0061 
G01 X49.9189 Y31.9344 
G01 X50.2801 Y31.5732 
G01 X50.3687 Y31.4846 
G01 X50.9499 Y30.9034 
G01 X51.0531 Y30.8002 
G01 X51.1468 Y30.7614 
G01 X51.3301 Y30.7614 
G01 X51.3857 Y30.7383 
G01 X51.4283 Y30.6957 
G01 X51.4514 Y30.6401 
G01 X51.4514 Y29.4473 
G01 X51.4324 Y29.4283 
G01 X51.4146 Y29.3883 
G01 X51.3916 Y29.3326 
G01 X51.3916 Y29.2311 
G01 X51.4074 Y29.1928 
G01 X51.4304 Y29.1374 
G01 X51.4997 Y29.0680 
G01 X51.5028 Y29.0646 
G01 X51.5274 Y29.0222 
G01 X51.5382 Y28.9960 
G01 X50.7374 Y28.9960 
G01 X50.6145 Y28.9716 
G01 X50.4988 Y28.9236 
G01 X50.4799 Y28.9110 
G01 X50.2996 Y28.9110 
G01 X50.2990 Y28.7550 
G01 X50.2363 Y28.6612 
G01 X50.2172 Y28.6150 
G01 X50.0470 Y28.6150 
G01 X50.0470 Y28.9433 
G01 X50.0524 Y28.9632 
G01 X50.0643 Y29.0076 
G01 X50.0971 Y29.0646 
G01 X50.1001 Y29.0675 
G01 X50.1696 Y29.1374 
G01 X50.1921 Y29.1917 
G01 X50.2084 Y29.2311 
G01 X50.2084 Y29.3326 
G01 X50.1860 Y29.3867 
G01 X50.1696 Y29.4263 
G01 X50.1486 Y29.4473 
G01 X50.1486 Y30.5032 
G01 X50.1098 Y30.5969 
G01 X50.0381 Y30.6686 
G01 X49.1863 Y31.5204 
G01 X49.1366 Y31.6405 
G01 X49.0649 Y31.7122 
G01 X48.9711 Y31.7510 
G01 X48.8697 Y31.7510 
G01 X48.7759 Y31.7122 
G01 X48.7042 Y31.6405 
G01 X48.6654 Y31.5467 
G01 X48.6654 Y31.0620 
G01 X48.7042 Y30.9683 
G01 X48.7759 Y30.8966 
G01 X48.8190 Y30.8535 
G01 X48.9194 Y30.6112 
G01 X48.9194 Y28.6588 
G01 X48.9114 Y28.6395 
G01 X48.9114 Y28.1773 
G01 X48.8924 Y28.1583 
G01 X48.8746 Y28.1183 
G01 X48.8516 Y28.0626 
G01 X48.8516 Y27.9611 
G01 X48.8674 Y27.9229 
G01 X48.8904 Y27.8674 
G01 X48.9597 Y27.7980 
G01 X48.9628 Y27.7946 
G01 X48.9957 Y27.7376 
G01 X48.9989 Y27.7260 
G01 X47.5218 Y27.7260 
G01 X47.5326 Y27.7521 
G01 X47.5572 Y27.7946 
G01 X47.5601 Y27.7975 
G01 X47.6276 Y27.8654 
G01 X47.6454 Y27.9054 
G01 X47.6684 Y27.9611 
G01 X47.6684 Y28.0626 
G01 X47.6526 Y28.1008 
G01 X47.6296 Y28.1563 
G01 X47.6086 Y28.1773 
G01 X47.6086 Y28.6395 
G01 X47.6006 Y28.6588 
G01 X47.6006 Y30.6112 
G01 X47.7010 Y30.8535 
G01 X47.8158 Y30.9683 
G01 X47.8546 Y31.0620 
G01 X47.8546 Y31.8306 
G01 X47.9163 Y31.9796 
G01 X47.9428 Y32.0061 
G01 X47.9816 Y32.0998 
G01 X47.9816 Y32.1715 
G01 X47.9816 Y32.2211 
G01 X47.9606 Y32.2719 
G01 X47.9428 Y32.3148 
G01 X47.9190 Y32.3386 
G01 X47.8715 Y32.3861 
G01 X47.8473 Y32.4104 
G01 X47.8032 Y32.4286 
G01 X47.7536 Y32.4492 
G01 X47.7034 Y32.4492 
G01 X47.6521 Y32.4492 
G01 X47.6025 Y32.4286 
G01 X47.5584 Y32.4104 
G01 X47.5109 Y32.3629 
G01 X47.4867 Y32.3386 
G01 X47.3956 Y32.2476 
G01 X47.1171 Y32.2476 
G01 X47.0233 Y32.2088 
G01 X46.9516 Y32.1370 
G01 X46.9128 Y32.0433 
G01 X46.9128 Y31.2791 
G01 X46.7319 Y31.0983 
G01 X46.6658 Y31.0321 
G01 X46.6602 Y31.0265 
G01 X46.6214 Y30.9328 
G01 X46.6214 Y30.1066 
G01 X46.5592 Y30.0444 
G01 X46.4706 Y29.9558 
G01 X46.0934 Y29.5786 
G01 X45.3466 Y29.5786 
G01 X44.8186 Y30.1066 
G01 X44.8186 Y30.8534 
G01 X45.0219 Y31.0567 
G01 X45.3466 Y31.3814 
G01 X46.1517 Y31.3814 
G01 X46.2455 Y31.4202 
G01 X46.3172 Y31.4919 
G01 X46.3560 Y31.5857 
G01 X46.3560 Y32.0433 
G01 X46.3172 Y32.1370 
G01 X46.2455 Y32.2088 
G01 X46.1517 Y32.2476 
G01 X45.8732 Y32.2476 
G01 X45.7888 Y32.3320 
G01 X45.7845 Y32.3643 
G01 X45.7845 Y32.3983 
G01 X45.7779 Y32.4142 
G01 X45.7757 Y32.4312 
G01 X45.7587 Y32.4606 
G01 X45.7457 Y32.4920 
G01 X45.7335 Y32.5042 
G01 X45.7249 Y32.5191 
G01 X45.6980 Y32.5397 
G01 X45.6740 Y32.5637 
G01 X45.6581 Y32.5703 
G01 X45.6444 Y32.5808 
G01 X45.6116 Y32.5896 
G01 X45.5802 Y32.6026 
G01 X45.5630 Y32.6026 
G01 X45.5464 Y32.6070 
G01 X45.5127 Y32.6026 
G01 X45.5078 Y32.6026 
G01 X45.5042 Y32.6026 
G01 X45.4788 Y32.6026 
G01 X45.4686 Y32.5983 
G01 X45.4655 Y32.5979 
G01 X45.4574 Y32.5979 
G01 X45.4536 Y32.5963 
G01 X45.4495 Y32.5958 
G01 X45.4459 Y32.5937 
G01 X45.4423 Y32.5917 
G01 X45.4349 Y32.5886 
G01 X45.4321 Y32.5858 
G01 X45.4239 Y32.5810 
G01 X45.3868 Y32.5711 
G01 X45.3596 Y32.5638 
G01 X45.0860 Y32.5638 
G01 X45.0860 Y32.8158 
G01 X45.3267 Y32.8158 
G01 X45.3273 Y35.7636 
G01 X45.0860 Y35.7642 
G01 X45.0860 Y36.0162 
G01 X45.3596 Y36.0162 
G01 X45.4231 Y35.9992 
G01 X45.4321 Y35.9942 
G01 X45.4349 Y35.9914 
G01 X45.4423 Y35.9883 
G01 X45.4458 Y35.9863 
G01 X45.4495 Y35.9842 
G01 X45.4536 Y35.9837 
G01 X45.4574 Y35.9821 
G01 X45.4655 Y35.9821 
G01 X45.4686 Y35.9817 
G01 X45.4788 Y35.9774 
G01 X45.5042 Y35.9774 
G01 X45.5078 Y35.9774 
G01 X45.5127 Y35.9774 
G01 X45.5464 Y35.9730 
G01 X45.5630 Y35.9774 
G01 X45.5802 Y35.9774 
G01 X45.6116 Y35.9904 
G01 X45.6444 Y35.9992 
G01 X45.6581 Y36.0097 
G01 X45.6740 Y36.0163 
G01 X45.6980 Y36.0403 
G01 X45.7249 Y36.0609 
G01 X45.7335 Y36.0758 
G01 X45.7457 Y36.0880 
G01 X45.7587 Y36.1194 
G01 X45.7757 Y36.1488 
G01 X45.7779 Y36.1658 
G01 X45.7845 Y36.1817 
G01 X45.7845 Y36.2157 
G01 X45.7888 Y36.2480 
G01 X45.8129 Y36.2722 
G01 X45.8303 Y36.2896 
G01 X45.8847 Y36.3439 
G01 X45.9235 Y36.4376 
G01 X45.9235 Y36.5391 
G01 X45.9079 Y36.5768 
G01 X45.8847 Y36.6328 
G01 X45.8129 Y36.7045 
G01 X45.4599 Y37.0576 
G01 X45.3865 Y37.1310 
G01 X45.3713 Y37.1462 
G01 X45.3109 Y37.2066 
G01 X45.2794 Y37.2381 
G01 X45.2077 Y37.3098 
G01 X45.1166 Y37.3475 
G01 X45.1140 Y37.3486 
G01 X44.9681 Y37.3486 
G01 X44.9199 Y37.3486 
G01 X44.8643 Y37.3717 
G01 X44.8554 Y37.3805 
G01 X44.7986 Y37.4373 
G01 X44.7986 Y37.7081 
G01 X44.7828 Y37.7462 
G01 X44.6662 Y38.0278 
G01 X44.5945 Y38.0995 
G01 X44.6662 Y38.1722 
G01 X44.6687 Y38.1783 
G01 X44.7986 Y38.4919 
G01 X44.7986 Y38.5933 
G01 X44.7986 Y38.7627 
G00 Z2.5400 
G00 X56.6310 Y36.7560 
G01 Z-0.0200 F254.00 
G01 X56.6310 Y36.9040 F300.00 
G01 X56.6022 Y37.0491 
G01 X56.5455 Y37.1857 
G01 X56.4634 Y37.3087 
G01 X56.3587 Y37.4134 
G01 X56.2357 Y37.4955 
G01 X56.0991 Y37.5522 
G01 X55.9540 Y37.5810 
G01 X55.8060 Y37.5810 
G01 X55.6609 Y37.5522 
G01 X55.5243 Y37.4955 
G01 X55.4013 Y37.4134 
G01 X55.2966 Y37.3087 
G01 X55.2145 Y37.1857 
G01 X55.1578 Y37.0491 
G01 X55.1290 Y36.9040 
G01 X55.1290 Y36.7560 
G01 X55.1578 Y36.6109 
G01 X55.2145 Y36.4743 
G01 X55.2966 Y36.3513 
G01 X55.4013 Y36.2466 
G01 X55.5243 Y36.1645 
G01 X55.5742 Y36.1438 
G01 X55.5742 Y34.4942 
G01 X54.9894 Y34.4942 
G01 X54.9143 Y34.4631 
G01 X54.8722 Y34.4210 
G01 X54.6352 Y34.4210 
G01 X54.1900 Y34.8662 
G01 X54.0971 Y34.9198 
G01 X53.9934 Y34.9476 
G01 X53.8862 Y34.9476 
G01 X53.7826 Y34.9198 
G01 X53.6896 Y34.8662 
G01 X53.6138 Y34.7904 
G01 X53.5602 Y34.6974 
G01 X53.5329 Y34.5958 
G01 X52.1967 Y34.5958 
G01 X52.0076 Y34.7849 
G01 X51.9379 Y34.8252 
G01 X51.8601 Y34.8460 
G01 X51.7795 Y34.8460 
G01 X51.7018 Y34.8252 
G01 X51.6320 Y34.7849 
G01 X51.5751 Y34.7280 
G01 X51.5406 Y34.6682 
G01 X47.3339 Y34.6682 
G01 X47.3339 Y34.6803 
G01 X45.9355 Y34.6809 
G01 X45.9349 Y34.6079 
G01 X45.9295 Y34.6057 
G01 X45.9078 Y34.5839 
G01 X45.8961 Y34.5556 
G01 X45.8961 Y34.5248 
G01 X45.9078 Y34.4964 
G01 X45.9295 Y34.4747 
G01 X45.9349 Y34.4725 
G01 X45.9349 Y34.4001 
G01 X47.3333 Y34.3995 
G01 X47.3339 Y34.4122 
G01 X51.5406 Y34.4122 
G01 X51.5751 Y34.3524 
G01 X51.8822 Y34.0453 
G01 X51.9520 Y34.0050 
G01 X52.0297 Y33.9842 
G01 X53.7299 Y33.9842 
G01 X53.8077 Y34.0050 
G01 X53.8654 Y34.0384 
G01 X54.1090 Y33.7948 
G01 X54.1090 Y33.3196 
G01 X55.1104 Y33.3190 
G01 X55.1110 Y33.5126 
G01 X58.4736 Y33.5126 
G01 X58.4975 Y33.5190 
G01 X59.0204 Y33.5190 
G01 X59.0210 Y34.3204 
G01 X58.4975 Y34.3210 
G01 X58.4736 Y34.3274 
G01 X56.1858 Y34.3274 
G01 X56.1858 Y36.1438 
G01 X56.2357 Y36.1645 
G01 X56.3587 Y36.2466 
G01 X56.4634 Y36.3513 
G01 X56.5455 Y36.4743 
G01 X56.6022 Y36.6109 
G01 X56.6310 Y36.7560 
G00 Z2.5400 
G00 X46.4710 Y30.1689 
G01 Z-0.0200 F254.00 
G01 X46.4710 Y30.7911 F300.00 
G01 X46.3416 Y30.9205 
G01 X46.7429 Y31.3219 
G01 X46.7624 Y31.3689 
G01 X46.7624 Y32.3980 
G01 X47.3333 Y32.3980 
G01 X47.3339 Y32.6788 
G01 X45.9355 Y32.6794 
G01 X45.9349 Y32.3985 
G01 X46.5064 Y32.3980 
G01 X46.5064 Y31.4474 
G01 X46.1605 Y31.1016 
G01 X46.0311 Y31.2310 
G01 X45.4089 Y31.2310 
G01 X44.9690 Y30.7911 
G01 X44.9690 Y30.1689 
G01 X45.4089 Y29.7290 
G01 X46.0311 Y29.7290 
G01 X46.4710 Y30.1689 
G00 Z2.5400 
G00 X55.1104 Y30.6110 
G01 Z-0.0200 F254.00 
G01 X55.0174 Y30.6110 F300.00 
G01 X55.0174 Y31.6190 
G01 X55.1104 Y31.6190 
G01 X55.1110 Y32.7204 
G01 X54.1096 Y32.7210 
G01 X54.1090 Y31.9578 
G01 X54.1054 Y31.9542 
G01 X53.4246 Y31.9542 
G01 X52.3250 Y33.0538 
G01 X52.3250 Y33.0707 
G01 X52.2862 Y33.1645 
G01 X52.2145 Y33.2362 
G01 X52.1207 Y33.2750 
G01 X50.5696 Y33.2750 
G01 X50.1414 Y33.7032 
G01 X50.0477 Y33.7420 
G01 X49.9462 Y33.7420 
G01 X49.8525 Y33.7032 
G01 X49.8174 Y33.6680 
G01 X49.3371 Y34.1483 
G01 X49.2900 Y34.1678 
G01 X47.3339 Y34.1678 
G01 X47.3339 Y34.1799 
G01 X45.9355 Y34.1805 
G01 X45.9349 Y33.8997 
G01 X47.3333 Y33.8991 
G01 X47.3339 Y33.9118 
G01 X49.2115 Y33.9118 
G01 X49.7808 Y33.3425 
G01 X50.2478 Y32.8755 
G01 X50.3195 Y32.8038 
G01 X50.4132 Y32.7650 
G01 X52.0362 Y32.7650 
G01 X53.1669 Y31.6343 
G01 X53.2243 Y31.5769 
G01 X53.2994 Y31.5458 
G01 X54.2026 Y31.5458 
G01 X54.2026 Y30.6110 
G01 X54.1096 Y30.6110 
G01 X54.1090 Y29.5096 
G01 X55.1104 Y29.5090 
G01 X55.1110 Y30.6104 
G00 Z2.5400 
G00 X47.7590 Y28.2396 
G01 Z-0.0200 F254.00 
G01 X47.7596 Y28.2390 F300.00 
G01 X48.7604 Y28.2390 
G01 X48.7610 Y28.6931 
G01 X48.7690 Y28.7230 
G01 X48.7690 Y30.5470 
G01 X48.7343 Y30.6765 
G01 X48.6673 Y30.7925 
G01 X48.5725 Y30.8873 
G01 X48.5150 Y30.9205 
G01 X48.5150 Y31.8007 
G01 X48.4762 Y31.8945 
G01 X48.4045 Y31.9662 
G01 X48.3880 Y31.9730 
G01 X48.3880 Y32.4168 
G01 X48.3685 Y32.4639 
G01 X48.3325 Y32.4999 
G01 X47.7208 Y33.1116 
G01 X47.6848 Y33.1476 
G01 X47.6378 Y33.1671 
G01 X47.3339 Y33.1671 
G01 X47.3339 Y33.1792 
G01 X45.9355 Y33.1798 
G01 X45.9349 Y32.8989 
G01 X47.3333 Y32.8983 
G01 X47.3339 Y32.9110 
G01 X47.5593 Y32.9110 
G01 X48.1320 Y32.3383 
G01 X48.1320 Y31.9730 
G01 X48.1155 Y31.9662 
G01 X48.0438 Y31.8945 
G01 X48.0050 Y31.8007 
G01 X48.0050 Y30.9205 
G01 X47.9475 Y30.8873 
G01 X47.8527 Y30.7925 
G01 X47.7857 Y30.6765 
G01 X47.7510 Y30.5470 
G01 X47.7510 Y28.7230 
G01 X47.7590 Y28.6931 
G01 X47.7590 Y28.2396 
G00 Z2.5400 
G00 X50.2996 Y29.5090 
G01 Z-0.0200 F254.00 
G01 X51.3004 Y29.5090 F300.00 
G01 X51.3010 Y29.5096 
G01 X51.3010 Y30.6104 
G01 X51.0218 Y30.6110 
G01 X51.0162 Y30.6245 
G01 X49.6745 Y31.9662 
G01 X49.6580 Y31.9730 
G01 X49.6580 Y33.0455 
G01 X49.6385 Y33.0925 
G01 X49.6025 Y33.1285 
G01 X49.0831 Y33.6480 
G01 X49.0360 Y33.6674 
G01 X47.3339 Y33.6674 
G01 X47.3339 Y33.6796 
G01 X45.9355 Y33.6801 
G01 X45.9349 Y33.3993 
G01 X47.3333 Y33.3987 
G01 X47.3339 Y33.4114 
G01 X48.9575 Y33.4114 
G01 X49.4020 Y32.9670 
G01 X49.4020 Y31.9730 
G01 X49.3855 Y31.9662 
G01 X49.3138 Y31.8945 
G01 X49.2750 Y31.8007 
G01 X49.2750 Y31.6993 
G01 X49.3138 Y31.6055 
G01 X50.3083 Y30.6110 
G01 X50.2996 Y30.6110 
G01 X50.2990 Y29.5096 
G00 Z2.5400 
G00 X45.9349 Y35.6811 
G01 Z-0.0200 F254.00 
G01 X45.9349 Y35.4008 F300.00 
G01 X45.9355 Y35.4002 
G01 X46.3792 Y35.4002 
G01 X46.4379 Y35.3663 
G01 X46.5674 Y35.3317 
G01 X46.7014 Y35.3317 
G01 X46.8309 Y35.3663 
G01 X46.8896 Y35.4002 
G01 X47.3333 Y35.4002 
G01 X47.3339 Y35.6811 
G01 X47.1188 Y35.6817 
G01 X47.1434 Y35.7737 
G01 X47.1434 Y35.9006 
G01 X47.3333 Y35.9006 
G01 X47.3339 Y36.1815 
G01 X47.1434 Y36.1820 
G01 X47.1434 Y36.8826 
G01 X47.1087 Y37.0121 
G01 X47.0417 Y37.1281 
G01 X46.9469 Y37.2229 
G01 X45.7510 Y38.4188 
G01 X45.7510 Y38.7004 
G01 X44.9496 Y38.7010 
G01 X44.9490 Y38.4188 
G01 X44.9427 Y38.4125 
G01 X44.8757 Y38.2965 
G01 X44.8410 Y38.1670 
G01 X44.8410 Y38.0330 
G01 X44.8757 Y37.9035 
G01 X44.9427 Y37.7875 
G01 X44.9490 Y37.7812 
G01 X44.9490 Y37.4996 
G01 X45.2312 Y37.4990 
G01 X46.1254 Y36.6048 
G01 X46.1254 Y36.1820 
G01 X45.9355 Y36.1820 
G01 X45.9349 Y35.9012 
G01 X46.1254 Y35.9006 
G01 X46.1254 Y35.7737 
G01 X46.1500 Y35.6817 
G01 X45.9355 Y35.6817 
G00 Z2.5400 
G00 X45.9349 Y35.1807 
G01 Z-0.0200 F254.00 
G01 X45.9349 Y34.9004 F300.00 
G01 X45.9355 Y34.8999 
G01 X47.3333 Y34.8999 
G01 X47.3339 Y34.9126 
G01 X47.7660 Y34.9126 
G01 X47.8131 Y34.9320 
G01 X48.1531 Y35.2720 
G01 X48.2197 Y35.2542 
G01 X48.3003 Y35.2542 
G01 X48.3780 Y35.2750 
G01 X48.4478 Y35.3153 
G01 X48.7567 Y35.6242 
G01 X48.9290 Y35.6242 
G01 X48.9290 Y35.5296 
G01 X50.1304 Y35.5290 
G01 X50.1310 Y36.3304 
G01 X48.9296 Y36.3310 
G01 X48.9290 Y36.2358 
G01 X48.5897 Y36.2358 
G01 X48.5120 Y36.2150 
G01 X48.4422 Y36.1747 
G01 X48.3853 Y36.1178 
G01 X48.0153 Y35.7478 
G01 X47.9750 Y35.6780 
G01 X47.9542 Y35.6003 
G01 X47.9542 Y35.5197 
G01 X47.9720 Y35.4531 
G01 X47.6875 Y35.1686 
G01 X47.3339 Y35.1686 
G01 X47.3339 Y35.1807 
G01 X45.9355 Y35.1813 
G00 Z2.5400 
G00 X48.4928 Y32.9806 
G01 Z-0.0200 F254.00 
G01 X48.4836 Y32.9584 F300.00 
G01 X48.4835 Y32.9582 
G01 X48.4835 Y32.9339 
G01 X48.4928 Y32.9115 
G01 X48.5099 Y32.8943 
G01 X48.7924 Y32.6119 
G01 X48.7924 Y32.1633 
G01 X48.8017 Y32.1408 
G01 X48.8188 Y32.1237 
G01 X48.8340 Y32.0873 
G01 X48.8433 Y32.0649 
G01 X48.8517 Y32.0564 
G01 X48.8604 Y32.0477 
G01 X48.8829 Y32.0384 
G01 X48.9071 Y32.0384 
G01 X48.9296 Y32.0477 
G01 X48.9380 Y32.0562 
G01 X48.9467 Y32.0649 
G01 X48.9560 Y32.0873 
G01 X48.9710 Y32.1235 
G01 X48.9883 Y32.1408 
G01 X48.9976 Y32.1633 
G01 X48.9976 Y32.7863 
G01 X48.9883 Y32.8088 
G01 X48.9712 Y32.8259 
G01 X48.8165 Y32.9806 
G01 X48.7993 Y32.9978 
G01 X48.7769 Y33.0070 
G01 X48.5324 Y33.0070 
G01 X48.5099 Y32.9978 
G01 X48.4928 Y32.9806 
G00 Z2.5400 
G00 X52.5779 Y33.5798 
G01 Z-0.0200 F254.00 
G01 X52.5554 Y33.5705 F300.00 
G01 X52.5552 Y33.5703 
G01 X52.5383 Y33.5534 
G01 X52.5318 Y33.5377 
G01 X52.5290 Y33.5309 
G01 X52.5290 Y33.5067 
G01 X52.5383 Y33.4842 
G01 X52.5554 Y33.4671 
G01 X52.6290 Y33.3935 
G01 X52.6705 Y33.2933 
G01 X52.6796 Y33.2714 
G01 X52.6970 Y33.2537 
G01 X53.5828 Y32.3679 
G01 X53.6052 Y32.3586 
G01 X53.6557 Y32.3586 
G01 X53.6782 Y32.3679 
G01 X53.6953 Y32.3850 
G01 X53.7046 Y32.4075 
G01 X53.7046 Y32.8879 
G01 X53.8021 Y32.9854 
G01 X53.8114 Y33.0079 
G01 X53.8114 Y33.0321 
G01 X53.8088 Y33.0385 
G01 X53.8021 Y33.0546 
G01 X53.7850 Y33.0717 
G01 X53.7046 Y33.1521 
G01 X53.7046 Y33.5309 
G01 X53.6953 Y33.5534 
G01 X53.6782 Y33.5705 
G01 X53.6557 Y33.5798 
G01 X53.6315 Y33.5798 
G01 X52.5779 Y33.5798 
G00 Z2.5400 
G00 X50.7278 Y33.6887 
G01 Z-0.0200 F254.00 
G01 X50.7494 Y33.6797 F300.00 
G01 X50.7502 Y33.6794 
G01 X51.5411 Y33.6794 
G01 X51.5635 Y33.6887 
G01 X51.5807 Y33.7058 
G01 X51.5899 Y33.7280 
G01 X51.5900 Y33.7525 
G01 X51.5807 Y33.7750 
G01 X51.5635 Y33.7921 
G01 X51.3571 Y33.9985 
G01 X51.3347 Y34.0078 
G01 X50.5438 Y34.0078 
G01 X50.5214 Y33.9985 
G01 X50.5042 Y33.9814 
G01 X50.4950 Y33.9592 
G01 X50.4949 Y33.9347 
G01 X50.5042 Y33.9122 
G01 X50.5214 Y33.8951 
G01 X50.7278 Y33.6887 
G00 Z2.5400 
G00 X27.5798 Y52.5630 
G01 Z-0.0200 F254.00 
G01 X27.5346 Y52.5177 F300.00 
G01 X27.4910 Y52.4741 
G01 X27.4581 Y52.4413 
G01 X27.3838 Y52.3843 
G01 X27.3205 Y52.3383 
G01 X27.3060 Y52.3299 
G01 X27.3060 Y52.6455 
G01 X27.3645 Y52.7040 
G01 X27.6822 Y52.7040 
G01 X27.5798 Y52.5630 
G00 Z2.5400 
G00 X27.1279 Y54.4454 
G01 Z-0.0200 F254.00 
G01 X27.2952 Y54.3602 F300.00 
G01 X27.4470 Y54.2498 
G01 X27.5798 Y54.1170 
G01 X27.6823 Y53.9760 
G01 X27.3645 Y53.9760 
G01 X27.2697 Y54.0708 
G01 X27.1156 Y54.1737 
G01 X26.9444 Y54.2447 
G01 X26.7910 Y54.2752 
G01 X26.7910 Y54.5285 
G01 X26.9493 Y54.5034 
G01 X27.1279 Y54.4454 
G00 Z2.5400 
G00 X25.9193 Y52.4160 
G01 Z-0.0200 F254.00 
G01 X25.8845 Y52.4393 F300.00 
G01 X25.8819 Y52.4413 
G01 X25.8563 Y52.4669 
G01 X25.8055 Y52.5177 
G01 X25.7602 Y52.5630 
G01 X25.6498 Y52.7148 
G01 X25.6442 Y52.7259 
G01 X25.5758 Y52.8601 
G01 X25.5603 Y52.8977 
G01 X25.5447 Y52.9433 
G01 X25.5410 Y52.9547 
G01 X25.5380 Y52.9640 
G01 X25.5354 Y52.9682 
G01 X25.5286 Y52.9751 
G01 X25.5222 Y52.9825 
G01 X25.5183 Y52.9853 
G01 X25.5093 Y52.9891 
G01 X25.5006 Y52.9935 
G01 X25.4959 Y52.9946 
G01 X25.4861 Y52.9946 
G01 X25.4764 Y52.9954 
G01 X25.4716 Y52.9946 
G01 X25.4626 Y52.9909 
G01 X25.4533 Y52.9879 
G01 X25.4324 Y52.9927 
G01 X25.3948 Y53.0083 
G01 X25.3845 Y53.0083 
G01 X25.3746 Y53.0114 
G01 X25.3341 Y53.0083 
G01 X25.2933 Y53.0083 
G01 X25.2838 Y53.0043 
G01 X25.2735 Y53.0035 
G01 X25.2372 Y52.9850 
G01 X25.1996 Y52.9694 
G01 X25.1923 Y52.9621 
G01 X25.1831 Y52.9574 
G01 X25.1567 Y52.9265 
G01 X25.1279 Y52.8977 
G01 X25.1239 Y52.8881 
G01 X25.1172 Y52.8803 
G01 X25.1046 Y52.8416 
G01 X25.0551 Y52.7219 
G01 X24.9227 Y52.5896 
G01 X24.8341 Y52.5010 
G01 X24.7481 Y52.4149 
G01 X24.3470 Y52.2488 
G01 X23.9130 Y52.2488 
G01 X23.5119 Y52.4149 
G01 X23.2049 Y52.7219 
G01 X23.0388 Y53.1230 
G01 X23.0388 Y53.5571 
G01 X23.1882 Y53.9177 
G01 X23.2049 Y53.9581 
G01 X23.5119 Y54.2651 
G01 X23.7986 Y54.3838 
G01 X23.8703 Y54.4555 
G01 X23.9091 Y54.5493 
G01 X23.9091 Y54.6507 
G01 X23.8949 Y54.6852 
G01 X24.3976 Y54.6852 
G01 X24.8920 Y54.4804 
G01 X25.2704 Y54.1020 
G01 X25.4237 Y53.7320 
G01 X25.4283 Y53.7208 
G01 X25.4320 Y53.7118 
G01 X25.4349 Y53.7079 
G01 X25.4423 Y53.7016 
G01 X25.4492 Y53.6947 
G01 X25.4533 Y53.6921 
G01 X25.4626 Y53.6891 
G01 X25.4716 Y53.6854 
G01 X25.4764 Y53.6846 
G01 X25.4861 Y53.6854 
G01 X25.4959 Y53.6854 
G01 X25.5006 Y53.6865 
G01 X25.5093 Y53.6909 
G01 X25.5183 Y53.6947 
G01 X25.5222 Y53.6975 
G01 X25.5286 Y53.7049 
G01 X25.5354 Y53.7118 
G01 X25.5380 Y53.7160 
G01 X25.5410 Y53.7252 
G01 X25.5447 Y53.7343 
G01 X25.5646 Y53.7979 
G01 X25.6498 Y53.9652 
G01 X25.7602 Y54.1170 
G01 X25.8929 Y54.2498 
G01 X26.0448 Y54.3602 
G01 X26.2121 Y54.4454 
G01 X26.3907 Y54.5034 
G01 X26.5490 Y54.5285 
G01 X26.5490 Y54.2752 
G01 X26.3956 Y54.2447 
G01 X26.2244 Y54.1737 
G01 X26.0703 Y54.0708 
G01 X25.9392 Y53.9397 
G01 X25.8363 Y53.7856 
G01 X25.7653 Y53.6144 
G01 X25.7292 Y53.4327 
G01 X25.7292 Y53.2473 
G01 X25.7653 Y53.0656 
G01 X25.8363 Y52.8944 
G01 X25.9392 Y52.7403 
G01 X26.0340 Y52.6455 
G01 X26.0340 Y52.3299 
G01 X26.0195 Y52.3383 
G01 X25.9563 Y52.3842 
G01 X25.9341 Y52.4012 
G01 X25.9193 Y52.4160 
G00 Z2.5400 
G00 X25.0708 Y53.2473 
G01 Z-0.0200 F254.00 
G01 X25.0708 Y53.4327 F300.00 
G01 X25.0347 Y53.6144 
G01 X24.9637 Y53.7856 
G01 X24.8608 Y53.9397 
G01 X24.7297 Y54.0708 
G01 X24.5756 Y54.1737 
G01 X24.4044 Y54.2447 
G01 X24.2227 Y54.2808 
G01 X24.0373 Y54.2808 
G01 X23.8556 Y54.2447 
G01 X23.6844 Y54.1737 
G01 X23.5303 Y54.0708 
G01 X23.3992 Y53.9397 
G01 X23.2963 Y53.7856 
G01 X23.2253 Y53.6144 
G01 X23.1892 Y53.4327 
G01 X23.1892 Y53.2473 
G01 X23.2253 Y53.0656 
G01 X23.2963 Y52.8944 
G01 X23.3992 Y52.7403 
G01 X23.5303 Y52.6092 
G01 X23.6844 Y52.5063 
G01 X23.8556 Y52.4353 
G01 X24.0373 Y52.3992 
G01 X24.2227 Y52.3992 
G01 X24.4044 Y52.4353 
G01 X24.5756 Y52.5063 
G01 X24.7297 Y52.6092 
G01 X24.8608 Y52.7403 
G01 X24.9637 Y52.8944 
G01 X25.0347 Y53.0656 
G01 X25.0708 Y53.2473 
G00 Z2.5400 
G00 X18.2740 Y52.5728 
G01 Z-0.0200 F254.00 
G01 X18.2740 Y52.5728 F300.00 
G01 X18.1854 Y52.6614 
G01 X18.1249 Y52.7219 
G01 X17.9962 Y53.0327 
G01 X17.9245 Y53.1045 
G01 X17.8307 Y53.1433 
G01 X17.7293 Y53.1433 
G01 X17.6355 Y53.1045 
G01 X17.5638 Y53.0327 
G01 X17.5250 Y52.9390 
G01 X17.4351 Y52.7219 
G01 X17.3746 Y52.6614 
G01 X17.1281 Y52.4149 
G01 X16.7270 Y52.2488 
G01 X16.2930 Y52.2488 
G01 X15.8919 Y52.4149 
G01 X15.7340 Y52.5728 
G01 X15.6454 Y52.6614 
G01 X15.5849 Y52.7219 
G01 X15.4562 Y53.0327 
G01 X15.3845 Y53.1045 
G01 X15.2907 Y53.1433 
G01 X15.1893 Y53.1433 
G01 X15.0955 Y53.1045 
G01 X15.0238 Y53.0327 
G01 X14.9850 Y52.9390 
G01 X14.8951 Y52.7219 
G01 X14.8346 Y52.6614 
G01 X14.5881 Y52.4149 
G01 X14.1870 Y52.2488 
G01 X13.7530 Y52.2488 
G01 X13.3519 Y52.4149 
G01 X13.1940 Y52.5728 
G01 X13.1054 Y52.6614 
G01 X13.0449 Y52.7219 
G01 X12.9162 Y53.0327 
G01 X12.8445 Y53.1045 
G01 X12.7507 Y53.1433 
G01 X12.6493 Y53.1433 
G01 X12.5555 Y53.1045 
G01 X12.4838 Y53.0327 
G01 X12.4450 Y52.9390 
G01 X12.3551 Y52.7219 
G01 X12.2946 Y52.6614 
G01 X12.0481 Y52.4149 
G01 X11.6470 Y52.2488 
G01 X11.2130 Y52.2488 
G01 X10.8119 Y52.4149 
G01 X10.6540 Y52.5728 
G01 X10.5654 Y52.6614 
G01 X10.5049 Y52.7219 
G01 X10.3762 Y53.0327 
G01 X10.3045 Y53.1045 
G01 X10.2107 Y53.1433 
G01 X10.1093 Y53.1433 
G01 X10.0155 Y53.1045 
G01 X9.9438 Y53.0327 
G01 X9.9050 Y52.9390 
G01 X9.8151 Y52.7219 
G01 X9.5081 Y52.4149 
G01 X9.1070 Y52.2488 
G01 X8.6729 Y52.2488 
G01 X8.2719 Y52.4149 
G01 X8.1140 Y52.5728 
G01 X8.0254 Y52.6614 
G01 X7.9649 Y52.7219 
G01 X7.8362 Y53.0327 
G01 X7.7645 Y53.1045 
G01 X7.6707 Y53.1433 
G01 X7.5693 Y53.1433 
G01 X7.4755 Y53.1045 
G01 X7.4038 Y53.0327 
G01 X7.3650 Y52.9390 
G01 X7.2751 Y52.7219 
G01 X6.9681 Y52.4149 
G01 X6.5670 Y52.2488 
G01 X6.1329 Y52.2488 
G01 X5.7319 Y52.4149 
G01 X5.4249 Y52.7219 
G01 X5.2588 Y53.1229 
G01 X5.2588 Y53.5571 
G01 X5.3294 Y53.7275 
G01 X5.4082 Y53.9177 
G01 X5.4249 Y53.9581 
G01 X5.7319 Y54.2651 
G01 X6.0186 Y54.3838 
G01 X6.0903 Y54.4555 
G01 X6.1291 Y54.5493 
G01 X6.1291 Y54.6507 
G01 X6.1149 Y54.6852 
G01 X6.6176 Y54.6852 
G01 X7.1120 Y54.4804 
G01 X7.4904 Y54.1020 
G01 X7.5590 Y53.9364 
G01 X7.5681 Y53.9145 
G01 X7.5854 Y53.8968 
G01 X7.6079 Y53.8875 
G01 X7.6321 Y53.8875 
G01 X7.6546 Y53.8968 
G01 X7.6717 Y53.9140 
G01 X7.7496 Y54.1020 
G01 X8.1280 Y54.4804 
G01 X8.6224 Y54.6852 
G01 X9.1576 Y54.6852 
G01 X9.6520 Y54.4804 
G01 X10.0304 Y54.1020 
G01 X10.0990 Y53.9364 
G01 X10.1081 Y53.9145 
G01 X10.1254 Y53.8968 
G01 X10.1479 Y53.8875 
G01 X10.1721 Y53.8875 
G01 X10.1946 Y53.8968 
G01 X10.2117 Y53.9140 
G01 X10.2896 Y54.1020 
G01 X10.6680 Y54.4804 
G01 X11.1624 Y54.6852 
G01 X11.6976 Y54.6852 
G01 X12.1920 Y54.4804 
G01 X12.5704 Y54.1020 
G01 X12.6390 Y53.9364 
G01 X12.6483 Y53.9140 
G01 X12.6654 Y53.8968 
G01 X12.6879 Y53.8875 
G01 X12.7121 Y53.8875 
G01 X12.7346 Y53.8968 
G01 X12.7517 Y53.9140 
G01 X12.8296 Y54.1020 
G01 X13.2080 Y54.4804 
G01 X13.7024 Y54.6852 
G01 X14.2376 Y54.6852 
G01 X14.7320 Y54.4804 
G01 X15.1104 Y54.1020 
G01 X15.1790 Y53.9364 
G01 X15.1881 Y53.9145 
G01 X15.2054 Y53.8968 
G01 X15.2279 Y53.8875 
G01 X15.2521 Y53.8875 
G01 X15.2746 Y53.8968 
G01 X15.2917 Y53.9140 
G01 X15.3696 Y54.1020 
G01 X15.7480 Y54.4804 
G01 X16.2424 Y54.6852 
G01 X16.7776 Y54.6852 
G01 X17.2720 Y54.4804 
G01 X17.6504 Y54.1020 
G01 X17.7190 Y53.9364 
G01 X17.7281 Y53.9145 
G01 X17.7454 Y53.8968 
G01 X17.7679 Y53.8875 
G01 X17.7921 Y53.8875 
G01 X17.8146 Y53.8968 
G01 X17.8317 Y53.9140 
G01 X17.9096 Y54.1020 
G01 X18.2880 Y54.4804 
G01 X18.7824 Y54.6852 
G01 X19.2851 Y54.6852 
G01 X19.2716 Y54.6526 
G01 X19.2708 Y54.5493 
G01 X19.3086 Y54.4582 
G01 X19.3097 Y54.4555 
G01 X19.3814 Y54.3838 
G01 X19.6681 Y54.2651 
G01 X19.9751 Y53.9581 
G01 X20.1412 Y53.5570 
G01 X20.1412 Y53.1230 
G01 X19.9751 Y52.7219 
G01 X19.6681 Y52.4149 
G01 X19.2670 Y52.2488 
G01 X18.8330 Y52.2488 
G01 X18.4319 Y52.4149 
G01 X18.2740 Y52.5728 
G00 Z2.5400 
G00 X7.2908 Y53.2473 
G01 Z-0.0200 F254.00 
G01 X7.2908 Y53.4327 F300.00 
G01 X7.2547 Y53.6144 
G01 X7.1837 Y53.7856 
G01 X7.0808 Y53.9397 
G01 X6.9497 Y54.0708 
G01 X6.7956 Y54.1737 
G01 X6.6244 Y54.2447 
G01 X6.4427 Y54.2808 
G01 X6.2573 Y54.2808 
G01 X6.0756 Y54.2447 
G01 X5.9044 Y54.1737 
G01 X5.7503 Y54.0708 
G01 X5.6192 Y53.9397 
G01 X5.5163 Y53.7856 
G01 X5.4453 Y53.6144 
G01 X5.4092 Y53.4327 
G01 X5.4092 Y53.2473 
G01 X5.4453 Y53.0656 
G01 X5.5163 Y52.8944 
G01 X5.6192 Y52.7403 
G01 X5.7503 Y52.6092 
G01 X5.9044 Y52.5063 
G01 X6.0756 Y52.4353 
G01 X6.2573 Y52.3992 
G01 X6.4427 Y52.3992 
G01 X6.6244 Y52.4353 
G01 X6.7956 Y52.5063 
G01 X6.9497 Y52.6092 
G01 X7.0808 Y52.7403 
G01 X7.1837 Y52.8944 
G01 X7.2547 Y53.0656 
G01 X7.2908 Y53.2473 
G00 Z2.5400 
G00 X9.8308 Y53.2473 
G01 Z-0.0200 F254.00 
G01 X9.8308 Y53.4327 F300.00 
G01 X9.7947 Y53.6144 
G01 X9.7237 Y53.7856 
G01 X9.6208 Y53.9397 
G01 X9.4897 Y54.0708 
G01 X9.3356 Y54.1737 
G01 X9.1644 Y54.2447 
G01 X8.9827 Y54.2808 
G01 X8.7973 Y54.2808 
G01 X8.6156 Y54.2447 
G01 X8.4444 Y54.1737 
G01 X8.2903 Y54.0708 
G01 X8.1592 Y53.9397 
G01 X8.0563 Y53.7856 
G01 X7.9853 Y53.6144 
G01 X7.9492 Y53.4327 
G01 X7.9492 Y53.2473 
G01 X7.9853 Y53.0656 
G01 X8.0563 Y52.8944 
G01 X8.1592 Y52.7403 
G01 X8.2903 Y52.6092 
G01 X8.4444 Y52.5063 
G01 X8.6156 Y52.4353 
G01 X8.7973 Y52.3992 
G01 X8.9827 Y52.3992 
G01 X9.1644 Y52.4353 
G01 X9.3356 Y52.5063 
G01 X9.4897 Y52.6092 
G01 X9.6208 Y52.7403 
G01 X9.7237 Y52.8944 
G01 X9.7947 Y53.0656 
G01 X9.8308 Y53.2473 
G00 Z2.5400 
G00 X12.3708 Y53.2473 
G01 Z-0.0200 F254.00 
G01 X12.3708 Y53.4327 F300.00 
G01 X12.3347 Y53.6144 
G01 X12.2637 Y53.7856 
G01 X12.1608 Y53.9397 
G01 X12.0297 Y54.0708 
G01 X11.8756 Y54.1737 
G01 X11.7044 Y54.2447 
G01 X11.5227 Y54.2808 
G01 X11.3373 Y54.2808 
G01 X11.1556 Y54.2447 
G01 X10.9844 Y54.1737 
G01 X10.8303 Y54.0708 
G01 X10.6992 Y53.9397 
G01 X10.5963 Y53.7856 
G01 X10.5253 Y53.6144 
G01 X10.4892 Y53.4327 
G01 X10.4892 Y53.2473 
G01 X10.5253 Y53.0656 
G01 X10.5963 Y52.8944 
G01 X10.6992 Y52.7403 
G01 X10.8303 Y52.6092 
G01 X10.9844 Y52.5063 
G01 X11.1556 Y52.4353 
G01 X11.3373 Y52.3992 
G01 X11.5227 Y52.3992 
G01 X11.7044 Y52.4353 
G01 X11.8756 Y52.5063 
G01 X12.0297 Y52.6092 
G01 X12.1608 Y52.7403 
G01 X12.2637 Y52.8944 
G01 X12.3347 Y53.0656 
G01 X12.3708 Y53.2473 
G00 Z2.5400 
G00 X14.9108 Y53.2473 
G01 Z-0.0200 F254.00 
G01 X14.9108 Y53.4327 F300.00 
G01 X14.8747 Y53.6144 
G01 X14.8037 Y53.7856 
G01 X14.7008 Y53.9397 
G01 X14.5697 Y54.0708 
G01 X14.4156 Y54.1737 
G01 X14.2444 Y54.2447 
G01 X14.0627 Y54.2808 
G01 X13.8773 Y54.2808 
G01 X13.6956 Y54.2447 
G01 X13.5244 Y54.1737 
G01 X13.3703 Y54.0708 
G01 X13.2392 Y53.9397 
G01 X13.1363 Y53.7856 
G01 X13.0653 Y53.6144 
G01 X13.0292 Y53.4327 
G01 X13.0292 Y53.2473 
G01 X13.0653 Y53.0656 
G01 X13.1363 Y52.8944 
G01 X13.2392 Y52.7403 
G01 X13.3703 Y52.6092 
G01 X13.5244 Y52.5063 
G01 X13.6956 Y52.4353 
G01 X13.8773 Y52.3992 
G01 X14.0627 Y52.3992 
G01 X14.2444 Y52.4353 
G01 X14.4156 Y52.5063 
G01 X14.5697 Y52.6092 
G01 X14.7008 Y52.7403 
G01 X14.8037 Y52.8944 
G01 X14.8747 Y53.0656 
G01 X14.9108 Y53.2473 
G00 Z2.5400 
G00 X17.4508 Y53.2473 
G01 Z-0.0200 F254.00 
G01 X17.4508 Y53.4327 F300.00 
G01 X17.4147 Y53.6144 
G01 X17.3437 Y53.7856 
G01 X17.2408 Y53.9397 
G01 X17.1097 Y54.0708 
G01 X16.9556 Y54.1737 
G01 X16.7844 Y54.2447 
G01 X16.6027 Y54.2808 
G01 X16.4173 Y54.2808 
G01 X16.2356 Y54.2447 
G01 X16.0644 Y54.1737 
G01 X15.9103 Y54.0708 
G01 X15.7792 Y53.9397 
G01 X15.6763 Y53.7856 
G01 X15.6053 Y53.6144 
G01 X15.5692 Y53.4327 
G01 X15.5692 Y53.2473 
G01 X15.6053 Y53.0656 
G01 X15.6763 Y52.8944 
G01 X15.7792 Y52.7403 
G01 X15.9103 Y52.6092 
G01 X16.0644 Y52.5063 
G01 X16.2356 Y52.4353 
G01 X16.4173 Y52.3992 
G01 X16.6027 Y52.3992 
G01 X16.7844 Y52.4353 
G01 X16.9556 Y52.5063 
G01 X17.1097 Y52.6092 
G01 X17.2408 Y52.7403 
G01 X17.3437 Y52.8944 
G01 X17.4147 Y53.0656 
G01 X17.4508 Y53.2473 
G00 Z2.5400 
G00 X19.9908 Y53.2473 
G01 Z-0.0200 F254.00 
G01 X19.9908 Y53.4327 F300.00 
G01 X19.9547 Y53.6144 
G01 X19.8837 Y53.7856 
G01 X19.7808 Y53.9397 
G01 X19.6497 Y54.0708 
G01 X19.4956 Y54.1737 
G01 X19.3244 Y54.2447 
G01 X19.1427 Y54.2808 
G01 X18.9573 Y54.2808 
G01 X18.7756 Y54.2447 
G01 X18.6044 Y54.1737 
G01 X18.4503 Y54.0708 
G01 X18.3192 Y53.9397 
G01 X18.2163 Y53.7856 
G01 X18.1453 Y53.6144 
G01 X18.1092 Y53.4327 
G01 X18.1092 Y53.2473 
G01 X18.1453 Y53.0656 
G01 X18.2163 Y52.8944 
G01 X18.3192 Y52.7403 
G01 X18.4503 Y52.6092 
G01 X18.6044 Y52.5063 
G01 X18.7756 Y52.4353 
G01 X18.9573 Y52.3992 
G01 X19.1427 Y52.3992 
G01 X19.3244 Y52.4353 
G01 X19.4956 Y52.5063 
G01 X19.6497 Y52.6092 
G01 X19.7808 Y52.7403 
G01 X19.8837 Y52.8944 
G01 X19.9547 Y53.0656 
G01 X19.9908 Y53.2473 
G00 Z2.5400 
G00 X32.2843 Y32.7923 
G01 Z-0.0200 F254.00 
G01 X32.2763 Y32.8222 F300.00 
G01 X32.2670 Y32.8567 
G01 X32.2670 Y33.1850 
G01 X32.3840 Y33.1850 
G01 X32.3840 Y32.6766 
G01 X32.3587 Y32.6935 
G01 X32.3235 Y32.7287 
G01 X32.3050 Y32.7564 
G01 X32.2843 Y32.7923 
G00 Z2.5400 
G00 X38.6426 Y28.9679 
G01 Z-0.0200 F254.00 
G01 X38.6318 Y28.9940 F300.00 
G01 X38.7340 Y28.9940 
G01 X38.7340 Y28.8666 
G01 X38.7087 Y28.8835 
G01 X38.6735 Y28.9187 
G01 X38.6551 Y28.9463 
G01 X38.6426 Y28.9679 
G00 Z2.5400 
G00 X40.0849 Y28.9463 
G01 Z-0.0200 F254.00 
G01 X40.0665 Y28.9187 F300.00 
G01 X40.0313 Y28.8835 
G01 X40.0060 Y28.8666 
G01 X40.0060 Y28.9940 
G01 X40.1082 Y28.9940 
G01 X40.0974 Y28.9679 
G01 X40.0849 Y28.9463 
G00 Z2.5400 
G00 X33.7637 Y32.8222 
G01 Z-0.0200 F254.00 
G01 X33.7601 Y32.8085 F300.00 
G01 X33.7474 Y32.7779 
G01 X33.7350 Y32.7564 
G01 X33.7327 Y32.7530 
G01 X33.7165 Y32.7287 
G01 X33.6813 Y32.6935 
G01 X33.6560 Y32.6766 
G01 X33.6560 Y33.1850 
G01 X33.7730 Y33.1850 
G01 X33.7730 Y32.8651 
G01 X33.7665 Y32.8325 
G01 X33.7637 Y32.8222 
G00 Z2.5400 
G00 X31.1310 Y34.0382 
G01 Z-0.0200 F254.00 
G01 X31.1776 Y34.0257 F300.00 
G01 X31.2353 Y33.9924 
G01 X31.2824 Y33.9453 
G01 X31.3157 Y33.8876 
G01 X31.3282 Y33.8410 
G01 X31.3330 Y33.8233 
G01 X31.3330 Y33.6450 
G01 X31.0810 Y33.6450 
G01 X31.0810 Y33.7904 
G01 X30.9770 Y33.7910 
G01 X30.9740 Y33.7954 
G01 X30.8855 Y33.8840 
G01 X30.7813 Y33.9536 
G01 X30.6655 Y34.0015 
G01 X30.6010 Y34.0144 
G01 X30.6010 Y34.0430 
G01 X31.1133 Y34.0430 
G01 X31.1310 Y34.0382 
G00 Z2.5400 
G00 X29.6972 Y32.8150 
G01 Z-0.0200 F254.00 
G01 X29.6835 Y32.8287 F300.00 
G01 X29.6650 Y32.8564 
G01 X29.6443 Y32.8924 
G01 X29.6429 Y32.8973 
G01 X29.6270 Y32.9567 
G01 X29.6270 Y33.1350 
G01 X29.8440 Y33.1350 
G01 X29.8440 Y32.7392 
G01 X29.8225 Y32.7435 
G01 X29.7985 Y32.7499 
G01 X29.7679 Y32.7626 
G01 X29.7464 Y32.7750 
G01 X29.7328 Y32.7841 
G01 X29.7187 Y32.7935 
G01 X29.6972 Y32.8150 
G00 Z2.5400 
G00 X31.1160 Y33.1350 
G01 Z-0.0200 F254.00 
G01 X31.3330 Y33.1350 F300.00 
G01 X31.3330 Y32.9567 
G01 X31.3271 Y32.9349 
G01 X31.3157 Y32.8924 
G01 X31.2824 Y32.8347 
G01 X31.2718 Y32.8240 
G01 X31.2413 Y32.7935 
G01 X31.2137 Y32.7750 
G01 X31.1921 Y32.7626 
G01 X31.1615 Y32.7499 
G01 X31.1375 Y32.7435 
G01 X31.1160 Y32.7392 
G01 X31.1160 Y33.1350 
G00 Z2.5400 
G00 X29.6270 Y33.8233 
G01 Z-0.0200 F254.00 
G01 X29.6329 Y33.8451 F300.00 
G01 X29.6443 Y33.8876 
G01 X29.6776 Y33.9453 
G01 X29.7247 Y33.9924 
G01 X29.7824 Y34.0257 
G01 X29.8249 Y34.0371 
G01 X29.8467 Y34.0430 
G01 X30.3590 Y34.0430 
G01 X30.3590 Y34.0144 
G01 X30.2945 Y34.0015 
G01 X30.1787 Y33.9536 
G01 X30.0745 Y33.8840 
G01 X29.9860 Y33.7954 
G01 X29.9830 Y33.7910 
G01 X29.8796 Y33.7910 
G01 X29.8790 Y33.6450 
G01 X29.6270 Y33.6450 
G01 X29.6270 Y33.8233 
G00 Z2.5400 
G00 X28.9356 Y54.2447 
G01 Z-0.0200 F254.00 
G01 X28.7644 Y54.1737 F300.00 
G01 X28.6103 Y54.0708 
G01 X28.5155 Y53.9760 
G01 X28.1977 Y53.9760 
G01 X28.3002 Y54.1170 
G01 X28.4329 Y54.2498 
G01 X28.5848 Y54.3602 
G01 X28.7521 Y54.4454 
G01 X28.9307 Y54.5034 
G01 X29.0890 Y54.5285 
G01 X29.0890 Y54.2752 
G01 X28.9356 Y54.2447 
G00 Z2.5400 
G00 X30.1508 Y53.2473 
G01 Z-0.0200 F254.00 
G01 X30.1508 Y53.4327 F300.00 
G01 X30.1147 Y53.6144 
G01 X30.0437 Y53.7856 
G01 X29.9408 Y53.9397 
G01 X29.8097 Y54.0708 
G01 X29.6556 Y54.1737 
G01 X29.4844 Y54.2447 
G01 X29.3310 Y54.2752 
G01 X29.3310 Y54.5285 
G01 X29.4893 Y54.5034 
G01 X29.6679 Y54.4454 
G01 X29.8352 Y54.3602 
G01 X29.9870 Y54.2498 
G01 X30.1198 Y54.1170 
G01 X30.2302 Y53.9652 
G01 X30.3154 Y53.7979 
G01 X30.3353 Y53.7367 
G01 X30.3390 Y53.7252 
G01 X30.3420 Y53.7160 
G01 X30.3445 Y53.7118 
G01 X30.3514 Y53.7049 
G01 X30.3578 Y53.6975 
G01 X30.3617 Y53.6947 
G01 X30.3707 Y53.6909 
G01 X30.3794 Y53.6865 
G01 X30.3841 Y53.6854 
G01 X30.3939 Y53.6854 
G01 X30.4036 Y53.6846 
G01 X30.4084 Y53.6854 
G01 X30.4174 Y53.6891 
G01 X30.4267 Y53.6921 
G01 X30.4308 Y53.6947 
G01 X30.4377 Y53.7016 
G01 X30.4451 Y53.7079 
G01 X30.4480 Y53.7118 
G01 X30.4517 Y53.7208 
G01 X30.4562 Y53.7295 
G01 X30.6096 Y54.1020 
G01 X30.9880 Y54.4804 
G01 X31.4824 Y54.6852 
G01 X32.0176 Y54.6852 
G01 X32.5120 Y54.4804 
G01 X32.8904 Y54.1020 
G01 X32.9683 Y53.9139 
G01 X32.9770 Y53.9052 
G01 X32.9854 Y53.8968 
G01 X33.0011 Y53.8903 
G01 X33.0079 Y53.8875 
G01 X33.0321 Y53.8875 
G01 X33.0546 Y53.8968 
G01 X33.0633 Y53.9055 
G01 X33.0717 Y53.9139 
G01 X33.1496 Y54.1020 
G01 X33.5280 Y54.4804 
G01 X34.0224 Y54.6852 
G01 X34.5576 Y54.6852 
G01 X35.0520 Y54.4804 
G01 X35.4304 Y54.1020 
G01 X35.5083 Y53.9139 
G01 X35.5170 Y53.9052 
G01 X35.5254 Y53.8968 
G01 X35.5411 Y53.8903 
G01 X35.5479 Y53.8875 
G01 X35.5721 Y53.8875 
G01 X35.5946 Y53.8968 
G01 X35.6033 Y53.9055 
G01 X35.6117 Y53.9139 
G01 X35.6896 Y54.1020 
G01 X36.0680 Y54.4804 
G01 X36.5624 Y54.6852 
G01 X37.0976 Y54.6852 
G01 X37.5920 Y54.4804 
G01 X37.9704 Y54.1020 
G01 X38.0483 Y53.9139 
G01 X38.0570 Y53.9052 
G01 X38.0654 Y53.8968 
G01 X38.0876 Y53.8876 
G01 X38.1121 Y53.8875 
G01 X38.1185 Y53.8901 
G01 X38.1346 Y53.8968 
G01 X38.1433 Y53.9055 
G01 X38.1517 Y53.9139 
G01 X38.2296 Y54.1020 
G01 X38.6080 Y54.4804 
G01 X39.1024 Y54.6852 
G01 X39.6376 Y54.6852 
G01 X40.1320 Y54.4804 
G01 X40.5104 Y54.1020 
G01 X40.5883 Y53.9139 
G01 X40.5970 Y53.9052 
G01 X40.6054 Y53.8968 
G01 X40.6276 Y53.8876 
G01 X40.6521 Y53.8875 
G01 X40.6585 Y53.8901 
G01 X40.6746 Y53.8968 
G01 X40.6833 Y53.9055 
G01 X40.6917 Y53.9139 
G01 X40.7696 Y54.1020 
G01 X41.1480 Y54.4804 
G01 X41.6424 Y54.6852 
G01 X42.1451 Y54.6852 
G01 X42.1316 Y54.6526 
G01 X42.1308 Y54.5493 
G01 X42.1686 Y54.4582 
G01 X42.1697 Y54.4555 
G01 X42.2414 Y54.3838 
G01 X42.5281 Y54.2651 
G01 X42.8351 Y53.9581 
G01 X42.8518 Y53.9177 
G01 X43.0012 Y53.5570 
G01 X43.0012 Y53.1230 
G01 X42.8351 Y52.7219 
G01 X42.5281 Y52.4149 
G01 X42.1270 Y52.2488 
G01 X41.6930 Y52.2488 
G01 X41.2919 Y52.4149 
G01 X41.0454 Y52.6614 
G01 X40.9849 Y52.7219 
G01 X40.8950 Y52.9390 
G01 X40.8562 Y53.0327 
G01 X40.7856 Y53.1034 
G01 X40.7306 Y53.1267 
G01 X40.6907 Y53.1433 
G01 X40.5893 Y53.1433 
G01 X40.4955 Y53.1045 
G01 X40.4249 Y53.0338 
G01 X40.2951 Y52.7219 
G01 X40.2346 Y52.6614 
G01 X40.1460 Y52.5728 
G01 X39.9881 Y52.4149 
G01 X39.5870 Y52.2488 
G01 X39.1530 Y52.2488 
G01 X38.7519 Y52.4149 
G01 X38.4449 Y52.7219 
G01 X38.3550 Y52.9390 
G01 X38.3162 Y53.0327 
G01 X38.2456 Y53.1034 
G01 X38.1906 Y53.1267 
G01 X38.1507 Y53.1433 
G01 X38.0493 Y53.1433 
G01 X37.9555 Y53.1045 
G01 X37.8849 Y53.0338 
G01 X37.7551 Y52.7219 
G01 X37.6946 Y52.6614 
G01 X37.6060 Y52.5728 
G01 X37.4481 Y52.4149 
G01 X37.0470 Y52.2488 
G01 X36.6130 Y52.2488 
G01 X36.2119 Y52.4149 
G01 X36.0540 Y52.5728 
G01 X35.9654 Y52.6614 
G01 X35.9049 Y52.7219 
G01 X35.7762 Y53.0327 
G01 X35.7045 Y53.1045 
G01 X35.6107 Y53.1433 
G01 X35.5093 Y53.1433 
G01 X35.4716 Y53.1277 
G01 X35.4155 Y53.1045 
G01 X35.3438 Y53.0327 
G01 X35.3050 Y52.9390 
G01 X35.2151 Y52.7219 
G01 X34.9081 Y52.4149 
G01 X34.5070 Y52.2488 
G01 X34.0729 Y52.2488 
G01 X33.6719 Y52.4149 
G01 X33.5140 Y52.5728 
G01 X33.4254 Y52.6614 
G01 X33.3649 Y52.7219 
G01 X33.2362 Y53.0327 
G01 X33.1645 Y53.1045 
G01 X33.0707 Y53.1433 
G01 X32.9693 Y53.1433 
G01 X32.9316 Y53.1277 
G01 X32.8755 Y53.1045 
G01 X32.8038 Y53.0327 
G01 X32.7650 Y52.9390 
G01 X32.6751 Y52.7219 
G01 X32.3681 Y52.4149 
G01 X31.9670 Y52.2488 
G01 X31.5330 Y52.2488 
G01 X31.1319 Y52.4149 
G01 X31.0459 Y52.5010 
G01 X30.9621 Y52.5847 
G01 X30.9573 Y52.5896 
G01 X30.8249 Y52.7219 
G01 X30.7754 Y52.8416 
G01 X30.7628 Y52.8803 
G01 X30.7561 Y52.8881 
G01 X30.7521 Y52.8977 
G01 X30.7233 Y52.9265 
G01 X30.6969 Y52.9574 
G01 X30.6877 Y52.9621 
G01 X30.6804 Y52.9694 
G01 X30.6428 Y52.9850 
G01 X30.6065 Y53.0035 
G01 X30.5962 Y53.0043 
G01 X30.5867 Y53.0083 
G01 X30.5459 Y53.0083 
G01 X30.5054 Y53.0114 
G01 X30.4955 Y53.0083 
G01 X30.4852 Y53.0083 
G01 X30.4476 Y52.9927 
G01 X30.4284 Y52.9864 
G01 X30.4174 Y52.9909 
G01 X30.4084 Y52.9946 
G01 X30.4036 Y52.9954 
G01 X30.3939 Y52.9946 
G01 X30.3841 Y52.9946 
G01 X30.3794 Y52.9935 
G01 X30.3707 Y52.9891 
G01 X30.3617 Y52.9853 
G01 X30.3578 Y52.9825 
G01 X30.3514 Y52.9751 
G01 X30.3445 Y52.9682 
G01 X30.3420 Y52.9640 
G01 X30.3390 Y52.9547 
G01 X30.3353 Y52.9457 
G01 X30.3208 Y52.8987 
G01 X30.3042 Y52.8601 
G01 X30.2302 Y52.7148 
G01 X30.1198 Y52.5630 
G01 X30.0578 Y52.5010 
G01 X29.9981 Y52.4413 
G01 X29.9955 Y52.4393 
G01 X29.9607 Y52.4160 
G01 X29.9459 Y52.4012 
G01 X29.9237 Y52.3842 
G01 X29.8605 Y52.3383 
G01 X29.8460 Y52.3299 
G01 X29.8460 Y52.6455 
G01 X29.9408 Y52.7403 
G01 X30.0437 Y52.8944 
G01 X30.1147 Y53.0656 
G01 X30.1508 Y53.2473 
G00 Z2.5400 
G00 X42.8508 Y53.2473 
G01 Z-0.0200 F254.00 
G01 X42.8508 Y53.4327 F300.00 
G01 X42.8147 Y53.6144 
G01 X42.7437 Y53.7856 
G01 X42.6408 Y53.9397 
G01 X42.5097 Y54.0708 
G01 X42.3556 Y54.1737 
G01 X42.1844 Y54.2447 
G01 X42.0027 Y54.2808 
G01 X41.8173 Y54.2808 
G01 X41.6356 Y54.2447 
G01 X41.4644 Y54.1737 
G01 X41.3103 Y54.0708 
G01 X41.1792 Y53.9397 
G01 X41.0763 Y53.7856 
G01 X41.0053 Y53.6144 
G01 X40.9692 Y53.4327 
G01 X40.9692 Y53.2473 
G01 X41.0053 Y53.0656 
G01 X41.0763 Y52.8944 
G01 X41.1792 Y52.7403 
G01 X41.3103 Y52.6092 
G01 X41.4644 Y52.5063 
G01 X41.6356 Y52.4353 
G01 X41.8173 Y52.3992 
G01 X42.0027 Y52.3992 
G01 X42.1844 Y52.4353 
G01 X42.3556 Y52.5063 
G01 X42.5097 Y52.6092 
G01 X42.6408 Y52.7403 
G01 X42.7437 Y52.8944 
G01 X42.8147 Y53.0656 
G01 X42.8508 Y53.2473 
G00 Z2.5400 
G00 X40.3108 Y53.2473 
G01 Z-0.0200 F254.00 
G01 X40.3108 Y53.4327 F300.00 
G01 X40.2747 Y53.6144 
G01 X40.2037 Y53.7856 
G01 X40.1008 Y53.9397 
G01 X39.9697 Y54.0708 
G01 X39.8156 Y54.1737 
G01 X39.6444 Y54.2447 
G01 X39.4627 Y54.2808 
G01 X39.2773 Y54.2808 
G01 X39.0956 Y54.2447 
G01 X38.9244 Y54.1737 
G01 X38.7703 Y54.0708 
G01 X38.6392 Y53.9397 
G01 X38.5363 Y53.7856 
G01 X38.4653 Y53.6144 
G01 X38.4292 Y53.4327 
G01 X38.4292 Y53.2473 
G01 X38.4653 Y53.0656 
G01 X38.5363 Y52.8944 
G01 X38.6392 Y52.7403 
G01 X38.7703 Y52.6092 
G01 X38.9244 Y52.5063 
G01 X39.0956 Y52.4353 
G01 X39.2773 Y52.3992 
G01 X39.4627 Y52.3992 
G01 X39.6444 Y52.4353 
G01 X39.8156 Y52.5063 
G01 X39.9697 Y52.6092 
G01 X40.1008 Y52.7403 
G01 X40.2037 Y52.8944 
G01 X40.2747 Y53.0656 
G01 X40.3108 Y53.2473 
G00 Z2.5400 
G00 X32.6908 Y53.2473 
G01 Z-0.0200 F254.00 
G01 X32.6908 Y53.4327 F300.00 
G01 X32.6547 Y53.6144 
G01 X32.5837 Y53.7856 
G01 X32.4808 Y53.9397 
G01 X32.3497 Y54.0708 
G01 X32.1956 Y54.1737 
G01 X32.0244 Y54.2447 
G01 X31.8427 Y54.2808 
G01 X31.6573 Y54.2808 
G01 X31.4756 Y54.2447 
G01 X31.3044 Y54.1737 
G01 X31.1503 Y54.0708 
G01 X31.0192 Y53.9397 
G01 X30.9163 Y53.7856 
G01 X30.8453 Y53.6144 
G01 X30.8092 Y53.4327 
G01 X30.8092 Y53.2473 
G01 X30.8453 Y53.0656 
G01 X30.9163 Y52.8944 
G01 X31.0192 Y52.7403 
G01 X31.1503 Y52.6092 
G01 X31.3044 Y52.5063 
G01 X31.4756 Y52.4353 
G01 X31.6573 Y52.3992 
G01 X31.8427 Y52.3992 
G01 X32.0244 Y52.4353 
G01 X32.1956 Y52.5063 
G01 X32.3497 Y52.6092 
G01 X32.4808 Y52.7403 
G01 X32.5837 Y52.8944 
G01 X32.6547 Y53.0656 
G01 X32.6908 Y53.2473 
G00 Z2.5400 
G00 X35.2308 Y53.2473 
G01 Z-0.0200 F254.00 
G01 X35.2308 Y53.4327 F300.00 
G01 X35.1947 Y53.6144 
G01 X35.1237 Y53.7856 
G01 X35.0208 Y53.9397 
G01 X34.8897 Y54.0708 
G01 X34.7356 Y54.1737 
G01 X34.5644 Y54.2447 
G01 X34.3827 Y54.2808 
G01 X34.1973 Y54.2808 
G01 X34.0156 Y54.2447 
G01 X33.8444 Y54.1737 
G01 X33.6903 Y54.0708 
G01 X33.5592 Y53.9397 
G01 X33.4563 Y53.7856 
G01 X33.3853 Y53.6144 
G01 X33.3492 Y53.4327 
G01 X33.3492 Y53.2473 
G01 X33.3853 Y53.0656 
G01 X33.4563 Y52.8944 
G01 X33.5592 Y52.7403 
G01 X33.6903 Y52.6092 
G01 X33.8444 Y52.5063 
G01 X34.0156 Y52.4353 
G01 X34.1973 Y52.3992 
G01 X34.3827 Y52.3992 
G01 X34.5644 Y52.4353 
G01 X34.7356 Y52.5063 
G01 X34.8897 Y52.6092 
G01 X35.0208 Y52.7403 
G01 X35.1237 Y52.8944 
G01 X35.1947 Y53.0656 
G01 X35.2308 Y53.2473 
G00 Z2.5400 
G00 X37.7708 Y53.2473 
G01 Z-0.0200 F254.00 
G01 X37.7708 Y53.4327 F300.00 
G01 X37.7347 Y53.6144 
G01 X37.6637 Y53.7856 
G01 X37.5608 Y53.9397 
G01 X37.4297 Y54.0708 
G01 X37.2756 Y54.1737 
G01 X37.1044 Y54.2447 
G01 X36.9227 Y54.2808 
G01 X36.7373 Y54.2808 
G01 X36.5556 Y54.2447 
G01 X36.3844 Y54.1737 
G01 X36.2303 Y54.0708 
G01 X36.0992 Y53.9397 
G01 X35.9963 Y53.7856 
G01 X35.9253 Y53.6144 
G01 X35.8892 Y53.4327 
G01 X35.8892 Y53.2473 
G01 X35.9253 Y53.0656 
G01 X35.9963 Y52.8944 
G01 X36.0992 Y52.7403 
G01 X36.2303 Y52.6092 
G01 X36.3844 Y52.5063 
G01 X36.5556 Y52.4353 
G01 X36.7373 Y52.3992 
G01 X36.9227 Y52.3992 
G01 X37.1044 Y52.4353 
G01 X37.2756 Y52.5063 
G01 X37.4297 Y52.6092 
G01 X37.5608 Y52.7403 
G01 X37.6637 Y52.8944 
G01 X37.7347 Y53.0656 
G01 X37.7708 Y53.2473 
G00 Z2.5400 
G00 X28.5595 Y52.3383 
G01 Z-0.0200 F254.00 
G01 X28.4962 Y52.3843 F300.00 
G01 X28.4219 Y52.4413 
G01 X28.3963 Y52.4669 
G01 X28.3454 Y52.5177 
G01 X28.3002 Y52.5630 
G01 X28.1977 Y52.7040 
G01 X28.5155 Y52.7040 
G01 X28.5740 Y52.6455 
G01 X28.5740 Y52.3299 
G01 X28.5595 Y52.3383 
G00 Z2.5400 
G00 X55.5508 Y53.1025 
G01 Z-0.0200 F254.00 
G01 X55.5147 Y53.2842 F300.00 
G01 X55.4437 Y53.4554 
G01 X55.3408 Y53.6095 
G01 X55.2097 Y53.7406 
G01 X55.0556 Y53.8435 
G01 X54.8904 Y53.9120 
G01 X54.8904 Y54.1729 
G01 X55.0679 Y54.1152 
G01 X55.2352 Y54.0300 
G01 X55.3870 Y53.9196 
G01 X55.4931 Y53.8136 
G01 X55.5091 Y53.7974 
G01 X55.5657 Y53.7236 
G01 X55.6117 Y53.6603 
G01 X55.6586 Y53.5791 
G01 X55.6941 Y53.5095 
G01 X55.7299 Y53.4230 
G01 X55.7541 Y53.3486 
G01 X55.7783 Y53.2582 
G01 X55.7906 Y53.1809 
G01 X55.8028 Y53.0880 
G01 X55.8028 Y52.7060 
G01 X55.5508 Y52.7060 
G01 X55.5508 Y53.1025 
G00 Z2.5400 
G00 X40.0060 Y42.1760 
G01 Z-0.0200 F254.00 
G01 X40.0060 Y42.1908 F300.00 
G01 X40.0275 Y42.1865 
G01 X40.0515 Y42.1801 
G01 X40.0612 Y42.1760 
G01 X40.0060 Y42.1760 
G00 Z2.5400 
G00 X38.6885 Y42.1801 
G01 Z-0.0200 F254.00 
G01 X38.7125 Y42.1865 F300.00 
G01 X38.7340 Y42.1908 
G01 X38.7340 Y42.1760 
G01 X38.6788 Y42.1760 
G01 X38.6885 Y42.1801 
G00 Z2.5400 
G00 X55.5508 Y51.0375 
G01 Z-0.0200 F254.00 
G01 X55.5508 Y51.4340 F300.00 
G01 X55.8028 Y51.4340 
G01 X55.8028 Y51.0520 
G01 X55.7906 Y50.9591 
G01 X55.7783 Y50.8818 
G01 X55.7541 Y50.7913 
G01 X55.7299 Y50.7170 
G01 X55.6941 Y50.6305 
G01 X55.6586 Y50.5609 
G01 X55.6117 Y50.4797 
G01 X55.5658 Y50.4164 
G01 X55.5087 Y50.3421 
G01 X55.3981 Y50.2315 
G01 X55.3238 Y50.1744 
G01 X55.2605 Y50.1285 
G01 X55.2460 Y50.1201 
G01 X55.2460 Y50.4357 
G01 X55.3408 Y50.5305 
G01 X55.4437 Y50.6846 
G01 X55.5147 Y50.8558 
G01 X55.5508 Y51.0375 
G00 Z2.5400 
G00 X47.5451 Y26.4063 
G01 Z-0.0200 F254.00 
G01 X47.5326 Y26.4279 F300.00 
G01 X47.5218 Y26.4540 
G01 X47.6240 Y26.4540 
G01 X47.6240 Y26.3266 
G01 X47.5987 Y26.3435 
G01 X47.5635 Y26.3787 
G01 X47.5451 Y26.4063 
G00 Z2.5400 
G00 X50.0643 Y27.7124 
G01 Z-0.0200 F254.00 
G01 X50.0524 Y27.7568 F300.00 
G01 X50.0470 Y27.7767 
G01 X50.0470 Y28.1050 
G01 X50.1640 Y28.1050 
G01 X50.1640 Y27.5966 
G01 X50.1387 Y27.6135 
G01 X50.0976 Y27.6547 
G01 X50.0643 Y27.7124 
G00 Z2.5400 
G00 X53.8826 Y27.6979 
G01 Z-0.0200 F254.00 
G01 X53.8718 Y27.7240 F300.00 
G01 X53.9740 Y27.7240 
G01 X53.9740 Y27.5966 
G01 X53.9487 Y27.6135 
G01 X53.9135 Y27.6487 
G01 X53.8950 Y27.6763 
G01 X53.8826 Y27.6979 
G00 Z2.5400 
G00 X55.3249 Y27.6763 
G01 Z-0.0200 F254.00 
G01 X55.3065 Y27.6487 F300.00 
G01 X55.2713 Y27.6135 
G01 X55.2460 Y27.5966 
G01 X55.2460 Y27.7240 
G01 X55.3482 Y27.7240 
G01 X55.3374 Y27.6979 
G01 X55.3249 Y27.6763 
G00 Z2.5400 
G00 X51.5149 Y27.6763 
G01 Z-0.0200 F254.00 
G01 X51.4965 Y27.6487 F300.00 
G01 X51.4613 Y27.6135 
G01 X51.4360 Y27.5966 
G01 X51.4360 Y27.7240 
G01 X51.5382 Y27.7240 
G01 X51.5274 Y27.6979 
G01 X51.5149 Y27.6763 
G00 Z2.5400 
G00 X48.9874 Y26.4279 
G01 Z-0.0200 F254.00 
G01 X48.9749 Y26.4063 F300.00 
G01 X48.9565 Y26.3787 
G01 X48.9213 Y26.3435 
G01 X48.8960 Y26.3266 
G01 X48.8960 Y26.4540 
G01 X48.9982 Y26.4540 
G01 X48.9874 Y26.4279 
G00 Z2.5400 
G00 X48.8967 Y37.0770 
G01 Z-0.0200 F254.00 
G01 X48.8611 Y37.0865 F300.00 
G01 X48.8334 Y37.0940 
G01 X49.2750 Y37.0940 
G01 X49.2750 Y37.0770 
G01 X49.2171 Y37.0770 
G01 X48.8967 Y37.0770 
G00 Z2.5400 
G00 X48.8485 Y38.3701 
G01 Z-0.0200 F254.00 
G01 X48.8611 Y38.3734 F300.00 
G01 X48.8725 Y38.3765 
G01 X48.8940 Y38.3808 
G01 X48.8940 Y38.3660 
G01 X48.8387 Y38.3660 
G01 X48.8485 Y38.3701 
G00 Z2.5400 
G00 X50.1875 Y38.3765 
G01 Z-0.0200 F254.00 
G01 X50.2115 Y38.3701 F300.00 
G01 X50.2212 Y38.3660 
G01 X50.1660 Y38.3660 
G01 X50.1660 Y38.3808 
G01 X50.1875 Y38.3765 
G00 Z2.5400 
G00 X50.1989 Y37.0865 
G01 Z-0.0200 F254.00 
G01 X50.1633 Y37.0770 F300.00 
G01 X49.7850 Y37.0770 
G01 X49.7850 Y37.0940 
G01 X50.2266 Y37.0940 
G01 X50.1989 Y37.0865 
G00 Z2.5400 
G00 X59.0806 Y32.7657 
G01 Z-0.0200 F254.00 
G01 X59.1166 Y32.7560 F300.00 
G01 X58.6750 Y32.7560 
G01 X58.6750 Y32.7730 
G01 X59.0533 Y32.7730 
G01 X59.0806 Y32.7657 
G00 Z2.5400 
G00 X59.0806 Y31.4743 
G01 Z-0.0200 F254.00 
G01 X59.0775 Y31.4735 F300.00 
G01 X59.0560 Y31.4692 
G01 X59.0560 Y31.4840 
G01 X59.1112 Y31.4840 
G01 X59.1015 Y31.4799 
G01 X59.0806 Y31.4743 
G00 Z2.5400 
G00 X57.7625 Y31.4735 
G01 Z-0.0200 F254.00 
G01 X57.7385 Y31.4799 F300.00 
G01 X57.7288 Y31.4840 
G01 X57.7840 Y31.4840 
G01 X57.7840 Y31.4692 
G01 X57.7625 Y31.4735 
G00 Z2.5400 
G00 X57.7594 Y32.7657 
G01 Z-0.0200 F254.00 
G01 X57.7867 Y32.7730 F300.00 
G01 X58.1650 Y32.7730 
G01 X58.1650 Y32.7560 
G01 X57.7234 Y32.7560 
G01 X57.7594 Y32.7657 
G00 Z2.5400 
G00 X33.7601 Y11.0935 
G01 Z-0.0200 F254.00 
G01 X33.7474 Y11.0629 F300.00 
G01 X33.7349 Y11.0413 
G01 X33.7165 Y11.0137 
G01 X33.6813 Y10.9785 
G01 X33.6560 Y10.9616 
G01 X33.6560 Y11.1640 
G01 X33.7730 Y11.1640 
G01 X33.7730 Y11.1501 
G01 X33.7665 Y11.1175 
G01 X33.7601 Y11.0935 
G00 Z2.5400 
G00 X34.9899 Y14.8015 
G01 Z-0.0200 F254.00 
G01 X35.0026 Y14.8321 F300.00 
G01 X35.0150 Y14.8536 
G01 X35.0335 Y14.8813 
G01 X35.0747 Y14.9224 
G01 X35.1324 Y14.9557 
G01 X35.1768 Y14.9676 
G01 X35.1967 Y14.9730 
G01 X35.5540 Y14.9730 
G01 X35.5540 Y14.7210 
G01 X35.2296 Y14.7210 
G01 X35.2290 Y14.6060 
G01 X34.9770 Y14.6060 
G01 X34.9770 Y14.7449 
G01 X34.9835 Y14.7775 
G01 X34.9899 Y14.8015 
G00 Z2.5400 
G00 X35.1768 Y12.9724 
G01 Z-0.0200 F254.00 
G01 X35.1324 Y12.9843 F300.00 
G01 X35.0964 Y13.0050 
G01 X35.0687 Y13.0235 
G01 X35.0335 Y13.0587 
G01 X35.0178 Y13.0823 
G01 X35.0151 Y13.0863 
G01 X35.0026 Y13.1078 
G01 X34.9899 Y13.1385 
G01 X34.9835 Y13.1625 
G01 X34.9770 Y13.1951 
G01 X34.9770 Y13.3340 
G01 X35.2290 Y13.3340 
G01 X35.2290 Y13.2196 
G01 X35.5540 Y13.2190 
G01 X35.5540 Y12.9670 
G01 X35.1967 Y12.9670 
G01 X35.1768 Y12.9724 
G00 Z2.5400 
G00 X32.3051 Y11.0413 
G01 Z-0.0200 F254.00 
G01 X32.2926 Y11.0629 F300.00 
G01 X32.2799 Y11.0935 
G01 X32.2735 Y11.1175 
G01 X32.2670 Y11.1501 
G01 X32.2670 Y11.1640 
G01 X32.3840 Y11.1640 
G01 X32.3840 Y10.9616 
G01 X32.3587 Y10.9785 
G01 X32.3235 Y11.0137 
G01 X32.3051 Y11.0413 
G00 Z2.5400 
G00 X33.5435 Y26.9825 
G01 Z-0.0200 F254.00 
G01 X33.5499 Y27.0065 F300.00 
G01 X33.5626 Y27.0371 
G01 X33.5751 Y27.0587 
G01 X33.5935 Y27.0863 
G01 X33.6287 Y27.1215 
G01 X33.6540 Y27.1384 
G01 X33.6540 Y26.9360 
G01 X33.5370 Y26.9360 
G01 X33.5370 Y26.9499 
G01 X33.5435 Y26.9825 
G00 Z2.5400 
G00 X29.7270 Y26.9583 
G01 Z-0.0200 F254.00 
G01 X29.7276 Y26.9605 F300.00 
G01 X29.7399 Y27.0065 
G01 X29.7454 Y27.0196 
G01 X29.7526 Y27.0371 
G01 X29.7650 Y27.0586 
G01 X29.7835 Y27.0863 
G01 X29.7932 Y27.0960 
G01 X29.8187 Y27.1215 
G01 X29.8440 Y27.1384 
G01 X29.8440 Y26.5550 
G01 X29.7270 Y26.5550 
G01 X29.7270 Y26.9583 
G00 Z2.5400 
G00 X31.1949 Y27.0587 
G01 Z-0.0200 F254.00 
G01 X31.2074 Y27.0371 F300.00 
G01 X31.2201 Y27.0065 
G01 X31.2223 Y26.9980 
G01 X31.2265 Y26.9825 
G01 X31.2330 Y26.9499 
G01 X31.2330 Y26.9360 
G01 X31.1160 Y26.9360 
G01 X31.1160 Y27.1384 
G01 X31.1413 Y27.1215 
G01 X31.1765 Y27.0863 
G01 X31.1949 Y27.0587 
G00 Z2.5400 
G00 X35.0049 Y27.0587 
G01 Z-0.0200 F254.00 
G01 X35.0174 Y27.0371 F300.00 
G01 X35.0301 Y27.0065 
G01 X35.0318 Y27.0001 
G01 X35.0365 Y26.9825 
G01 X35.0430 Y26.9499 
G01 X35.0430 Y26.9360 
G01 X34.9260 Y26.9360 
G01 X34.9260 Y27.1384 
G01 X34.9513 Y27.1215 
G01 X34.9865 Y27.0863 
G01 X35.0049 Y27.0587 
G00 Z2.5400 
G00 X18.5201 Y11.0936 
G01 Z-0.0200 F254.00 
G01 X18.5201 Y11.0935 F300.00 
G01 X18.5074 Y11.0629 
G01 X18.4949 Y11.0413 
G01 X18.4765 Y11.0137 
G01 X18.4413 Y10.9785 
G01 X18.4160 Y10.9616 
G01 X18.4160 Y11.1640 
G01 X18.5330 Y11.1640 
G01 X18.5330 Y11.1501 
G01 X18.5265 Y11.1175 
G01 X18.5201 Y11.0936 
G00 Z2.5400 
G00 X42.6833 Y4.1560 
G01 Z-0.0200 F254.00 
G01 X42.6485 Y4.1793 F300.00 
G01 X42.6458 Y4.1813 
G01 X42.5862 Y4.2410 
G01 X42.5242 Y4.3030 
G01 X42.4138 Y4.4548 
G01 X42.3398 Y4.6001 
G01 X42.3243 Y4.6377 
G01 X42.3087 Y4.6833 
G01 X42.3050 Y4.6947 
G01 X42.3020 Y4.7040 
G01 X42.2994 Y4.7082 
G01 X42.2926 Y4.7151 
G01 X42.2862 Y4.7225 
G01 X42.2823 Y4.7253 
G01 X42.2733 Y4.7291 
G01 X42.2646 Y4.7335 
G01 X42.2599 Y4.7346 
G01 X42.2501 Y4.7346 
G01 X42.2404 Y4.7354 
G01 X42.2356 Y4.7346 
G01 X42.2266 Y4.7309 
G01 X42.2173 Y4.7279 
G01 X42.1964 Y4.7327 
G01 X42.1588 Y4.7483 
G01 X42.1485 Y4.7483 
G01 X42.1386 Y4.7514 
G01 X42.0981 Y4.7483 
G01 X42.0573 Y4.7483 
G01 X42.0478 Y4.7443 
G01 X42.0375 Y4.7435 
G01 X42.0012 Y4.7250 
G01 X41.9636 Y4.7094 
G01 X41.9563 Y4.7021 
G01 X41.9471 Y4.6974 
G01 X41.9207 Y4.6665 
G01 X41.8919 Y4.6377 
G01 X41.8879 Y4.6281 
G01 X41.8812 Y4.6203 
G01 X41.8686 Y4.5816 
G01 X41.8191 Y4.4619 
G01 X41.6867 Y4.3296 
G01 X41.5981 Y4.2410 
G01 X41.5121 Y4.1549 
G01 X41.1110 Y3.9888 
G01 X40.6770 Y3.9888 
G01 X40.2759 Y4.1549 
G01 X40.1180 Y4.3128 
G01 X40.0294 Y4.4014 
G01 X39.9689 Y4.4619 
G01 X39.8402 Y4.7727 
G01 X39.7685 Y4.8445 
G01 X39.6747 Y4.8833 
G01 X39.5733 Y4.8833 
G01 X39.4795 Y4.8445 
G01 X39.4078 Y4.7727 
G01 X39.3690 Y4.6790 
G01 X39.2791 Y4.4619 
G01 X39.2186 Y4.4014 
G01 X38.9721 Y4.1549 
G01 X38.5710 Y3.9888 
G01 X38.1369 Y3.9888 
G01 X37.7359 Y4.1549 
G01 X37.4894 Y4.4014 
G01 X37.4289 Y4.4619 
G01 X37.3390 Y4.6790 
G01 X37.3013 Y4.7701 
G01 X37.3002 Y4.7727 
G01 X37.2285 Y4.8445 
G01 X37.1358 Y4.8828 
G01 X37.0333 Y4.8833 
G01 X36.9422 Y4.8456 
G01 X36.9395 Y4.8445 
G01 X36.8678 Y4.7727 
G01 X36.7391 Y4.4619 
G01 X36.6786 Y4.4014 
G01 X36.5900 Y4.3128 
G01 X36.4321 Y4.1549 
G01 X36.0310 Y3.9888 
G01 X35.5969 Y3.9888 
G01 X35.1959 Y4.1549 
G01 X34.9494 Y4.4014 
G01 X34.8889 Y4.4619 
G01 X34.7990 Y4.6790 
G01 X34.7613 Y4.7701 
G01 X34.7602 Y4.7727 
G01 X34.6885 Y4.8445 
G01 X34.5958 Y4.8828 
G01 X34.4933 Y4.8833 
G01 X34.4022 Y4.8456 
G01 X34.3995 Y4.8445 
G01 X34.3278 Y4.7727 
G01 X34.1991 Y4.4619 
G01 X34.1386 Y4.4014 
G01 X34.0500 Y4.3128 
G01 X33.8921 Y4.1549 
G01 X33.8668 Y4.1444 
G01 X33.4910 Y3.9888 
G01 X33.0569 Y3.9888 
G01 X32.6817 Y4.1442 
G01 X32.6559 Y4.1549 
G01 X32.4094 Y4.4014 
G01 X32.3489 Y4.4619 
G01 X32.2590 Y4.6790 
G01 X32.2213 Y4.7701 
G01 X32.2202 Y4.7727 
G01 X32.1485 Y4.8445 
G01 X32.0558 Y4.8828 
G01 X31.9533 Y4.8833 
G01 X31.8622 Y4.8456 
G01 X31.8595 Y4.8445 
G01 X31.7878 Y4.7727 
G01 X31.6591 Y4.4619 
G01 X31.5986 Y4.4014 
G01 X31.5100 Y4.3128 
G01 X31.3521 Y4.1549 
G01 X31.3437 Y4.1514 
G01 X31.3252 Y4.1438 
G01 X31.2499 Y4.1126 
G01 X31.1782 Y4.0409 
G01 X31.1394 Y3.9472 
G01 X31.1394 Y3.2103 
G01 X31.1782 Y3.1165 
G01 X31.2441 Y3.0506 
G01 X31.3814 Y2.7193 
G01 X31.3814 Y2.3607 
G01 X31.2441 Y2.0294 
G01 X30.9906 Y1.7758 
G01 X30.6593 Y1.6386 
G01 X30.3007 Y1.6386 
G01 X29.9694 Y1.7758 
G01 X29.7158 Y2.0294 
G01 X29.5786 Y2.3607 
G01 X29.5786 Y2.7193 
G01 X29.7158 Y3.0506 
G01 X29.7818 Y3.1165 
G01 X29.8206 Y3.2103 
G01 X29.8206 Y3.5654 
G01 X29.8206 Y3.6269 
G01 X29.8206 Y4.4337 
G01 X29.7971 Y4.4905 
G01 X29.7190 Y4.6790 
G01 X29.6812 Y4.7702 
G01 X29.6802 Y4.7727 
G01 X29.6085 Y4.8445 
G01 X29.5158 Y4.8828 
G01 X29.4133 Y4.8833 
G01 X29.3222 Y4.8456 
G01 X29.3195 Y4.8445 
G01 X29.2478 Y4.7727 
G01 X29.1191 Y4.4619 
G01 X28.8121 Y4.1549 
G01 X28.4110 Y3.9888 
G01 X27.9770 Y3.9888 
G01 X27.5759 Y4.1549 
G01 X27.2689 Y4.4619 
G01 X27.1028 Y4.8630 
G01 X27.1028 Y5.2970 
G01 X27.2689 Y5.6981 
G01 X27.5759 Y6.0051 
G01 X27.6067 Y6.0178 
G01 X27.6891 Y6.0519 
G01 X27.7225 Y6.0658 
G01 X27.9769 Y6.1712 
G01 X28.4111 Y6.1712 
G01 X28.8121 Y6.0051 
G01 X29.1191 Y5.6981 
G01 X29.2478 Y5.3873 
G01 X29.3195 Y5.3155 
G01 X29.4133 Y5.2767 
G01 X29.5147 Y5.2767 
G01 X29.6085 Y5.3155 
G01 X29.6802 Y5.3873 
G01 X29.7190 Y5.4810 
G01 X29.8089 Y5.6981 
G01 X30.1159 Y6.0051 
G01 X30.5169 Y6.1712 
G01 X30.9511 Y6.1712 
G01 X31.3521 Y6.0051 
G01 X31.6591 Y5.6981 
G01 X31.7878 Y5.3873 
G01 X31.8595 Y5.3155 
G01 X31.9533 Y5.2767 
G01 X32.0547 Y5.2767 
G01 X32.1485 Y5.3155 
G01 X32.2202 Y5.3873 
G01 X32.2590 Y5.4810 
G01 X32.3489 Y5.6981 
G01 X32.6559 Y6.0051 
G01 X33.0569 Y6.1712 
G01 X33.4911 Y6.1712 
G01 X33.8921 Y6.0051 
G01 X34.1991 Y5.6981 
G01 X34.3278 Y5.3873 
G01 X34.3995 Y5.3155 
G01 X34.4933 Y5.2767 
G01 X34.5947 Y5.2767 
G01 X34.6885 Y5.3155 
G01 X34.7602 Y5.3873 
G01 X34.7990 Y5.4810 
G01 X34.8889 Y5.6981 
G01 X35.1959 Y6.0051 
G01 X35.5969 Y6.1712 
G01 X36.0311 Y6.1712 
G01 X36.4321 Y6.0051 
G01 X36.7391 Y5.6981 
G01 X36.8678 Y5.3873 
G01 X36.9395 Y5.3155 
G01 X37.0333 Y5.2767 
G01 X37.1347 Y5.2767 
G01 X37.2285 Y5.3155 
G01 X37.3002 Y5.3873 
G01 X37.3390 Y5.4810 
G01 X37.4289 Y5.6981 
G01 X37.7359 Y6.0051 
G01 X38.1369 Y6.1712 
G01 X38.5710 Y6.1712 
G01 X38.9721 Y6.0051 
G01 X39.2791 Y5.6981 
G01 X39.3690 Y5.4810 
G01 X39.4067 Y5.3899 
G01 X39.4078 Y5.3873 
G01 X39.4795 Y5.3155 
G01 X39.5722 Y5.2772 
G01 X39.6747 Y5.2767 
G01 X39.7658 Y5.3144 
G01 X39.7685 Y5.3155 
G01 X39.8402 Y5.3873 
G01 X39.9689 Y5.6981 
G01 X40.0294 Y5.7586 
G01 X40.1180 Y5.8472 
G01 X40.2759 Y6.0051 
G01 X40.6770 Y6.1712 
G01 X41.1110 Y6.1712 
G01 X41.5121 Y6.0051 
G01 X41.5981 Y5.9190 
G01 X41.6819 Y5.8353 
G01 X41.6867 Y5.8304 
G01 X41.8191 Y5.6981 
G01 X41.8686 Y5.5784 
G01 X41.8812 Y5.5397 
G01 X41.8879 Y5.5319 
G01 X41.8919 Y5.5223 
G01 X41.9207 Y5.4935 
G01 X41.9471 Y5.4626 
G01 X41.9563 Y5.4579 
G01 X41.9636 Y5.4506 
G01 X42.0012 Y5.4350 
G01 X42.0375 Y5.4165 
G01 X42.0478 Y5.4157 
G01 X42.0573 Y5.4117 
G01 X42.0981 Y5.4117 
G01 X42.1386 Y5.4085 
G01 X42.1485 Y5.4117 
G01 X42.1588 Y5.4117 
G01 X42.1964 Y5.4273 
G01 X42.2156 Y5.4336 
G01 X42.2266 Y5.4291 
G01 X42.2356 Y5.4254 
G01 X42.2404 Y5.4246 
G01 X42.2501 Y5.4254 
G01 X42.2599 Y5.4254 
G01 X42.2646 Y5.4265 
G01 X42.2733 Y5.4309 
G01 X42.2823 Y5.4347 
G01 X42.2862 Y5.4375 
G01 X42.2926 Y5.4449 
G01 X42.2994 Y5.4518 
G01 X42.3020 Y5.4560 
G01 X42.3050 Y5.4652 
G01 X42.3087 Y5.4743 
G01 X42.3232 Y5.5212 
G01 X42.3398 Y5.5599 
G01 X42.4138 Y5.7052 
G01 X42.5242 Y5.8570 
G01 X42.5862 Y5.9190 
G01 X42.6458 Y5.9787 
G01 X42.6485 Y5.9807 
G01 X42.6833 Y6.0040 
G01 X42.6981 Y6.0188 
G01 X42.7203 Y6.0358 
G01 X42.7835 Y6.0817 
G01 X42.7980 Y6.0901 
G01 X42.7980 Y5.7745 
G01 X42.7032 Y5.6797 
G01 X42.6003 Y5.5256 
G01 X42.5293 Y5.3544 
G01 X42.4932 Y5.1727 
G01 X42.4932 Y4.9873 
G01 X42.5293 Y4.8056 
G01 X42.6003 Y4.6344 
G01 X42.7032 Y4.4803 
G01 X42.7980 Y4.3855 
G01 X42.7980 Y4.0699 
G01 X42.7835 Y4.0783 
G01 X42.7203 Y4.1242 
G01 X42.6981 Y4.1412 
G01 X42.6833 Y4.1560 
G00 Z2.5400 
G00 X41.8348 Y4.9873 
G01 Z-0.0200 F254.00 
G01 X41.8348 Y5.1727 F300.00 
G01 X41.7987 Y5.3544 
G01 X41.7277 Y5.5256 
G01 X41.6248 Y5.6797 
G01 X41.4937 Y5.8108 
G01 X41.3396 Y5.9137 
G01 X41.1684 Y5.9847 
G01 X40.9867 Y6.0208 
G01 X40.8013 Y6.0208 
G01 X40.6196 Y5.9847 
G01 X40.4484 Y5.9137 
G01 X40.2943 Y5.8108 
G01 X40.1632 Y5.6797 
G01 X40.0603 Y5.5256 
G01 X39.9893 Y5.3544 
G01 X39.9532 Y5.1727 
G01 X39.9532 Y4.9873 
G01 X39.9893 Y4.8056 
G01 X40.0603 Y4.6344 
G01 X40.1632 Y4.4803 
G01 X40.2943 Y4.3492 
G01 X40.4484 Y4.2463 
G01 X40.6196 Y4.1753 
G01 X40.8013 Y4.1392 
G01 X40.9867 Y4.1392 
G01 X41.1684 Y4.1753 
G01 X41.3396 Y4.2463 
G01 X41.4937 Y4.3492 
G01 X41.6248 Y4.4803 
G01 X41.7277 Y4.6344 
G01 X41.7987 Y4.8056 
G01 X41.8348 Y4.9873 
G00 Z2.5400 
G00 X39.2948 Y4.9873 
G01 Z-0.0200 F254.00 
G01 X39.2948 Y5.1727 F300.00 
G01 X39.2587 Y5.3544 
G01 X39.1877 Y5.5256 
G01 X39.0848 Y5.6797 
G01 X38.9537 Y5.8108 
G01 X38.7996 Y5.9137 
G01 X38.6284 Y5.9847 
G01 X38.4467 Y6.0208 
G01 X38.2613 Y6.0208 
G01 X38.0796 Y5.9847 
G01 X37.9084 Y5.9137 
G01 X37.7543 Y5.8108 
G01 X37.6232 Y5.6797 
G01 X37.5203 Y5.5256 
G01 X37.4493 Y5.3544 
G01 X37.4132 Y5.1727 
G01 X37.4132 Y4.9873 
G01 X37.4493 Y4.8056 
G01 X37.5203 Y4.6344 
G01 X37.6232 Y4.4803 
G01 X37.7543 Y4.3492 
G01 X37.9084 Y4.2463 
G01 X38.0796 Y4.1753 
G01 X38.2613 Y4.1392 
G01 X38.4467 Y4.1392 
G01 X38.6284 Y4.1753 
G01 X38.7996 Y4.2463 
G01 X38.9537 Y4.3492 
G01 X39.0848 Y4.4803 
G01 X39.1877 Y4.6344 
G01 X39.2587 Y4.8056 
G01 X39.2948 Y4.9873 
G00 Z2.5400 
G00 X36.7548 Y4.9873 
G01 Z-0.0200 F254.00 
G01 X36.7548 Y5.1727 F300.00 
G01 X36.7187 Y5.3544 
G01 X36.6477 Y5.5256 
G01 X36.5448 Y5.6797 
G01 X36.4137 Y5.8108 
G01 X36.2596 Y5.9137 
G01 X36.0884 Y5.9847 
G01 X35.9067 Y6.0208 
G01 X35.7213 Y6.0208 
G01 X35.5396 Y5.9847 
G01 X35.3684 Y5.9137 
G01 X35.2143 Y5.8108 
G01 X35.0832 Y5.6797 
G01 X34.9803 Y5.5256 
G01 X34.9093 Y5.3544 
G01 X34.8732 Y5.1727 
G01 X34.8732 Y4.9873 
G01 X34.9093 Y4.8056 
G01 X34.9803 Y4.6344 
G01 X35.0832 Y4.4803 
G01 X35.2143 Y4.3492 
G01 X35.3684 Y4.2463 
G01 X35.5396 Y4.1753 
G01 X35.7213 Y4.1392 
G01 X35.9067 Y4.1392 
G01 X36.0884 Y4.1753 
G01 X36.2596 Y4.2463 
G01 X36.4137 Y4.3492 
G01 X36.5448 Y4.4803 
G01 X36.6477 Y4.6344 
G01 X36.7187 Y4.8056 
G01 X36.7548 Y4.9873 
G00 Z2.5400 
G00 X34.2148 Y4.9873 
G01 Z-0.0200 F254.00 
G01 X34.2148 Y5.1727 F300.00 
G01 X34.1787 Y5.3544 
G01 X34.1077 Y5.5256 
G01 X34.0048 Y5.6797 
G01 X33.8737 Y5.8108 
G01 X33.7196 Y5.9137 
G01 X33.5484 Y5.9847 
G01 X33.3667 Y6.0208 
G01 X33.1813 Y6.0208 
G01 X32.9996 Y5.9847 
G01 X32.8284 Y5.9137 
G01 X32.6743 Y5.8108 
G01 X32.5432 Y5.6797 
G01 X32.4403 Y5.5256 
G01 X32.3693 Y5.3544 
G01 X32.3332 Y5.1727 
G01 X32.3332 Y4.9873 
G01 X32.3693 Y4.8056 
G01 X32.4403 Y4.6344 
G01 X32.5432 Y4.4803 
G01 X32.6743 Y4.3492 
G01 X32.8284 Y4.2463 
G01 X32.9996 Y4.1753 
G01 X33.1813 Y4.1392 
G01 X33.3667 Y4.1392 
G01 X33.5484 Y4.1753 
G01 X33.7196 Y4.2463 
G01 X33.8737 Y4.3492 
G01 X34.0048 Y4.4803 
G01 X34.1077 Y4.6344 
G01 X34.1787 Y4.8056 
G01 X34.2148 Y4.9873 
G00 Z2.5400 
G00 X29.1348 Y4.9873 
G01 Z-0.0200 F254.00 
G01 X29.1348 Y5.1727 F300.00 
G01 X29.0987 Y5.3544 
G01 X29.0277 Y5.5256 
G01 X28.9248 Y5.6797 
G01 X28.7937 Y5.8108 
G01 X28.6396 Y5.9137 
G01 X28.4684 Y5.9847 
G01 X28.2867 Y6.0208 
G01 X28.1013 Y6.0208 
G01 X27.9196 Y5.9847 
G01 X27.7484 Y5.9137 
G01 X27.5943 Y5.8108 
G01 X27.4632 Y5.6797 
G01 X27.3603 Y5.5256 
G01 X27.2893 Y5.3544 
G01 X27.2532 Y5.1727 
G01 X27.2532 Y4.9873 
G01 X27.2893 Y4.8056 
G01 X27.3603 Y4.6344 
G01 X27.4632 Y4.4803 
G01 X27.5943 Y4.3492 
G01 X27.7484 Y4.2463 
G01 X27.9196 Y4.1753 
G01 X28.1013 Y4.1392 
G01 X28.2867 Y4.1392 
G01 X28.4684 Y4.1753 
G01 X28.6396 Y4.2463 
G01 X28.7937 Y4.3492 
G01 X28.9248 Y4.4803 
G01 X29.0277 Y4.6344 
G01 X29.0987 Y4.8056 
G01 X29.1348 Y4.9873 
G00 Z2.5400 
G00 X31.2310 Y2.4660 
G01 Z-0.0200 F254.00 
G01 X31.2310 Y2.6140 F300.00 
G01 X31.2022 Y2.7591 
G01 X31.1455 Y2.8957 
G01 X31.0634 Y3.0187 
G01 X30.9890 Y3.0931 
G01 X30.9890 Y4.1715 
G01 X31.0084 Y4.1753 
G01 X31.1796 Y4.2463 
G01 X31.3337 Y4.3492 
G01 X31.4648 Y4.4803 
G01 X31.5677 Y4.6344 
G01 X31.6387 Y4.8056 
G01 X31.6748 Y4.9873 
G01 X31.6748 Y5.1727 
G01 X31.6387 Y5.3544 
G01 X31.5677 Y5.5256 
G01 X31.4648 Y5.6797 
G01 X31.3337 Y5.8108 
G01 X31.1796 Y5.9137 
G01 X31.0084 Y5.9847 
G01 X30.8267 Y6.0208 
G01 X30.6413 Y6.0208 
G01 X30.4596 Y5.9847 
G01 X30.2884 Y5.9137 
G01 X30.1343 Y5.8108 
G01 X30.0032 Y5.6797 
G01 X29.9003 Y5.5256 
G01 X29.8293 Y5.3544 
G01 X29.7932 Y5.1727 
G01 X29.7932 Y4.9873 
G01 X29.8293 Y4.8056 
G01 X29.9003 Y4.6344 
G01 X29.9710 Y4.5285 
G01 X29.9710 Y3.0931 
G01 X29.8966 Y3.0187 
G01 X29.8145 Y2.8957 
G01 X29.7578 Y2.7591 
G01 X29.7290 Y2.6140 
G01 X29.7290 Y2.4660 
G01 X29.7578 Y2.3209 
G01 X29.8145 Y2.1843 
G01 X29.8966 Y2.0613 
G01 X30.0013 Y1.9566 
G01 X30.1243 Y1.8745 
G01 X30.2609 Y1.8178 
G01 X30.4060 Y1.7890 
G01 X30.5540 Y1.7890 
G01 X30.6991 Y1.8178 
G01 X30.8357 Y1.8745 
G01 X30.9587 Y1.9566 
G01 X31.0634 Y2.0613 
G01 X31.1455 Y2.1843 
G01 X31.2022 Y2.3209 
G01 X31.2310 Y2.4660 
G00 Z2.5400 
G00 X17.0650 Y11.0413 
G01 Z-0.0200 F254.00 
G01 X17.0526 Y11.0629 F300.00 
G01 X17.0399 Y11.0935 
G01 X17.0335 Y11.1175 
G01 X17.0270 Y11.1501 
G01 X17.0270 Y11.1640 
G01 X17.1440 Y11.1640 
G01 X17.1440 Y10.9616 
G01 X17.1187 Y10.9785 
G01 X17.0835 Y11.0137 
G01 X17.0650 Y11.0413 
G00 Z2.5400 
G00 X14.6850 Y21.2013 
G01 Z-0.0200 F254.00 
G01 X14.6665 Y21.1737 F300.00 
G01 X14.6313 Y21.1385 
G01 X14.6060 Y21.1216 
G01 X14.6060 Y21.3240 
G01 X14.7230 Y21.3240 
G01 X14.7230 Y21.3101 
G01 X14.7165 Y21.2775 
G01 X14.7101 Y21.2535 
G01 X14.6974 Y21.2229 
G01 X14.6850 Y21.2013 
G00 Z2.5400 
G00 X18.5201 Y21.2535 
G01 Z-0.0200 F254.00 
G01 X18.5074 Y21.2229 F300.00 
G01 X18.4949 Y21.2013 
G01 X18.4765 Y21.1737 
G01 X18.4413 Y21.1385 
G01 X18.4160 Y21.1216 
G01 X18.4160 Y21.3240 
G01 X18.5330 Y21.3240 
G01 X18.5330 Y21.3101 
G01 X18.5265 Y21.2775 
G01 X18.5201 Y21.2535 
G00 Z2.5400 
G00 X14.7101 Y11.0935 
G01 Z-0.0200 F254.00 
G01 X14.6974 Y11.0629 F300.00 
G01 X14.6849 Y11.0413 
G01 X14.6665 Y11.0137 
G01 X14.6313 Y10.9785 
G01 X14.6060 Y10.9616 
G01 X14.6060 Y11.1640 
G01 X14.7230 Y11.1640 
G01 X14.7230 Y11.1501 
G01 X14.7165 Y11.1175 
G01 X14.7101 Y11.0935 
G00 Z2.5400 
G00 X13.2551 Y11.0413 
G01 Z-0.0200 F254.00 
G01 X13.2426 Y11.0629 F300.00 
G01 X13.2299 Y11.0935 
G01 X13.2235 Y11.1175 
G01 X13.2170 Y11.1501 
G01 X13.2170 Y11.1640 
G01 X13.3340 Y11.1640 
G01 X13.3340 Y10.9616 
G01 X13.3087 Y10.9785 
G01 X13.2735 Y11.0137 
G01 X13.2551 Y11.0413 
G00 Z2.5400 
G00 X17.0526 Y21.2229 
G01 Z-0.0200 F254.00 
G01 X17.0399 Y21.2535 F300.00 
G01 X17.0335 Y21.2775 
G01 X17.0270 Y21.3101 
G01 X17.0270 Y21.3240 
G01 X17.1440 Y21.3240 
G01 X17.1440 Y21.1216 
G01 X17.1187 Y21.1385 
G01 X17.0835 Y21.1737 
G01 X17.0650 Y21.2013 
G01 X17.0526 Y21.2229 
G00 Z2.5400 
G00 X13.2426 Y21.2229 
G01 Z-0.0200 F254.00 
G01 X13.2299 Y21.2535 F300.00 
G01 X13.2235 Y21.2775 
G01 X13.2170 Y21.3101 
G01 X13.2170 Y21.3240 
G01 X13.3340 Y21.3240 
G01 X13.3340 Y21.1216 
G01 X13.3087 Y21.1385 
G01 X13.2735 Y21.1737 
G01 X13.2551 Y21.2013 
G01 X13.2426 Y21.2229 
G00 Z2.5400 
G00 X35.9487 Y43.7351 
G01 Z-0.0200 F254.00 
G01 X35.9271 Y43.7226 F300.00 
G01 X35.8965 Y43.7099 
G01 X35.8725 Y43.7035 
G01 X35.8399 Y43.6970 
G01 X35.8260 Y43.6970 
G01 X35.8260 Y43.8140 
G01 X36.0284 Y43.8140 
G01 X36.0115 Y43.7887 
G01 X35.9763 Y43.7535 
G01 X35.9487 Y43.7351 
G00 Z2.5400 
G00 X35.8965 Y45.1901 
G01 Z-0.0200 F254.00 
G01 X35.9271 Y45.1774 F300.00 
G01 X35.9487 Y45.1649 
G01 X35.9763 Y45.1465 
G01 X36.0115 Y45.1113 
G01 X36.0284 Y45.0860 
G01 X35.8260 Y45.0860 
G01 X35.8260 Y45.2030 
G01 X35.8399 Y45.2030 
G01 X35.8725 Y45.1965 
G01 X35.8965 Y45.1901 
G00 Z2.5400 
G00 X25.6470 Y37.4633 
G01 Z-0.0200 F254.00 
G01 X25.6571 Y37.5009 F300.00 
G01 X25.6643 Y37.5276 
G01 X25.6976 Y37.5853 
G01 X25.7447 Y37.6324 
G01 X25.8024 Y37.6657 
G01 X25.8290 Y37.6729 
G01 X25.8667 Y37.6830 
G01 X26.0450 Y37.6830 
G01 X26.0450 Y37.4310 
G01 X25.8996 Y37.4310 
G01 X25.8990 Y37.0850 
G01 X25.6470 Y37.0850 
G01 X25.6470 Y37.4633 
G00 Z2.5400 
G00 X25.8667 Y35.9770 
G01 Z-0.0200 F254.00 
G01 X25.8290 Y35.9871 F300.00 
G01 X25.8024 Y35.9943 
G01 X25.7447 Y36.0276 
G01 X25.6976 Y36.0747 
G01 X25.6643 Y36.1324 
G01 X25.6571 Y36.1590 
G01 X25.6470 Y36.1967 
G01 X25.6470 Y36.5750 
G01 X25.8990 Y36.5750 
G01 X25.8990 Y36.2296 
G01 X26.0450 Y36.2290 
G01 X26.0450 Y35.9770 
G01 X25.8667 Y35.9770 
G00 Z2.5400 
G00 X26.9530 Y36.1967 
G01 Z-0.0200 F254.00 
G01 X26.9357 Y36.1323 F300.00 
G01 X26.9317 Y36.1254 
G01 X26.9231 Y36.1105 
G01 X26.9110 Y36.0984 
G01 X26.9003 Y36.0725 
G01 X26.8553 Y36.0276 
G01 X26.7976 Y35.9943 
G01 X26.7709 Y35.9871 
G01 X26.7333 Y35.9770 
G01 X26.5550 Y35.9770 
G01 X26.5550 Y36.2290 
G01 X26.7004 Y36.2290 
G01 X26.7010 Y36.7090 
G01 X26.9530 Y36.7090 
G01 X26.9530 Y36.1967 
G00 Z2.5400 
G00 X26.9003 Y37.5875 
G01 Z-0.0200 F254.00 
G01 X26.9110 Y37.5616 F300.00 
G01 X26.9231 Y37.5495 
G01 X26.9317 Y37.5346 
G01 X26.9357 Y37.5276 
G01 X26.9530 Y37.4633 
G01 X26.9530 Y36.9510 
G01 X26.7010 Y36.9510 
G01 X26.7010 Y37.4304 
G01 X26.5550 Y37.4310 
G01 X26.5550 Y37.6830 
G01 X26.7333 Y37.6830 
G01 X26.7751 Y37.6718 
G01 X26.7976 Y37.6657 
G01 X26.8553 Y37.6324 
G01 X26.9003 Y37.5875 
G00 Z2.5400 
G00 X8.6430 Y36.1967 
G01 Z-0.0200 F254.00 
G01 X8.6312 Y36.1528 F300.00 
G01 X8.6260 Y36.1334 
G01 X8.6260 Y36.5750 
G01 X8.6430 Y36.5750 
G01 X8.6430 Y36.1967 
G00 Z2.5400 
G00 X7.3387 Y36.1903 
G01 Z-0.0200 F254.00 
G01 X7.3370 Y36.1967 F300.00 
G01 X7.3370 Y36.5750 
G01 X7.3540 Y36.5750 
G01 X7.3540 Y36.1334 
G01 X7.3387 Y36.1903 
G00 Z2.5400 
G00 X7.5890 Y37.4304 
G01 Z-0.0200 F254.00 
G01 X7.5890 Y37.3270 F300.00 
G01 X7.5845 Y37.3240 
G01 X7.4960 Y37.2354 
G01 X7.4263 Y37.1312 
G01 X7.4072 Y37.0850 
G01 X7.3370 Y37.0850 
G01 X7.3370 Y37.4633 
G01 X7.3387 Y37.4697 
G01 X7.3543 Y37.5276 
G01 X7.3876 Y37.5853 
G01 X7.4347 Y37.6324 
G01 X7.4924 Y37.6657 
G01 X7.5128 Y37.6712 
G01 X7.5567 Y37.6830 
G01 X7.7350 Y37.6830 
G01 X7.7350 Y37.4310 
G01 X7.5896 Y37.4310 
G00 Z2.5400 
G00 X8.4233 Y37.6830 
G01 Z-0.0200 F254.00 
G01 X8.4672 Y37.6712 F300.00 
G01 X8.4876 Y37.6657 
G01 X8.5453 Y37.6324 
G01 X8.5924 Y37.5853 
G01 X8.6257 Y37.5276 
G01 X8.6312 Y37.5072 
G01 X8.6430 Y37.4633 
G01 X8.6430 Y37.0850 
G01 X8.5728 Y37.0850 
G01 X8.5536 Y37.1312 
G01 X8.4840 Y37.2354 
G01 X8.3955 Y37.3240 
G01 X8.3910 Y37.3270 
G01 X8.3910 Y37.4304 
G01 X8.2450 Y37.4310 
G01 X8.2450 Y37.6830 
G01 X8.4233 Y37.6830 
G00 Z2.5400 
G00 X36.5830 Y10.7967 
G01 Z-0.0200 F254.00 
G01 X36.5712 Y10.7528 F300.00 
G01 X36.5660 Y10.7334 
G01 X36.5660 Y11.1750 
G01 X36.5830 Y11.1750 
G01 X36.5830 Y10.7967 
G00 Z2.5400 
G00 X35.2899 Y10.7485 
G01 Z-0.0200 F254.00 
G01 X35.2888 Y10.7528 F300.00 
G01 X35.2835 Y10.7725 
G01 X35.2792 Y10.7940 
G01 X35.2940 Y10.7940 
G01 X35.2940 Y10.7388 
G01 X35.2899 Y10.7485 
G00 Z2.5400 
G00 X35.2899 Y12.1115 
G01 Z-0.0200 F254.00 
G01 X35.3026 Y12.1421 F300.00 
G01 X35.3150 Y12.1636 
G01 X35.3177 Y12.1676 
G01 X35.3276 Y12.1853 
G01 X35.3747 Y12.2324 
G01 X35.4323 Y12.2657 
G01 X35.4903 Y12.2813 
G01 X35.4967 Y12.2830 
G01 X35.6750 Y12.2830 
G01 X35.6750 Y12.0660 
G01 X35.2792 Y12.0660 
G01 X35.2835 Y12.0875 
G01 X35.2899 Y12.1115 
G00 Z2.5400 
G00 X36.3633 Y12.2830 
G01 Z-0.0200 F254.00 
G01 X36.4072 Y12.2712 F300.00 
G01 X36.4276 Y12.2657 
G01 X36.4853 Y12.2324 
G01 X36.5324 Y12.1853 
G01 X36.5657 Y12.1276 
G01 X36.5712 Y12.1072 
G01 X36.5830 Y12.0633 
G01 X36.5830 Y11.6850 
G01 X36.5128 Y11.6850 
G01 X36.4936 Y11.7312 
G01 X36.4240 Y11.8354 
G01 X36.3354 Y11.9240 
G01 X36.3310 Y11.9270 
G01 X36.3310 Y12.0304 
G01 X36.1850 Y12.0310 
G01 X36.1850 Y12.2830 
G01 X36.3633 Y12.2830 
G00 Z2.5400 
G00 X29.9560 Y11.1155 
G01 Z-0.0200 F254.00 
G01 X29.9501 Y11.0935 F300.00 
G01 X29.9374 Y11.0629 
G01 X29.9250 Y11.0413 
G01 X29.9065 Y11.0137 
G01 X29.8713 Y10.9785 
G01 X29.8460 Y10.9616 
G01 X29.8460 Y11.1640 
G01 X29.9630 Y11.1640 
G01 X29.9630 Y11.1501 
G01 X29.9565 Y11.1175 
G00 Z2.5400 
G00 X28.4951 Y11.0413 
G01 Z-0.0200 F254.00 
G01 X28.4826 Y11.0629 F300.00 
G01 X28.4699 Y11.0935 
G01 X28.4640 Y11.1155 
G01 X28.4570 Y11.1501 
G01 X28.4570 Y11.1640 
G01 X28.5740 Y11.1640 
G01 X28.5740 Y10.9616 
G01 X28.5487 Y10.9785 
G01 X28.5135 Y11.0137 
G01 X28.4951 Y11.0413 
G00 Z2.5400 
G00 X9.5081 Y6.0051 
G01 Z-0.0200 F254.00 
G01 X9.6660 Y5.8472 F300.00 
G01 X9.6660 Y5.8472 
G01 X9.7546 Y5.7586 
G01 X9.8151 Y5.6981 
G01 X9.9438 Y5.3873 
G01 X10.0155 Y5.3155 
G01 X10.1093 Y5.2767 
G01 X10.2107 Y5.2767 
G01 X10.3045 Y5.3155 
G01 X10.3762 Y5.3873 
G01 X10.4150 Y5.4810 
G01 X10.5049 Y5.6981 
G01 X10.8119 Y6.0051 
G01 X11.2129 Y6.1712 
G01 X11.6470 Y6.1712 
G01 X12.0481 Y6.0051 
G01 X12.2060 Y5.8472 
G01 X12.2946 Y5.7586 
G01 X12.3551 Y5.6981 
G01 X12.4838 Y5.3873 
G01 X12.5555 Y5.3155 
G01 X12.6493 Y5.2767 
G01 X12.7507 Y5.2767 
G01 X12.8445 Y5.3155 
G01 X12.9162 Y5.3873 
G01 X12.9550 Y5.4810 
G01 X13.0449 Y5.6981 
G01 X13.3519 Y6.0051 
G01 X13.7529 Y6.1712 
G01 X14.1870 Y6.1712 
G01 X14.5881 Y6.0051 
G01 X14.7460 Y5.8472 
G01 X14.8346 Y5.7586 
G01 X14.8951 Y5.6981 
G01 X15.0238 Y5.3873 
G01 X15.0955 Y5.3155 
G01 X15.1893 Y5.2767 
G01 X15.2907 Y5.2767 
G01 X15.3845 Y5.3155 
G01 X15.4562 Y5.3873 
G01 X15.4950 Y5.4810 
G01 X15.5849 Y5.6981 
G01 X15.8919 Y6.0051 
G01 X16.2930 Y6.1712 
G01 X16.7270 Y6.1712 
G01 X17.1281 Y6.0051 
G01 X17.2860 Y5.8472 
G01 X17.3746 Y5.7586 
G01 X17.4351 Y5.6981 
G01 X17.5638 Y5.3873 
G01 X17.6355 Y5.3155 
G01 X17.7293 Y5.2767 
G01 X17.8307 Y5.2767 
G01 X17.9245 Y5.3155 
G01 X17.9962 Y5.3873 
G01 X18.0350 Y5.4810 
G01 X18.1249 Y5.6981 
G01 X18.1854 Y5.7586 
G01 X18.4319 Y6.0051 
G01 X18.8330 Y6.1712 
G01 X19.2670 Y6.1712 
G01 X19.6681 Y6.0051 
G01 X19.8260 Y5.8472 
G01 X19.9146 Y5.7586 
G01 X19.9751 Y5.6981 
G01 X20.1038 Y5.3873 
G01 X20.1755 Y5.3155 
G01 X20.2693 Y5.2767 
G01 X20.3707 Y5.2767 
G01 X20.4644 Y5.3155 
G01 X20.5362 Y5.3873 
G01 X20.5750 Y5.4810 
G01 X20.6649 Y5.6981 
G01 X20.7254 Y5.7586 
G01 X20.9719 Y6.0051 
G01 X21.3729 Y6.1712 
G01 X21.8070 Y6.1712 
G01 X22.2081 Y6.0051 
G01 X22.3660 Y5.8472 
G01 X22.4546 Y5.7586 
G01 X22.5151 Y5.6981 
G01 X22.6050 Y5.4810 
G01 X22.6147 Y5.4574 
G01 X22.6438 Y5.3873 
G01 X22.6768 Y5.3542 
G01 X22.7155 Y5.3155 
G01 X22.8090 Y5.2768 
G01 X22.9107 Y5.2767 
G01 X22.9494 Y5.2927 
G01 X23.0045 Y5.3155 
G01 X23.0375 Y5.3486 
G01 X23.0762 Y5.3873 
G01 X23.1146 Y5.4801 
G01 X23.2049 Y5.6981 
G01 X23.5119 Y6.0051 
G01 X23.8306 Y6.1371 
G01 X23.8570 Y6.1480 
G01 X23.9130 Y6.1712 
G01 X24.3470 Y6.1712 
G01 X24.6015 Y6.0658 
G01 X24.6305 Y6.0537 
G01 X24.7173 Y6.0178 
G01 X24.7481 Y6.0051 
G01 X25.0551 Y5.6981 
G01 X25.2212 Y5.2970 
G01 X25.2212 Y4.8630 
G01 X25.0551 Y4.4619 
G01 X24.7481 Y4.1549 
G01 X24.3470 Y3.9888 
G01 X23.9130 Y3.9888 
G01 X23.5119 Y4.1549 
G01 X23.2654 Y4.4014 
G01 X23.2049 Y4.4619 
G01 X23.1150 Y4.6790 
G01 X23.0773 Y4.7701 
G01 X23.0762 Y4.7727 
G01 X23.0045 Y4.8445 
G01 X22.9118 Y4.8828 
G01 X22.8093 Y4.8833 
G01 X22.7182 Y4.8456 
G01 X22.7155 Y4.8445 
G01 X22.6438 Y4.7727 
G01 X22.5151 Y4.4619 
G01 X22.4546 Y4.4014 
G01 X22.3660 Y4.3128 
G01 X22.2081 Y4.1549 
G01 X21.8070 Y3.9888 
G01 X21.3729 Y3.9888 
G01 X20.9719 Y4.1549 
G01 X20.7254 Y4.4014 
G01 X20.6649 Y4.4619 
G01 X20.5750 Y4.6790 
G01 X20.5373 Y4.7701 
G01 X20.5362 Y4.7727 
G01 X20.4644 Y4.8445 
G01 X20.3718 Y4.8828 
G01 X20.2693 Y4.8833 
G01 X20.1782 Y4.8456 
G01 X20.1755 Y4.8445 
G01 X20.1038 Y4.7727 
G01 X19.9751 Y4.4619 
G01 X19.9146 Y4.4014 
G01 X19.8260 Y4.3128 
G01 X19.6681 Y4.1549 
G01 X19.2670 Y3.9888 
G01 X18.8330 Y3.9888 
G01 X18.4319 Y4.1549 
G01 X18.1854 Y4.4014 
G01 X18.1249 Y4.4619 
G01 X18.0350 Y4.6790 
G01 X17.9973 Y4.7701 
G01 X17.9962 Y4.7727 
G01 X17.9245 Y4.8445 
G01 X17.8318 Y4.8828 
G01 X17.7293 Y4.8833 
G01 X17.6382 Y4.8456 
G01 X17.6355 Y4.8445 
G01 X17.5638 Y4.7727 
G01 X17.4351 Y4.4619 
G01 X17.3746 Y4.4014 
G01 X17.2860 Y4.3128 
G01 X17.1281 Y4.1549 
G01 X16.7270 Y3.9888 
G01 X16.2930 Y3.9888 
G01 X15.8919 Y4.1549 
G01 X15.6454 Y4.4014 
G01 X15.5849 Y4.4619 
G01 X15.4950 Y4.6790 
G01 X15.4562 Y4.7727 
G01 X15.3845 Y4.8445 
G01 X15.2907 Y4.8833 
G01 X15.1893 Y4.8833 
G01 X15.0955 Y4.8445 
G01 X15.0238 Y4.7727 
G01 X14.8951 Y4.4619 
G01 X14.8346 Y4.4014 
G01 X14.7460 Y4.3128 
G01 X14.5881 Y4.1549 
G01 X14.1870 Y3.9888 
G01 X13.7529 Y3.9888 
G01 X13.3519 Y4.1549 
G01 X13.0449 Y4.4619 
G01 X12.9550 Y4.6790 
G01 X12.9173 Y4.7701 
G01 X12.9162 Y4.7727 
G01 X12.8445 Y4.8445 
G01 X12.7518 Y4.8828 
G01 X12.6493 Y4.8833 
G01 X12.5582 Y4.8456 
G01 X12.5555 Y4.8445 
G01 X12.4838 Y4.7727 
G01 X12.3551 Y4.4619 
G01 X12.2946 Y4.4014 
G01 X12.2060 Y4.3128 
G01 X12.0481 Y4.1549 
G01 X11.6470 Y3.9888 
G01 X11.2130 Y3.9888 
G01 X10.8119 Y4.1549 
G01 X10.5654 Y4.4014 
G01 X10.5049 Y4.4619 
G01 X10.4150 Y4.6790 
G01 X10.3773 Y4.7701 
G01 X10.3762 Y4.7727 
G01 X10.3045 Y4.8445 
G01 X10.2118 Y4.8828 
G01 X10.1093 Y4.8833 
G01 X10.0182 Y4.8456 
G01 X10.0155 Y4.8445 
G01 X9.9438 Y4.7727 
G01 X9.8151 Y4.4619 
G01 X9.7546 Y4.4014 
G01 X9.6660 Y4.3128 
G01 X9.5081 Y4.1549 
G01 X9.1070 Y3.9888 
G01 X8.6730 Y3.9888 
G01 X8.2719 Y4.1549 
G01 X8.0254 Y4.4014 
G01 X7.9649 Y4.4619 
G01 X7.8750 Y4.6790 
G01 X7.8373 Y4.7701 
G01 X7.8362 Y4.7727 
G01 X7.7645 Y4.8445 
G01 X7.6718 Y4.8828 
G01 X7.5693 Y4.8833 
G01 X7.4782 Y4.8456 
G01 X7.4755 Y4.8445 
G01 X7.4038 Y4.7727 
G01 X7.2751 Y4.4619 
G01 X7.2146 Y4.4014 
G01 X7.1260 Y4.3128 
G01 X6.9681 Y4.1549 
G01 X6.5670 Y3.9888 
G01 X6.1330 Y3.9888 
G01 X5.7319 Y4.1549 
G01 X5.4249 Y4.4619 
G01 X5.2588 Y4.8630 
G01 X5.2588 Y5.2970 
G01 X5.4249 Y5.6981 
G01 X5.7319 Y6.0051 
G01 X6.1330 Y6.1712 
G01 X6.5670 Y6.1712 
G01 X6.9681 Y6.0051 
G01 X7.1260 Y5.8472 
G01 X7.2146 Y5.7586 
G01 X7.2751 Y5.6981 
G01 X7.4038 Y5.3873 
G01 X7.4755 Y5.3155 
G01 X7.5693 Y5.2767 
G01 X7.6707 Y5.2767 
G01 X7.7645 Y5.3155 
G01 X7.8362 Y5.3873 
G01 X7.8750 Y5.4810 
G01 X7.9649 Y5.6981 
G01 X8.0254 Y5.7586 
G01 X8.2719 Y6.0051 
G01 X8.6730 Y6.1712 
G01 X9.1070 Y6.1712 
G01 X9.5081 Y6.0051 
G00 Z2.5400 
G00 X25.0708 Y4.9873 
G01 Z-0.0200 F254.00 
G01 X25.0708 Y5.1727 F300.00 
G01 X25.0347 Y5.3544 
G01 X24.9637 Y5.5256 
G01 X24.8608 Y5.6797 
G01 X24.7297 Y5.8108 
G01 X24.5756 Y5.9137 
G01 X24.4044 Y5.9847 
G01 X24.2227 Y6.0208 
G01 X24.0373 Y6.0208 
G01 X23.8556 Y5.9847 
G01 X23.6844 Y5.9137 
G01 X23.5303 Y5.8108 
G01 X23.3992 Y5.6797 
G01 X23.2963 Y5.5256 
G01 X23.2253 Y5.3544 
G01 X23.1892 Y5.1727 
G01 X23.1892 Y4.9873 
G01 X23.2253 Y4.8056 
G01 X23.2963 Y4.6344 
G01 X23.3992 Y4.4803 
G01 X23.5303 Y4.3492 
G01 X23.6844 Y4.2463 
G01 X23.8556 Y4.1753 
G01 X24.0373 Y4.1392 
G01 X24.2227 Y4.1392 
G01 X24.4044 Y4.1753 
G01 X24.5756 Y4.2463 
G01 X24.7297 Y4.3492 
G01 X24.8608 Y4.4803 
G01 X24.9637 Y4.6344 
G01 X25.0347 Y4.8056 
G01 X25.0708 Y4.9873 
G00 Z2.5400 
G00 X22.5308 Y4.9873 
G01 Z-0.0200 F254.00 
G01 X22.5308 Y5.1727 F300.00 
G01 X22.4947 Y5.3544 
G01 X22.4237 Y5.5256 
G01 X22.3208 Y5.6797 
G01 X22.1897 Y5.8108 
G01 X22.0356 Y5.9137 
G01 X21.8644 Y5.9847 
G01 X21.6827 Y6.0208 
G01 X21.4973 Y6.0208 
G01 X21.3156 Y5.9847 
G01 X21.1444 Y5.9137 
G01 X20.9903 Y5.8108 
G01 X20.8592 Y5.6797 
G01 X20.7563 Y5.5256 
G01 X20.6853 Y5.3544 
G01 X20.6492 Y5.1727 
G01 X20.6492 Y4.9873 
G01 X20.6853 Y4.8056 
G01 X20.7563 Y4.6344 
G01 X20.8592 Y4.4803 
G01 X20.9903 Y4.3492 
G01 X21.1444 Y4.2463 
G01 X21.3156 Y4.1753 
G01 X21.4973 Y4.1392 
G01 X21.6827 Y4.1392 
G01 X21.8644 Y4.1753 
G01 X22.0356 Y4.2463 
G01 X22.1897 Y4.3492 
G01 X22.3208 Y4.4803 
G01 X22.4237 Y4.6344 
G01 X22.4947 Y4.8056 
G01 X22.5308 Y4.9873 
G00 Z2.5400 
G00 X19.9908 Y4.9873 
G01 Z-0.0200 F254.00 
G01 X19.9908 Y5.1727 F300.00 
G01 X19.9547 Y5.3544 
G01 X19.8837 Y5.5256 
G01 X19.7808 Y5.6797 
G01 X19.6497 Y5.8108 
G01 X19.4956 Y5.9137 
G01 X19.3244 Y5.9847 
G01 X19.1427 Y6.0208 
G01 X18.9573 Y6.0208 
G01 X18.7756 Y5.9847 
G01 X18.6044 Y5.9137 
G01 X18.4503 Y5.8108 
G01 X18.3192 Y5.6797 
G01 X18.2163 Y5.5256 
G01 X18.1453 Y5.3544 
G01 X18.1092 Y5.1727 
G01 X18.1092 Y4.9873 
G01 X18.1453 Y4.8056 
G01 X18.2163 Y4.6344 
G01 X18.3192 Y4.4803 
G01 X18.4503 Y4.3492 
G01 X18.6044 Y4.2463 
G01 X18.7756 Y4.1753 
G01 X18.9573 Y4.1392 
G01 X19.1427 Y4.1392 
G01 X19.3244 Y4.1753 
G01 X19.4956 Y4.2463 
G01 X19.6497 Y4.3492 
G01 X19.7808 Y4.4803 
G01 X19.8837 Y4.6344 
G01 X19.9547 Y4.8056 
G01 X19.9908 Y4.9873 
G00 Z2.5400 
G00 X17.4508 Y4.9873 
G01 Z-0.0200 F254.00 
G01 X17.4508 Y5.1727 F300.00 
G01 X17.4147 Y5.3544 
G01 X17.3437 Y5.5256 
G01 X17.2408 Y5.6797 
G01 X17.1097 Y5.8108 
G01 X16.9556 Y5.9137 
G01 X16.7844 Y5.9847 
G01 X16.6027 Y6.0208 
G01 X16.4173 Y6.0208 
G01 X16.2356 Y5.9847 
G01 X16.0644 Y5.9137 
G01 X15.9103 Y5.8108 
G01 X15.7792 Y5.6797 
G01 X15.6763 Y5.5256 
G01 X15.6053 Y5.3544 
G01 X15.5692 Y5.1727 
G01 X15.5692 Y4.9873 
G01 X15.6053 Y4.8056 
G01 X15.6763 Y4.6344 
G01 X15.7792 Y4.4803 
G01 X15.9103 Y4.3492 
G01 X16.0644 Y4.2463 
G01 X16.2356 Y4.1753 
G01 X16.4173 Y4.1392 
G01 X16.6027 Y4.1392 
G01 X16.7844 Y4.1753 
G01 X16.9556 Y4.2463 
G01 X17.1097 Y4.3492 
G01 X17.2408 Y4.4803 
G01 X17.3437 Y4.6344 
G01 X17.4147 Y4.8056 
G01 X17.4508 Y4.9873 
G00 Z2.5400 
G00 X14.9108 Y4.9873 
G01 Z-0.0200 F254.00 
G01 X14.9108 Y5.1727 F300.00 
G01 X14.8747 Y5.3544 
G01 X14.8037 Y5.5256 
G01 X14.7008 Y5.6797 
G01 X14.5697 Y5.8108 
G01 X14.4156 Y5.9137 
G01 X14.2444 Y5.9847 
G01 X14.0627 Y6.0208 
G01 X13.8773 Y6.0208 
G01 X13.6956 Y5.9847 
G01 X13.5244 Y5.9137 
G01 X13.3703 Y5.8108 
G01 X13.2392 Y5.6797 
G01 X13.1363 Y5.5256 
G01 X13.0653 Y5.3544 
G01 X13.0292 Y5.1727 
G01 X13.0292 Y4.9873 
G01 X13.0653 Y4.8056 
G01 X13.1363 Y4.6344 
G01 X13.2392 Y4.4803 
G01 X13.3703 Y4.3492 
G01 X13.5244 Y4.2463 
G01 X13.6956 Y4.1753 
G01 X13.8773 Y4.1392 
G01 X14.0627 Y4.1392 
G01 X14.2444 Y4.1753 
G01 X14.4156 Y4.2463 
G01 X14.5697 Y4.3492 
G01 X14.7008 Y4.4803 
G01 X14.8037 Y4.6344 
G01 X14.8747 Y4.8056 
G01 X14.9108 Y4.9873 
G00 Z2.5400 
G00 X12.3708 Y4.9873 
G01 Z-0.0200 F254.00 
G01 X12.3708 Y5.1727 F300.00 
G01 X12.3347 Y5.3544 
G01 X12.2637 Y5.5256 
G01 X12.1608 Y5.6797 
G01 X12.0297 Y5.8108 
G01 X11.8756 Y5.9137 
G01 X11.7044 Y5.9847 
G01 X11.5227 Y6.0208 
G01 X11.3373 Y6.0208 
G01 X11.1556 Y5.9847 
G01 X10.9844 Y5.9137 
G01 X10.8303 Y5.8108 
G01 X10.6992 Y5.6797 
G01 X10.5963 Y5.5256 
G01 X10.5253 Y5.3544 
G01 X10.4892 Y5.1727 
G01 X10.4892 Y4.9873 
G01 X10.5253 Y4.8056 
G01 X10.5963 Y4.6344 
G01 X10.6992 Y4.4803 
G01 X10.8303 Y4.3492 
G01 X10.9844 Y4.2463 
G01 X11.1556 Y4.1753 
G01 X11.3373 Y4.1392 
G01 X11.5227 Y4.1392 
G01 X11.7044 Y4.1753 
G01 X11.8756 Y4.2463 
G01 X12.0297 Y4.3492 
G01 X12.1608 Y4.4803 
G01 X12.2637 Y4.6344 
G01 X12.3347 Y4.8056 
G01 X12.3708 Y4.9873 
G00 Z2.5400 
G00 X9.8308 Y4.9873 
G01 Z-0.0200 F254.00 
G01 X9.8308 Y5.1727 F300.00 
G01 X9.7947 Y5.3544 
G01 X9.7237 Y5.5256 
G01 X9.6208 Y5.6797 
G01 X9.4897 Y5.8108 
G01 X9.3356 Y5.9137 
G01 X9.1644 Y5.9847 
G01 X8.9827 Y6.0208 
G01 X8.7973 Y6.0208 
G01 X8.6156 Y5.9847 
G01 X8.4444 Y5.9137 
G01 X8.2903 Y5.8108 
G01 X8.1592 Y5.6797 
G01 X8.0563 Y5.5256 
G01 X7.9853 Y5.3544 
G01 X7.9492 Y5.1727 
G01 X7.9492 Y4.9873 
G01 X7.9853 Y4.8056 
G01 X8.0563 Y4.6344 
G01 X8.1592 Y4.4803 
G01 X8.2903 Y4.3492 
G01 X8.4444 Y4.2463 
G01 X8.6156 Y4.1753 
G01 X8.7973 Y4.1392 
G01 X8.9827 Y4.1392 
G01 X9.1644 Y4.1753 
G01 X9.3356 Y4.2463 
G01 X9.4897 Y4.3492 
G01 X9.6208 Y4.4803 
G01 X9.7237 Y4.6344 
G01 X9.7947 Y4.8056 
G01 X9.8308 Y4.9873 
G00 Z2.5400 
G00 X7.2908 Y4.9873 
G01 Z-0.0200 F254.00 
G01 X7.2908 Y5.1727 F300.00 
G01 X7.2547 Y5.3544 
G01 X7.1837 Y5.5256 
G01 X7.0808 Y5.6797 
G01 X6.9497 Y5.8108 
G01 X6.7956 Y5.9137 
G01 X6.6244 Y5.9847 
G01 X6.4427 Y6.0208 
G01 X6.2573 Y6.0208 
G01 X6.0756 Y5.9847 
G01 X5.9044 Y5.9137 
G01 X5.7503 Y5.8108 
G01 X5.6192 Y5.6797 
G01 X5.5163 Y5.5256 
G01 X5.4453 Y5.3544 
G01 X5.4092 Y5.1727 
G01 X5.4092 Y4.9873 
G01 X5.4453 Y4.8056 
G01 X5.5163 Y4.6344 
G01 X5.6192 Y4.4803 
G01 X5.7503 Y4.3492 
G01 X5.9044 Y4.2463 
G01 X6.0756 Y4.1753 
G01 X6.2573 Y4.1392 
G01 X6.4427 Y4.1392 
G01 X6.6244 Y4.1753 
G01 X6.7956 Y4.2463 
G01 X6.9497 Y4.3492 
G01 X7.0808 Y4.4803 
G01 X7.1837 Y4.6344 
G01 X7.2547 Y4.8056 
G01 X7.2908 Y4.9873 
G00 Z2.5400 
G00 X9.6410 Y45.6460 
G01 Z-0.0200 F254.00 
G01 X9.6410 Y45.7940 F300.00 
G01 X9.6122 Y45.9391 
G01 X9.5555 Y46.0757 
G01 X9.4734 Y46.1987 
G01 X9.3687 Y46.3034 
G01 X9.2457 Y46.3855 
G01 X9.1091 Y46.4422 
G01 X8.9640 Y46.4710 
G01 X8.8160 Y46.4710 
G01 X8.6709 Y46.4422 
G01 X8.5343 Y46.3855 
G01 X8.4113 Y46.3034 
G01 X8.3369 Y46.2290 
G01 X4.2712 Y46.2290 
G01 X4.2106 Y46.3197 
G01 X4.0795 Y46.4508 
G01 X3.9254 Y46.5537 
G01 X3.7542 Y46.6247 
G01 X3.5725 Y46.6608 
G01 X1.5075 Y46.6608 
G01 X1.3258 Y46.6247 
G01 X1.1546 Y46.5537 
G01 X1.0005 Y46.4508 
G01 X0.8694 Y46.3197 
G01 X0.7665 Y46.1656 
G01 X0.6955 Y45.9944 
G01 X0.6594 Y45.8127 
G01 X0.6594 Y45.6273 
G01 X0.6955 Y45.4456 
G01 X0.7665 Y45.2744 
G01 X0.8694 Y45.1203 
G01 X1.0005 Y44.9892 
G01 X1.1546 Y44.8863 
G01 X1.3258 Y44.8153 
G01 X1.5075 Y44.7792 
G01 X3.5725 Y44.7792 
G01 X3.7542 Y44.8153 
G01 X3.9254 Y44.8863 
G01 X4.0795 Y44.9892 
G01 X4.2106 Y45.1203 
G01 X4.2712 Y45.2110 
G01 X8.3369 Y45.2110 
G01 X8.4113 Y45.1366 
G01 X8.5343 Y45.0545 
G01 X8.6709 Y44.9978 
G01 X8.8160 Y44.9690 
G01 X8.9640 Y44.9690 
G01 X9.1091 Y44.9978 
G01 X9.2457 Y45.0545 
G01 X9.3687 Y45.1366 
G01 X9.4734 Y45.2413 
G01 X9.5555 Y45.3643 
G01 X9.6122 Y45.5009 
G01 X9.6410 Y45.6460 
G00 Z2.5400 
G00 X50.9241 Y15.8656 
G01 Z-0.0200 F254.00 
G01 X51.1477 Y15.9582 F300.00 
G01 X51.1494 Y15.9600 
G01 X53.5304 Y15.9600 
G01 X53.5249 Y15.9396 
G01 X53.4916 Y15.8819 
G01 X53.4794 Y15.8696 
G01 X53.4663 Y15.8380 
G01 X53.4495 Y15.8089 
G01 X53.4473 Y15.7921 
G01 X53.4406 Y15.7759 
G01 X53.4406 Y15.7412 
G01 X53.4362 Y15.7083 
G01 X53.4406 Y15.6921 
G01 X53.4406 Y15.4379 
G01 X53.4362 Y15.4217 
G01 X53.4406 Y15.3888 
G01 X53.4406 Y15.3541 
G01 X53.4473 Y15.3379 
G01 X53.4495 Y15.3211 
G01 X53.4663 Y15.2920 
G01 X53.4794 Y15.2604 
G01 X53.4916 Y15.2481 
G01 X53.5249 Y15.1904 
G01 X53.5304 Y15.1700 
G01 X52.3495 Y15.1700 
G01 X52.2558 Y15.1312 
G01 X52.2184 Y15.0938 
G01 X51.5108 Y15.0938 
G01 X51.5102 Y14.7368 
G01 X52.2184 Y14.7362 
G01 X52.2558 Y14.6988 
G01 X52.3495 Y14.6600 
G01 X53.5785 Y14.6600 
G01 X53.5810 Y14.6539 
G01 X53.6527 Y14.5822 
G01 X53.7465 Y14.5434 
G01 X54.1273 Y14.5434 
G01 X54.2211 Y14.5822 
G01 X54.2928 Y14.6539 
G01 X54.3316 Y14.7477 
G01 X54.3316 Y16.3823 
G01 X54.2928 Y16.4761 
G01 X54.2211 Y16.5478 
G01 X54.1273 Y16.5866 
G01 X53.7465 Y16.5866 
G01 X53.6527 Y16.5478 
G01 X53.5810 Y16.4761 
G01 X53.5785 Y16.4700 
G01 X51.2700 Y16.4700 
G01 X51.2755 Y16.4904 
G01 X51.3088 Y16.5481 
G01 X51.3210 Y16.5604 
G01 X51.3341 Y16.5920 
G01 X51.3509 Y16.6211 
G01 X51.3531 Y16.6379 
G01 X51.3598 Y16.6541 
G01 X51.3598 Y16.6888 
G01 X51.3642 Y16.7217 
G01 X51.3598 Y16.7379 
G01 X51.3598 Y17.2973 
G01 X51.3210 Y17.3911 
G01 X51.2493 Y17.4628 
G01 X51.1555 Y17.5016 
G01 X50.9702 Y17.5016 
G01 X50.8765 Y17.4628 
G01 X50.8047 Y17.3911 
G01 X48.0503 Y14.6366 
G01 X47.9045 Y14.6366 
G01 X47.8107 Y14.5978 
G01 X47.7390 Y14.5261 
G01 X47.7002 Y14.4323 
G01 X47.7002 Y12.7245 
G01 X47.6954 Y12.7197 
G01 X47.6566 Y12.6260 
G01 X47.6566 Y12.5559 
G01 X47.6566 Y12.5246 
G01 X47.6820 Y12.4631 
G01 X47.6954 Y12.4308 
G01 X47.7506 Y12.3756 
G01 X47.7672 Y12.3591 
G01 X48.6759 Y11.4504 
G01 X48.7042 Y11.4220 
G01 X48.7739 Y11.3524 
G01 X48.8140 Y11.3345 
G01 X48.8697 Y11.3115 
G01 X48.9711 Y11.3115 
G01 X49.0094 Y11.3273 
G01 X49.0648 Y11.3503 
G01 X49.1366 Y11.4220 
G01 X49.1523 Y11.4601 
G01 X49.1754 Y11.5158 
G01 X49.1754 Y14.0405 
G01 X49.2294 Y14.1709 
G01 X49.4009 Y14.3423 
G01 X50.9241 Y15.8656 
G00 Z2.5400 
G00 X49.3004 Y19.4027 
G01 Z-0.0200 F254.00 
G01 X48.9792 Y19.0815 F300.00 
G01 X48.9792 Y19.0815 
G01 X47.8909 Y17.9932 
G01 X47.8816 Y17.9707 
G01 X47.8816 Y17.9465 
G01 X47.8909 Y17.9240 
G01 X47.9080 Y17.9069 
G01 X47.9542 Y17.8607 
G01 X47.9542 Y15.8693 
G01 X47.8111 Y15.7262 
G01 X47.8018 Y15.7037 
G01 X47.8018 Y15.6698 
G01 X47.8111 Y15.6474 
G01 X47.8282 Y15.6303 
G01 X47.8504 Y15.6211 
G01 X47.8749 Y15.6210 
G01 X47.8974 Y15.6303 
G01 X47.9145 Y15.6474 
G01 X50.2583 Y17.9912 
G01 X50.5795 Y18.3124 
G01 X51.2319 Y18.3124 
G01 X51.2544 Y18.3217 
G01 X51.2715 Y18.3388 
G01 X51.2808 Y18.3613 
G01 X51.2808 Y18.3855 
G01 X51.2715 Y18.4080 
G01 X51.2544 Y18.4251 
G01 X50.1742 Y19.5053 
G01 X50.1517 Y19.5146 
G01 X49.7241 Y19.5146 
G01 X49.5817 Y19.6570 
G01 X49.5646 Y19.6741 
G01 X49.5421 Y19.6834 
G01 X49.5179 Y19.6834 
G01 X49.4954 Y19.6741 
G01 X49.3097 Y19.4884 
G01 X49.3004 Y19.4659 
G01 X49.3004 Y19.4417 
G01 X49.3004 Y19.4027 
G00 Z2.5400 
G00 X4.6703 Y42.4698 
G01 Z-0.0200 F254.00 
G01 X4.6479 Y42.4605 F300.00 
G01 X4.6476 Y42.4603 
G01 X4.6307 Y42.4434 
G01 X4.6202 Y42.4180 
G01 X4.2418 Y42.0396 
G01 X4.0762 Y41.9710 
G01 X4.0543 Y41.9619 
G01 X4.0366 Y41.9446 
G01 X4.0273 Y41.9221 
G01 X4.0273 Y41.8979 
G01 X4.0366 Y41.8754 
G01 X4.0538 Y41.8583 
G01 X4.2418 Y41.7804 
G01 X4.6202 Y41.4020 
G01 X4.8250 Y40.9076 
G01 X4.8250 Y40.3724 
G01 X4.6202 Y39.8780 
G01 X4.2418 Y39.4996 
G01 X4.0762 Y39.4310 
G01 X4.0543 Y39.4219 
G01 X4.0366 Y39.4046 
G01 X4.0273 Y39.3821 
G01 X4.0273 Y39.3579 
G01 X4.0366 Y39.3354 
G01 X4.0538 Y39.3183 
G01 X4.2418 Y39.2404 
G01 X4.6202 Y38.8620 
G01 X4.8250 Y38.3676 
G01 X4.8250 Y37.8324 
G01 X4.6760 Y37.4727 
G01 X4.6760 Y37.4485 
G01 X4.6853 Y37.4260 
G01 X4.7024 Y37.4089 
G01 X5.4399 Y36.6714 
G01 X5.4568 Y36.6545 
G01 X5.5667 Y36.6090 
G01 X5.5909 Y36.6090 
G01 X5.6134 Y36.6183 
G01 X5.6305 Y36.6354 
G01 X5.6398 Y36.6579 
G01 X5.6398 Y41.5433 
G01 X5.7479 Y41.8043 
G01 X5.9477 Y42.0041 
G01 X6.3179 Y42.3742 
G01 X6.3272 Y42.3967 
G01 X6.3272 Y42.4209 
G01 X6.3179 Y42.4434 
G01 X6.3007 Y42.4605 
G01 X6.2783 Y42.4698 
G01 X6.2540 Y42.4698 
G01 X4.6703 Y42.4698 
G00 Z2.5400 
G00 X13.8176 Y38.4209 
G01 Z-0.0200 F254.00 
G01 X13.8269 Y38.3985 F300.00 
G01 X13.8354 Y38.3901 
G01 X13.8441 Y38.3814 
G01 X13.8665 Y38.3721 
G01 X13.8908 Y38.3721 
G01 X13.9132 Y38.3814 
G01 X13.9217 Y38.3898 
G01 X13.9304 Y38.3985 
G01 X13.9397 Y38.4209 
G01 X14.0083 Y38.5867 
G01 X14.0083 Y38.6109 
G01 X13.9990 Y38.6334 
G01 X13.9819 Y38.6505 
G01 X13.9594 Y38.6598 
G01 X13.8287 Y38.6598 
G01 X13.8208 Y38.6631 
G01 X13.8088 Y38.6631 
G01 X13.7965 Y38.6631 
G01 X13.7928 Y38.6616 
G01 X13.7741 Y38.6538 
G01 X13.7569 Y38.6367 
G01 X13.7476 Y38.6142 
G01 X13.7476 Y38.6022 
G01 X13.7476 Y38.5900 
G01 X13.7500 Y38.5843 
G01 X13.7569 Y38.5675 
G01 X13.8176 Y38.4209 
G00 Z2.5400 
G00 X20.9286 Y34.0471 
G01 Z-0.0200 F254.00 
G01 X20.9286 Y34.0471 F300.00 
G01 X20.9379 Y34.0247 
G01 X20.9548 Y34.0078 
G01 X20.9675 Y34.0024 
G01 X20.9745 Y33.9995 
G01 X21.2995 Y33.6745 
G01 X21.4754 Y33.2498 
G01 X21.4754 Y32.7902 
G01 X21.2995 Y32.3655 
G01 X21.0395 Y32.1055 
G01 X21.0302 Y32.0831 
G01 X21.0302 Y30.7873 
G01 X21.0395 Y30.7649 
G01 X21.0566 Y30.7477 
G01 X21.3669 Y30.4375 
G01 X21.3893 Y30.4282 
G01 X22.1654 Y30.4282 
G01 X22.1878 Y30.4375 
G01 X22.2049 Y30.4546 
G01 X22.2141 Y30.4768 
G01 X22.2142 Y30.5013 
G01 X22.2049 Y30.5238 
G01 X22.1878 Y30.5409 
G01 X22.0546 Y30.6741 
G01 X22.0546 Y31.0651 
G01 X22.0482 Y31.0805 
G01 X22.0482 Y31.4035 
G01 X22.0546 Y31.4189 
G01 X22.0546 Y31.8099 
G01 X22.1405 Y31.8958 
G01 X22.1498 Y31.9182 
G01 X22.1498 Y36.0147 
G01 X22.1405 Y36.0371 
G01 X22.1234 Y36.0543 
G01 X22.0671 Y36.1105 
G01 X22.0447 Y36.1198 
G01 X21.6006 Y36.1198 
G01 X21.5781 Y36.1105 
G01 X21.5610 Y36.0934 
G01 X21.5518 Y36.0712 
G01 X21.5517 Y36.0467 
G01 X21.6454 Y35.8205 
G01 X21.6454 Y35.2995 
G01 X21.5608 Y35.0954 
G01 X21.4046 Y34.9392 
G01 X21.2005 Y34.8546 
G01 X20.9775 Y34.8546 
G01 X20.9550 Y34.8453 
G01 X20.9379 Y34.8282 
G01 X20.9286 Y34.8057 
G01 X20.9286 Y34.7815 
G01 X20.9286 Y34.0471 
G00 Z2.5400 
G00 X16.6017 Y38.8833 
G01 Z-0.0200 F254.00 
G01 X16.6017 Y38.8591 F300.00 
G01 X16.6110 Y38.8366 
G01 X16.6281 Y38.8195 
G01 X16.6506 Y38.8102 
G01 X17.0209 Y38.8102 
G01 X17.0434 Y38.8195 
G01 X17.0605 Y38.8366 
G01 X17.0698 Y38.8591 
G01 X17.0698 Y39.8809 
G01 X17.0605 Y39.9034 
G01 X17.0434 Y39.9205 
G01 X17.0209 Y39.9298 
G01 X16.6506 Y39.9298 
G01 X16.6281 Y39.9205 
G01 X16.6110 Y39.9034 
G01 X16.6018 Y39.8812 
G01 X16.6017 Y39.8567 
G01 X16.6954 Y39.6305 
G01 X16.6954 Y39.1095 
G01 X16.6017 Y38.8833 
G00 Z2.5400 
G00 X9.5445 Y44.7405 
G01 Z-0.0200 F254.00 
G01 X9.1198 Y44.5646 F300.00 
G01 X8.6602 Y44.5646 
G01 X8.2355 Y44.7405 
G01 X8.1787 Y44.7973 
G01 X8.1563 Y44.8066 
G01 X4.4819 Y44.8066 
G01 X4.4595 Y44.7973 
G01 X4.4423 Y44.7802 
G01 X4.2418 Y44.5796 
G01 X4.0762 Y44.5110 
G01 X4.0543 Y44.5019 
G01 X4.0366 Y44.4846 
G01 X4.0273 Y44.4621 
G01 X4.0273 Y44.4379 
G01 X4.0366 Y44.4154 
G01 X4.0538 Y44.3983 
G01 X4.2418 Y44.3204 
G01 X4.6202 Y43.9420 
G01 X4.6307 Y43.9166 
G01 X4.6479 Y43.8995 
G01 X4.6703 Y43.8902 
G01 X10.3607 Y43.8902 
G01 X10.3831 Y43.8995 
G01 X10.4003 Y43.9166 
G01 X10.6153 Y44.1317 
G01 X10.6246 Y44.1541 
G01 X10.6246 Y44.5099 
G01 X10.8621 Y44.7474 
G01 X11.9979 Y44.7474 
G01 X12.0838 Y44.6615 
G01 X12.1062 Y44.6522 
G01 X14.6193 Y44.6522 
G01 X14.8803 Y44.5441 
G01 X15.5297 Y43.8947 
G01 X15.5521 Y43.8854 
G01 X16.2505 Y43.8854 
G01 X16.4546 Y43.8008 
G01 X16.6108 Y43.6446 
G01 X16.6954 Y43.4405 
G01 X16.6954 Y42.9195 
G01 X16.6108 Y42.7154 
G01 X16.4750 Y42.5796 
G01 X16.4657 Y42.5571 
G01 X16.4657 Y42.5329 
G01 X16.4750 Y42.5104 
G01 X16.4922 Y42.4933 
G01 X16.6108 Y42.3746 
G01 X16.6954 Y42.1705 
G01 X16.6954 Y41.6495 
G01 X16.6017 Y41.4233 
G01 X16.6017 Y41.3991 
G01 X16.6110 Y41.3766 
G01 X16.6281 Y41.3595 
G01 X16.6506 Y41.3502 
G01 X18.9094 Y41.3502 
G01 X18.9319 Y41.3595 
G01 X18.9490 Y41.3766 
G01 X18.9582 Y41.3988 
G01 X18.9583 Y41.4233 
G01 X18.8646 Y41.6495 
G01 X18.8646 Y42.1705 
G01 X18.9492 Y42.3746 
G01 X19.0850 Y42.5104 
G01 X19.0943 Y42.5329 
G01 X19.0943 Y42.5571 
G01 X19.0850 Y42.5796 
G01 X19.0678 Y42.5967 
G01 X18.9492 Y42.7154 
G01 X18.8646 Y42.9195 
G01 X18.8646 Y43.4405 
G01 X18.9492 Y43.6446 
G01 X19.1054 Y43.8008 
G01 X19.3095 Y43.8854 
G01 X20.0079 Y43.8854 
G01 X20.0303 Y43.8947 
G01 X20.0475 Y43.9118 
G01 X20.2971 Y44.1614 
G01 X20.3064 Y44.1839 
G01 X20.3064 Y44.2081 
G01 X20.2971 Y44.2306 
G01 X20.2799 Y44.2477 
G01 X15.7171 Y48.8105 
G01 X15.6947 Y48.8198 
G01 X2.8473 Y48.8198 
G01 X2.8249 Y48.8105 
G01 X1.1258 Y47.1114 
G01 X1.1089 Y47.0945 
G01 X1.0997 Y47.0724 
G01 X1.0996 Y47.0478 
G01 X1.1089 Y47.0254 
G01 X1.1176 Y47.0167 
G01 X1.1260 Y47.0082 
G01 X1.1482 Y46.9991 
G01 X1.1727 Y46.9990 
G01 X1.1952 Y47.0082 
G01 X1.3326 Y47.0652 
G01 X3.7474 Y47.0652 
G01 X4.2418 Y46.8604 
G01 X4.4595 Y46.6427 
G01 X4.4819 Y46.6334 
G01 X8.1563 Y46.6334 
G01 X8.1787 Y46.6427 
G01 X8.1959 Y46.6598 
G01 X8.2355 Y46.6995 
G01 X8.6602 Y46.8754 
G01 X9.1198 Y46.8754 
G01 X9.5445 Y46.6995 
G01 X9.8695 Y46.3745 
G01 X10.0454 Y45.9498 
G01 X10.0454 Y45.4902 
G01 X9.8695 Y45.0655 
G01 X9.5445 Y44.7405 
G00 Z2.5400 
G00 X36.5369 Y36.2171 
G01 Z-0.0200 F254.00 
G01 X36.5540 Y36.1999 F300.00 
G01 X36.5765 Y36.1906 
G01 X36.6007 Y36.1906 
G01 X36.6100 Y36.1945 
G01 X36.6232 Y36.1999 
G01 X36.6311 Y36.2078 
G01 X36.6403 Y36.2171 
G01 X36.6496 Y36.2395 
G01 X36.6496 Y37.2674 
G01 X36.6403 Y37.2898 
G01 X36.6232 Y37.3070 
G01 X36.3702 Y37.4118 
G01 X35.6530 Y38.1289 
G01 X35.6306 Y38.1382 
G01 X33.8902 Y38.1382 
G01 X33.8678 Y38.1289 
G01 X33.8507 Y38.1118 
G01 X33.8442 Y38.0961 
G01 X33.8414 Y38.0893 
G01 X33.8414 Y38.0651 
G01 X33.8507 Y38.0426 
G01 X33.8678 Y38.0255 
G01 X33.9254 Y37.9679 
G01 X33.9254 Y36.5321 
G01 X33.8411 Y36.4478 
G01 X33.8318 Y36.4254 
G01 X33.8318 Y35.9646 
G01 X33.8411 Y35.9422 
G01 X33.8582 Y35.9251 
G01 X33.9254 Y35.8579 
G01 X33.9254 Y35.6003 
G01 X33.9347 Y35.5778 
G01 X34.3090 Y35.2035 
G01 X34.3315 Y35.1942 
G01 X34.3557 Y35.1942 
G01 X34.3782 Y35.2035 
G01 X34.3953 Y35.2206 
G01 X34.4046 Y35.2431 
G01 X34.4046 Y36.0386 
G01 X35.0814 Y36.7154 
G01 X36.0386 Y36.7154 
G01 X36.5369 Y36.2171 
G00 Z2.5400 
G00 X38.0158 Y34.8913 
G01 Z-0.0200 F254.00 
G01 X37.9933 Y34.9006 F300.00 
G01 X37.9688 Y34.9006 
G01 X37.7265 Y35.0010 
G01 X37.4964 Y35.2311 
G01 X37.4795 Y35.2480 
G01 X37.4573 Y35.2572 
G01 X37.4328 Y35.2573 
G01 X37.4104 Y35.2480 
G01 X37.4016 Y35.2393 
G01 X37.3932 Y35.2308 
G01 X37.3840 Y35.2087 
G01 X37.3839 Y35.1841 
G01 X37.3932 Y35.1617 
G01 X37.5258 Y34.8415 
G01 X37.5258 Y34.5881 
G01 X37.5351 Y34.5656 
G01 X37.5523 Y34.5485 
G01 X37.5747 Y34.5392 
G01 X38.2328 Y34.5392 
G01 X38.2552 Y34.5485 
G01 X38.2723 Y34.5656 
G01 X38.2816 Y34.5881 
G01 X38.2816 Y34.6123 
G01 X38.2723 Y34.6348 
G01 X38.2552 Y34.6519 
G01 X38.0158 Y34.8913 
G00 Z2.5400 
G00 X23.5702 Y35.4943 
G01 Z-0.0200 F254.00 
G01 X23.5795 Y35.4718 F300.00 
G01 X23.5966 Y35.4547 
G01 X23.6191 Y35.4454 
G01 X23.7417 Y35.4454 
G01 X23.7642 Y35.4547 
G01 X23.7813 Y35.4718 
G01 X23.7906 Y35.4943 
G01 X23.7906 Y35.9529 
G01 X23.7813 Y35.9754 
G01 X23.7642 Y35.9925 
G01 X23.6946 Y36.0621 
G01 X23.6946 Y37.5979 
G01 X23.8313 Y37.7346 
G01 X23.8406 Y37.7570 
G01 X23.8406 Y38.6617 
G01 X23.8313 Y38.6842 
G01 X23.8142 Y38.7013 
G01 X23.7917 Y38.7106 
G01 X21.5500 Y38.7106 
G01 X21.5275 Y38.7013 
G01 X21.5104 Y38.6842 
G01 X21.5039 Y38.6685 
G01 X21.5011 Y38.6617 
G01 X21.5011 Y38.6375 
G01 X21.5104 Y38.6150 
G01 X21.5608 Y38.5646 
G01 X21.6454 Y38.3605 
G01 X21.6454 Y37.8395 
G01 X21.5517 Y37.6133 
G01 X21.5517 Y37.5891 
G01 X21.5610 Y37.5666 
G01 X21.5781 Y37.5495 
G01 X21.6006 Y37.5402 
G01 X22.4933 Y37.5402 
G01 X22.7543 Y37.4321 
G01 X22.9712 Y37.2151 
G01 X23.4621 Y36.7243 
G01 X23.5702 Y36.4633 
G01 X23.5702 Y35.4943 
G00 Z2.5400 
G00 X37.3290 Y12.0304 
G01 Z-0.0200 F254.00 
G01 X37.3290 Y10.8296 F300.00 
G01 X37.3296 Y10.8290 
G01 X38.1304 Y10.8290 
G01 X38.1310 Y12.0304 
G01 X38.0350 Y12.0310 
G01 X38.0350 Y13.2190 
G01 X38.4304 Y13.2190 
G01 X38.4310 Y13.7150 
G01 X40.6907 Y13.7150 
G01 X40.7845 Y13.7538 
G01 X40.8562 Y13.8255 
G01 X40.8950 Y13.9193 
G01 X40.8950 Y14.0081 
G01 X41.6486 Y14.7616 
G01 X45.7698 Y14.7616 
G01 X45.7698 Y14.7368 
G01 X47.5492 Y14.7362 
G01 X47.5498 Y14.7870 
G01 X47.9605 Y14.7870 
G01 X48.0075 Y14.8065 
G01 X50.8530 Y17.6520 
G01 X51.5102 Y17.6520 
G01 X51.5102 Y17.3368 
G01 X52.2722 Y17.3362 
G01 X52.2722 Y17.0438 
G01 X51.5108 Y17.0438 
G01 X51.5102 Y16.6868 
G01 X53.2896 Y16.6862 
G01 X53.2902 Y16.7370 
G01 X54.4820 Y16.7370 
G01 X54.4820 Y14.3930 
G01 X53.2902 Y14.3930 
G01 X53.2902 Y14.4432 
G01 X51.5108 Y14.4438 
G01 X51.5102 Y14.0868 
G01 X53.2896 Y14.0862 
G01 X53.2902 Y14.1370 
G01 X54.3009 Y14.1370 
G01 X53.9070 Y13.7430 
G01 X53.2902 Y13.7430 
G01 X53.2902 Y13.7932 
G01 X51.5108 Y13.7938 
G01 X51.5102 Y13.4368 
G01 X53.2896 Y13.4362 
G01 X53.2902 Y13.4870 
G01 X53.9855 Y13.4870 
G01 X54.0325 Y13.5065 
G01 X54.7185 Y14.1925 
G01 X54.7380 Y14.2395 
G01 X54.7380 Y16.8905 
G01 X54.7185 Y16.9375 
G01 X54.6825 Y16.9735 
G01 X54.6355 Y16.9930 
G01 X53.2902 Y16.9930 
G01 X53.2902 Y17.0432 
G01 X52.5282 Y17.0438 
G01 X52.5282 Y17.3362 
G01 X53.2896 Y17.3362 
G01 X53.2902 Y17.6932 
G01 X52.4024 Y17.6938 
G01 X52.3834 Y17.7128 
G01 X52.3902 Y17.7293 
G01 X52.3902 Y18.3069 
G01 X52.4202 Y18.3588 
G01 X52.4410 Y18.4365 
G01 X52.4410 Y18.5171 
G01 X52.4202 Y18.5948 
G01 X52.3799 Y18.6646 
G01 X52.3758 Y18.6687 
G01 X52.3758 Y20.9038 
G01 X52.4257 Y20.9245 
G01 X52.5487 Y21.0066 
G01 X52.6534 Y21.1113 
G01 X52.7355 Y21.2343 
G01 X52.7922 Y21.3709 
G01 X52.8210 Y21.5160 
G01 X52.8210 Y21.6640 
G01 X52.7922 Y21.8091 
G01 X52.7355 Y21.9457 
G01 X52.6534 Y22.0687 
G01 X52.5487 Y22.1734 
G01 X52.4257 Y22.2555 
G01 X52.2891 Y22.3122 
G01 X52.1440 Y22.3410 
G01 X51.9960 Y22.3410 
G01 X51.8509 Y22.3122 
G01 X51.7143 Y22.2555 
G01 X51.5913 Y22.1734 
G01 X51.4866 Y22.0687 
G01 X51.4045 Y21.9457 
G01 X51.3478 Y21.8091 
G01 X51.3190 Y21.6640 
G01 X51.3190 Y21.5160 
G01 X51.3478 Y21.3709 
G01 X51.4045 Y21.2343 
G01 X51.4866 Y21.1113 
G01 X51.5913 Y21.0066 
G01 X51.7143 Y20.9245 
G01 X51.7642 Y20.9038 
G01 X51.7642 Y19.2085 
G01 X50.6930 Y20.2796 
G01 X50.6930 Y20.7204 
G01 X49.8916 Y20.7210 
G01 X49.8910 Y19.9196 
G01 X50.3324 Y19.9190 
G01 X51.7695 Y18.4818 
G01 X51.7850 Y18.4240 
G01 X51.8253 Y18.3542 
G01 X51.8802 Y18.2993 
G01 X51.8802 Y17.9080 
G01 X50.7745 Y17.9080 
G01 X50.7275 Y17.8885 
G01 X50.6915 Y17.8525 
G01 X47.8820 Y15.0430 
G01 X47.5498 Y15.0430 
G01 X47.5498 Y15.0932 
G01 X45.7704 Y15.0938 
G01 X45.7698 Y15.0684 
G01 X41.5545 Y15.0684 
G01 X41.4981 Y15.0451 
G01 X40.6780 Y14.2250 
G01 X38.4310 Y14.2250 
G01 X38.4310 Y14.7204 
G01 X37.1296 Y14.7210 
G01 X37.1290 Y13.2196 
G01 X37.5250 Y13.2190 
G01 X37.5250 Y12.0310 
