(.../eduards/EAGLE/pcb-gcode/pcb-gcode.ulp)
(Copyright 2005 - 2012 by John Johnson)
(See readme.txt for licensing terms.)
(This file generated from the board:)
(.../projects/New_Project/AFM_QFM_input.brd)
(Current profile is .../pcb-gcode/profiles/generic.pp  )
(This file generated 4/4/24 10:53 PM)
(Settings from pcb-machine.h)
(  Tool Size)
(0.0000 )
(Z Axis Settings)
(  High     Up        Down     Drill)
(12.7000 	2.5400 	-0.0200 	-0.8128 )
(spindle on time = 3.0000)
(milling depth = 0.0000)
(text depth = -0.1270)
(tool change at 12.7000 15.2400 25.4000 )
(feed rate xy = F300.00 )
(feed rate z  = F254.00 )
(Settings from pcb-defaults.h)
(isolate min = 0.0010)
(isolate max = 2.0000)
(isolate step = 0.1200)
(Generated top outlines, top drill, )
(Unit of measure: mm)
(Metric Mode)
G21
(Absolute Coordinates)
G90
G00 X0.0000 Y0.0000 
M03
G04 P3.000000
G00 Z2.5400 
G00 X11.6770 Y46.3533 
G01 Z-0.0200 F254.00 
G01 X11.6871 Y46.3909 F300.00 
G01 X11.6940 Y46.4166 
G01 X11.6940 Y45.9750 
G01 X11.6770 Y45.9750 
G01 X11.6770 Y46.3533 
G00 Z2.5400 
G00 X12.9701 Y46.4015 
G01 Z-0.0200 F254.00 
G01 X12.9830 Y46.3534 F300.00 
G01 X12.9830 Y46.3533 
G01 X12.9830 Y45.9750 
G01 X12.9660 Y45.9750 
G01 X12.9660 Y46.4112 
G01 X12.9701 Y46.4015 
G00 Z2.5400 
G00 X12.7310 Y45.1196 
G01 Z-0.0200 F254.00 
G01 X12.7310 Y45.2230 F300.00 
G01 X12.7355 Y45.2260 
G01 X12.8240 Y45.3146 
G01 X12.8936 Y45.4188 
G01 X12.9128 Y45.4650 
G01 X12.9830 Y45.4650 
G01 X12.9830 Y45.0867 
G01 X12.9729 Y45.0491 
G01 X12.9657 Y45.0224 
G01 X12.9324 Y44.9647 
G01 X12.8853 Y44.9176 
G01 X12.8276 Y44.8843 
G01 X12.8009 Y44.8771 
G01 X12.7633 Y44.8670 
G01 X12.5850 Y44.8670 
G01 X12.5850 Y45.1190 
G01 X12.7304 Y45.1190 
G00 Z2.5400 
G00 X11.8967 Y44.8670 
G01 Z-0.0200 F254.00 
G01 X11.8591 Y44.8771 F300.00 
G01 X11.8323 Y44.8843 
G01 X11.7747 Y44.9176 
G01 X11.7276 Y44.9647 
G01 X11.6943 Y45.0224 
G01 X11.6871 Y45.0491 
G01 X11.6770 Y45.0867 
G01 X11.6770 Y45.4650 
G01 X11.7472 Y45.4650 
G01 X11.7663 Y45.4188 
G01 X11.8360 Y45.3146 
G01 X11.9245 Y45.2260 
G01 X11.9290 Y45.2230 
G01 X11.9290 Y45.1196 
G01 X12.0750 Y45.1190 
G01 X12.0750 Y44.8670 
G01 X11.8967 Y44.8670 
G00 Z2.5400 
G00 X32.2074 Y38.5195 
G01 Z-0.0200 F254.00 
G01 X32.1523 Y38.5343 F300.00 
G01 X32.0947 Y38.5676 
G01 X32.0476 Y38.6147 
G01 X32.0143 Y38.6724 
G01 X32.0096 Y38.6899 
G01 X31.9970 Y38.7367 
G01 X31.9970 Y39.1150 
G01 X32.0672 Y39.1150 
G01 X32.0863 Y39.0688 
G01 X32.1560 Y38.9646 
G01 X32.2446 Y38.8760 
G01 X32.2490 Y38.8730 
G01 X32.2490 Y38.7696 
G01 X32.3950 Y38.7690 
G01 X32.3950 Y38.5170 
G01 X32.2167 Y38.5170 
G01 X32.2074 Y38.5195 
G00 Z2.5400 
G00 X33.2965 Y38.7125 
G01 Z-0.0200 F254.00 
G01 X33.2901 Y38.6885 F300.00 
G01 X33.2774 Y38.6579 
G01 X33.2649 Y38.6363 
G01 X33.2465 Y38.6087 
G01 X33.2160 Y38.5782 
G01 X33.2053 Y38.5676 
G01 X33.1476 Y38.5343 
G01 X33.0926 Y38.5195 
G01 X33.0833 Y38.5170 
G01 X32.9050 Y38.5170 
G01 X32.9050 Y38.7340 
G01 X33.3008 Y38.7340 
G01 X33.2965 Y38.7125 
G00 Z2.5400 
G00 X33.2904 Y40.0501 
G01 Z-0.0200 F254.00 
G01 X33.3022 Y40.0060 F300.00 
G01 X33.2860 Y40.0060 
G01 X33.2860 Y40.0666 
G01 X33.2904 Y40.0501 
G00 Z2.5400 
G00 X31.9970 Y40.0033 
G01 Z-0.0200 F254.00 
G01 X32.0096 Y40.0501 F300.00 
G01 X32.0140 Y40.0666 
G01 X32.0140 Y39.6250 
G01 X31.9970 Y39.6250 
G01 X31.9970 Y40.0033 
G00 Z2.5400 
G00 X32.8550 Y37.5830 
G01 Z-0.0200 F254.00 
G01 X33.1833 Y37.5830 F300.00 
G01 X33.2199 Y37.5732 
G01 X33.2476 Y37.5657 
G01 X33.2836 Y37.5450 
G01 X33.3113 Y37.5265 
G01 X33.3465 Y37.4913 
G01 X33.3634 Y37.4660 
G01 X32.8550 Y37.4660 
G01 X32.8550 Y37.5830 
G00 Z2.5400 
G00 X38.3949 Y38.6863 
G01 Z-0.0200 F254.00 
G01 X38.3765 Y38.6587 F300.00 
G01 X38.3413 Y38.6235 
G01 X38.3160 Y38.6066 
G01 X38.3160 Y38.7340 
G01 X38.4182 Y38.7340 
G01 X38.4074 Y38.7079 
G01 X38.3949 Y38.6863 
G00 Z2.5400 
G00 X38.3413 Y40.1165 
G01 Z-0.0200 F254.00 
G01 X38.3765 Y40.0813 F300.00 
G01 X38.3949 Y40.0537 
G01 X38.4074 Y40.0321 
G01 X38.4182 Y40.0060 
G01 X38.3160 Y40.0060 
G01 X38.3160 Y40.1334 
G01 X38.3413 Y40.1165 
G00 Z2.5400 
G00 X33.2836 Y36.1150 
G01 Z-0.0200 F254.00 
G01 X33.2476 Y36.0943 F300.00 
G01 X33.2199 Y36.0868 
G01 X33.1833 Y36.0770 
G01 X32.8550 Y36.0770 
G01 X32.8550 Y36.1940 
G01 X33.3634 Y36.1940 
G01 X33.3465 Y36.1687 
G01 X33.3113 Y36.1335 
G01 X33.2836 Y36.1150 
G00 Z2.5400 
G00 X16.2551 Y33.6274 
G01 Z-0.0200 F254.00 
G01 X16.2457 Y33.5924 F300.00 
G01 X16.2124 Y33.5347 
G01 X16.1653 Y33.4876 
G01 X16.1076 Y33.4543 
G01 X16.0726 Y33.4449 
G01 X16.0433 Y33.4370 
G01 X15.8650 Y33.4370 
G01 X15.8650 Y33.6890 
G01 X16.0104 Y33.6890 
G01 X16.0110 Y34.0350 
G01 X16.2630 Y34.0350 
G01 X16.2630 Y33.6567 
G01 X16.2551 Y33.6274 
G00 Z2.5400 
G00 X15.2090 Y33.6896 
G01 Z-0.0200 F254.00 
G01 X15.2096 Y33.6890 F300.00 
G01 X15.3550 Y33.6890 
G01 X15.3550 Y33.4370 
G01 X15.1767 Y33.4370 
G01 X15.1474 Y33.4449 
G01 X15.1124 Y33.4543 
G01 X15.0547 Y33.4876 
G01 X15.0076 Y33.5347 
G01 X14.9912 Y33.5630 
G01 X14.9743 Y33.5923 
G01 X14.9570 Y33.6567 
G01 X14.9570 Y34.0350 
G01 X15.2090 Y34.0350 
G01 X15.2090 Y33.6896 
G00 Z2.5400 
G00 X15.2090 Y34.8904 
G01 Z-0.0200 F254.00 
G01 X15.2090 Y34.5450 F300.00 
G01 X14.9570 Y34.5450 
G01 X14.9570 Y34.7914 
G01 X14.9570 Y34.9233 
G01 X14.9649 Y34.9526 
G01 X14.9743 Y34.9876 
G01 X15.0076 Y35.0453 
G01 X15.0547 Y35.0924 
G01 X15.1124 Y35.1257 
G01 X15.1474 Y35.1351 
G01 X15.1767 Y35.1430 
G01 X15.3550 Y35.1430 
G01 X15.3550 Y34.8910 
G01 X15.2096 Y34.8910 
G00 Z2.5400 
G00 X16.0726 Y35.1351 
G01 Z-0.0200 F254.00 
G01 X16.0915 Y35.1301 F300.00 
G01 X16.1119 Y35.1216 
G01 X16.1222 Y35.1173 
G01 X16.1436 Y35.1050 
G01 X16.1713 Y35.0865 
G01 X16.1837 Y35.0740 
G01 X16.2124 Y35.0453 
G01 X16.2457 Y34.9876 
G01 X16.2551 Y34.9526 
G01 X16.2630 Y34.9233 
G01 X16.2630 Y34.5450 
G01 X16.0110 Y34.5450 
G01 X16.0110 Y34.8904 
G01 X15.8650 Y34.8910 
G01 X15.8650 Y35.1430 
G01 X16.0433 Y35.1430 
G01 X16.0726 Y35.1351 
G00 Z2.5400 
G00 X32.2167 Y33.4370 
G01 Z-0.0200 F254.00 
G01 X32.1782 Y33.4473 F300.00 
G01 X32.1523 Y33.4543 
G01 X32.0947 Y33.4876 
G01 X32.0476 Y33.5347 
G01 X32.0143 Y33.5924 
G01 X32.0073 Y33.6182 
G01 X31.9970 Y33.6567 
G01 X31.9970 Y34.0350 
G01 X32.0672 Y34.0350 
G01 X32.0864 Y33.9887 
G01 X32.1560 Y33.8845 
G01 X32.2446 Y33.7960 
G01 X32.2490 Y33.7930 
G01 X32.2490 Y33.6896 
G01 X32.3950 Y33.6890 
G01 X32.3950 Y33.4370 
G01 X32.2167 Y33.4370 
G00 Z2.5400 
G00 X33.2965 Y33.6325 
G01 Z-0.0200 F254.00 
G01 X33.2927 Y33.6182 F300.00 
G01 X33.2901 Y33.6085 
G01 X33.2774 Y33.5779 
G01 X33.2649 Y33.5563 
G01 X33.2465 Y33.5287 
G01 X33.2160 Y33.4982 
G01 X33.2053 Y33.4876 
G01 X33.1476 Y33.4543 
G01 X33.0843 Y33.4373 
G01 X32.9050 Y33.4370 
G01 X32.9050 Y33.6540 
G01 X33.3008 Y33.6540 
G01 X33.2965 Y33.6325 
G00 Z2.5400 
G00 X32.9050 Y35.1430 
G01 Z-0.0200 F254.00 
G01 X33.0833 Y35.1430 F300.00 
G01 X33.1218 Y35.1327 
G01 X33.1476 Y35.1257 
G01 X33.2053 Y35.0924 
G01 X33.2160 Y35.0818 
G01 X33.2465 Y35.0513 
G01 X33.2649 Y35.0237 
G01 X33.2774 Y35.0021 
G01 X33.2901 Y34.9715 
G01 X33.2927 Y34.9618 
G01 X33.2965 Y34.9475 
G01 X33.3008 Y34.9260 
G01 X32.9050 Y34.9260 
G01 X32.9050 Y35.1430 
G00 Z2.5400 
G00 X31.9970 Y34.9233 
G01 Z-0.0200 F254.00 
G01 X32.0073 Y34.9618 F300.00 
G01 X32.0143 Y34.9876 
G01 X32.0476 Y35.0453 
G01 X32.0947 Y35.0924 
G01 X32.1523 Y35.1257 
G01 X32.1782 Y35.1327 
G01 X32.2167 Y35.1430 
G01 X32.3950 Y35.1430 
G01 X32.3950 Y34.8910 
G01 X32.2496 Y34.8910 
G01 X32.2490 Y34.7870 
G01 X32.2446 Y34.7840 
G01 X32.1560 Y34.6955 
G01 X32.0864 Y34.5913 
G01 X32.0672 Y34.5450 
G01 X31.9970 Y34.5450 
G01 X31.9970 Y34.9233 
G00 Z2.5400 
G00 X33.1833 Y32.5030 
G01 Z-0.0200 F254.00 
G01 X33.2220 Y32.4926 F300.00 
G01 X33.2476 Y32.4857 
G01 X33.2836 Y32.4650 
G01 X33.3113 Y32.4465 
G01 X33.3465 Y32.4113 
G01 X33.3649 Y32.3837 
G01 X33.3774 Y32.3621 
G01 X33.3901 Y32.3315 
G01 X33.3926 Y32.3220 
G01 X33.3965 Y32.3075 
G01 X33.4030 Y32.2749 
G01 X33.4030 Y32.0050 
G01 X33.1510 Y32.0050 
G01 X33.1510 Y32.2504 
G01 X32.8550 Y32.2510 
G01 X32.8550 Y32.5030 
G01 X33.1833 Y32.5030 
G00 Z2.5400 
G00 X9.8998 Y19.7323 
G01 Z-0.0200 F254.00 
G01 X9.9130 Y19.6833 F300.00 
G01 X9.9130 Y19.1710 
G01 X9.8960 Y19.1710 
G01 X9.8960 Y19.7466 
G01 X9.8998 Y19.7323 
G00 Z2.5400 
G00 X8.6199 Y19.7315 
G01 Z-0.0200 F254.00 
G01 X8.6240 Y19.7412 F300.00 
G01 X8.6240 Y19.6860 
G01 X8.6092 Y19.6860 
G01 X8.6135 Y19.7075 
G01 X8.6199 Y19.7315 
G00 Z2.5400 
G00 X9.0050 Y18.1970 
G01 Z-0.0200 F254.00 
G01 X8.8267 Y18.1970 F300.00 
G01 X8.8152 Y18.2001 
G01 X8.7623 Y18.2143 
G01 X8.7047 Y18.2476 
G01 X8.6940 Y18.2582 
G01 X8.6635 Y18.2887 
G01 X8.6451 Y18.3163 
G01 X8.6326 Y18.3379 
G01 X8.6199 Y18.3685 
G01 X8.6135 Y18.3925 
G01 X8.6092 Y18.4140 
G01 X9.0050 Y18.4140 
G01 X9.0050 Y18.1970 
G00 Z2.5400 
G00 X9.9130 Y18.4167 
G01 Z-0.0200 F254.00 
G01 X9.9124 Y18.4145 F300.00 
G01 X9.9036 Y18.3817 
G01 X9.8906 Y18.3503 
G01 X9.8906 Y18.3434 
G01 X9.8624 Y18.2947 
G01 X9.8153 Y18.2476 
G01 X9.7576 Y18.2143 
G01 X9.7382 Y18.2090 
G01 X9.6933 Y18.1970 
G01 X9.5150 Y18.1970 
G01 X9.5150 Y18.4490 
G01 X9.6604 Y18.4490 
G01 X9.6610 Y18.5530 
G01 X9.6654 Y18.5560 
G01 X9.7540 Y18.6445 
G01 X9.8236 Y18.7488 
G01 X9.8716 Y18.8645 
G01 X9.8844 Y18.9290 
G01 X9.9130 Y18.9290 
G01 X9.9130 Y18.4167 
G00 Z2.5400 
G00 X42.2049 Y47.5763 
G01 Z-0.0200 F254.00 
G01 X42.1865 Y47.5487 F300.00 
G01 X42.1513 Y47.5135 
G01 X42.1260 Y47.4966 
G01 X42.1260 Y47.6240 
G01 X42.2282 Y47.6240 
G01 X42.2174 Y47.5979 
G01 X42.2049 Y47.5763 
G00 Z2.5400 
G00 X42.2049 Y48.9437 
G01 Z-0.0200 F254.00 
G01 X42.2174 Y48.9221 F300.00 
G01 X42.2282 Y48.8960 
G01 X42.1260 Y48.8960 
G01 X42.1260 Y49.0234 
G01 X42.1513 Y49.0065 
G01 X42.1865 Y48.9713 
G01 X42.2049 Y48.9437 
G00 Z2.5400 
G00 X6.0960 Y12.0893 
G01 Z-0.0200 F254.00 
G01 X6.1030 Y12.0633 F300.00 
G01 X6.1030 Y11.6850 
G01 X6.0860 Y11.6850 
G01 X6.0860 Y12.1266 
G01 X6.0960 Y12.0893 
G00 Z2.5400 
G00 X4.8035 Y12.0875 
G01 Z-0.0200 F254.00 
G01 X4.8040 Y12.0893 F300.00 
G01 X4.8099 Y12.1115 
G01 X4.8140 Y12.1212 
G01 X4.8140 Y12.0660 
G01 X4.7992 Y12.0660 
G01 X4.8035 Y12.0875 
G00 Z2.5400 
G00 X5.1950 Y10.5770 
G01 Z-0.0200 F254.00 
G01 X5.0167 Y10.5770 F300.00 
G01 X4.9907 Y10.5840 
G01 X4.9524 Y10.5943 
G01 X4.8947 Y10.6276 
G01 X4.8840 Y10.6382 
G01 X4.8535 Y10.6687 
G01 X4.8350 Y10.6963 
G01 X4.8226 Y10.7179 
G01 X4.8099 Y10.7485 
G01 X4.8040 Y10.7707 
G01 X4.7992 Y10.7940 
G01 X5.1950 Y10.7940 
G01 X5.1950 Y10.5770 
G00 Z2.5400 
G00 X6.0960 Y10.7707 
G01 Z-0.0200 F254.00 
G01 X6.0857 Y10.7324 F300.00 
G01 X6.0524 Y10.6747 
G01 X6.0053 Y10.6276 
G01 X5.9476 Y10.5943 
G01 X5.9093 Y10.5840 
G01 X5.8833 Y10.5770 
G01 X5.7050 Y10.5770 
G01 X5.7050 Y10.8290 
G01 X5.8504 Y10.8290 
G01 X5.8510 Y10.9330 
G01 X5.8554 Y10.9360 
G01 X5.9440 Y11.0245 
G01 X6.0136 Y11.1288 
G01 X6.0328 Y11.1750 
G01 X6.1030 Y11.1750 
G01 X6.1030 Y10.7967 
G01 X6.0960 Y10.7707 
G00 Z2.5400 
G00 X9.0550 Y15.7570 
G01 Z-0.0200 F254.00 
G01 X8.7267 Y15.7570 F300.00 
G01 X8.6911 Y15.7666 
G01 X8.6785 Y15.7699 
G01 X8.6676 Y15.7744 
G01 X8.6479 Y15.7826 
G01 X8.6264 Y15.7950 
G01 X8.6073 Y15.8078 
G01 X8.5987 Y15.8135 
G01 X8.5635 Y15.8487 
G01 X8.5466 Y15.8740 
G01 X9.0550 Y15.8740 
G01 X9.0550 Y15.7570 
G00 Z2.5400 
G00 X4.8163 Y8.1750 
G01 Z-0.0200 F254.00 
G01 X4.7887 Y8.1935 F300.00 
G01 X4.7535 Y8.2287 
G01 X4.7366 Y8.2540 
G01 X4.8640 Y8.2540 
G01 X4.8640 Y8.1518 
G01 X4.8379 Y8.1626 
G01 X4.8163 Y8.1750 
G00 Z2.5400 
G00 X4.8164 Y9.6050 
G01 Z-0.0200 F254.00 
G01 X4.8524 Y9.6257 F300.00 
G01 X4.8832 Y9.6340 
G01 X4.9167 Y9.6430 
G01 X5.2450 Y9.6430 
G01 X5.2450 Y9.5260 
G01 X4.7366 Y9.5260 
G01 X4.7535 Y9.5513 
G01 X4.7887 Y9.5865 
G01 X4.8164 Y9.6050 
G00 Z2.5400 
G00 X8.5635 Y17.1713 
G01 Z-0.0200 F254.00 
G01 X8.5987 Y17.2065 F300.00 
G01 X8.6264 Y17.2250 
G01 X8.6623 Y17.2457 
G01 X8.6911 Y17.2534 
G01 X8.7267 Y17.2630 
G01 X9.0550 Y17.2630 
G01 X9.0550 Y17.1460 
G01 X8.5466 Y17.1460 
G01 X8.5635 Y17.1713 
G00 Z2.5400 
G00 X12.8633 Y43.9330 
G01 Z-0.0200 F254.00 
G01 X12.8978 Y43.9237 F300.00 
G01 X12.9276 Y43.9157 
G01 X12.9853 Y43.8824 
G01 X13.0324 Y43.8353 
G01 X13.0657 Y43.7776 
G01 X13.0737 Y43.7478 
G01 X13.0830 Y43.7133 
G01 X13.0830 Y43.4350 
G01 X12.8628 Y43.4350 
G01 X12.8436 Y43.4812 
G01 X12.8310 Y43.5001 
G01 X12.8310 Y43.6804 
G01 X12.6749 Y43.6810 
G01 X12.5813 Y43.7436 
G01 X12.5350 Y43.7628 
G01 X12.5350 Y43.9330 
G01 X12.8633 Y43.9330 
G00 Z2.5400 
G00 X15.0124 Y31.0143 
G01 Z-0.0200 F254.00 
G01 X14.9547 Y31.0476 F300.00 
G01 X14.9076 Y31.0947 
G01 X14.8779 Y31.1461 
G01 X14.8724 Y31.1593 
G01 X14.8636 Y31.1921 
G01 X14.8570 Y31.2167 
G01 X14.8570 Y31.6290 
G01 X15.0240 Y31.6290 
G01 X15.0240 Y31.0111 
G01 X15.0124 Y31.0143 
G00 Z2.5400 
G00 X22.7914 Y35.3500 
G01 Z-0.0200 F254.00 
G01 X22.7455 Y35.2393 F300.00 
G01 X22.6474 Y35.1412 
G01 X22.5807 Y35.0745 
G01 X22.5757 Y35.0695 
G01 X22.5368 Y34.9757 
G01 X22.5368 Y34.8743 
G01 X22.5757 Y34.7805 
G01 X22.6474 Y34.7088 
G01 X22.7455 Y34.6107 
G01 X22.7914 Y34.4999 
G01 X22.7914 Y34.0800 
G01 X22.7455 Y33.9693 
G01 X22.6474 Y33.8712 
G01 X22.5807 Y33.8045 
G01 X22.5757 Y33.7995 
G01 X22.5368 Y33.7057 
G01 X22.5368 Y33.6043 
G01 X22.5757 Y33.5105 
G01 X22.6474 Y33.4388 
G01 X22.7455 Y33.3407 
G01 X22.7914 Y33.2299 
G01 X22.7914 Y32.8100 
G01 X22.7455 Y32.6993 
G01 X22.6474 Y32.6012 
G01 X22.5807 Y32.5345 
G01 X22.5757 Y32.5295 
G01 X22.5368 Y32.4357 
G01 X22.5368 Y32.3343 
G01 X22.5757 Y32.2405 
G01 X22.6474 Y32.1688 
G01 X22.7455 Y32.0707 
G01 X22.7914 Y31.9599 
G01 X22.7914 Y31.5400 
G01 X22.7455 Y31.4293 
G01 X22.6474 Y31.3312 
G01 X22.5807 Y31.2645 
G01 X22.5757 Y31.2595 
G01 X22.5368 Y31.1657 
G01 X22.5368 Y31.0643 
G01 X22.5757 Y30.9705 
G01 X22.6474 Y30.8988 
G01 X22.7455 Y30.8007 
G01 X22.7914 Y30.6899 
G01 X22.7914 Y30.2700 
G01 X22.7455 Y30.1593 
G01 X22.6474 Y30.0612 
G01 X22.5807 Y29.9945 
G01 X22.5757 Y29.9895 
G01 X22.5368 Y29.8957 
G01 X22.5368 Y29.7943 
G01 X22.5757 Y29.7005 
G01 X22.6474 Y29.6288 
G01 X22.7455 Y29.5307 
G01 X22.7914 Y29.4199 
G01 X22.7914 Y29.0000 
G01 X22.7455 Y28.8893 
G01 X22.6474 Y28.7912 
G01 X22.5807 Y28.7245 
G01 X22.5757 Y28.7195 
G01 X22.5368 Y28.6257 
G01 X22.5368 Y28.5243 
G01 X22.5757 Y28.4305 
G01 X22.6474 Y28.3588 
G01 X22.7455 Y28.2607 
G01 X22.7914 Y28.1499 
G01 X22.7914 Y27.7300 
G01 X22.7455 Y27.6193 
G01 X22.6607 Y27.5345 
G01 X22.5499 Y27.4886 
G01 X20.7600 Y27.4886 
G01 X20.6493 Y27.5345 
G01 X20.5645 Y27.6193 
G01 X20.5186 Y27.7300 
G01 X20.5186 Y28.1499 
G01 X20.5645 Y28.2607 
G01 X20.7343 Y28.4305 
G01 X20.7724 Y28.5224 
G01 X20.7732 Y28.6257 
G01 X20.7354 Y28.7168 
G01 X20.7343 Y28.7195 
G01 X20.6626 Y28.7912 
G01 X20.5645 Y28.8893 
G01 X20.5186 Y29.0000 
G01 X20.5186 Y29.4199 
G01 X20.5645 Y29.5307 
G01 X20.7343 Y29.7005 
G01 X20.7724 Y29.7924 
G01 X20.7732 Y29.8957 
G01 X20.7354 Y29.9868 
G01 X20.7343 Y29.9895 
G01 X20.6626 Y30.0612 
G01 X20.5645 Y30.1593 
G01 X20.5186 Y30.2700 
G01 X20.5186 Y30.7548 
G01 X20.6372 Y30.8734 
G01 X20.7043 Y30.9405 
G01 X20.7089 Y30.9451 
G01 X20.7478 Y31.0389 
G01 X20.7478 Y31.1403 
G01 X20.7089 Y31.2341 
G01 X20.6372 Y31.3058 
G01 X20.5435 Y31.3446 
G01 X18.2657 Y31.3446 
G01 X18.1719 Y31.3058 
G01 X18.1002 Y31.2341 
G01 X18.0946 Y31.2205 
G01 X17.9957 Y31.1217 
G01 X17.9401 Y31.0986 
G01 X16.7473 Y31.0986 
G01 X16.7283 Y31.1176 
G01 X16.6883 Y31.1354 
G01 X16.6326 Y31.1584 
G01 X16.5311 Y31.1584 
G01 X16.4929 Y31.1426 
G01 X16.4374 Y31.1196 
G01 X16.3680 Y31.0503 
G01 X16.3646 Y31.0472 
G01 X16.3222 Y31.0226 
G01 X16.2960 Y31.0118 
G01 X16.2960 Y31.8126 
G01 X16.2716 Y31.9355 
G01 X16.2236 Y32.0512 
G01 X16.2110 Y32.0701 
G01 X16.2110 Y32.2504 
G01 X16.0549 Y32.2510 
G01 X15.9613 Y32.3136 
G01 X15.9150 Y32.3328 
G01 X15.9150 Y32.5030 
G01 X16.2433 Y32.5030 
G01 X16.2652 Y32.4971 
G01 X16.3076 Y32.4857 
G01 X16.3646 Y32.4528 
G01 X16.3675 Y32.4499 
G01 X16.4374 Y32.3804 
G01 X16.4917 Y32.3579 
G01 X16.5311 Y32.3416 
G01 X16.6326 Y32.3416 
G01 X16.6867 Y32.3640 
G01 X16.7263 Y32.3804 
G01 X16.7473 Y32.4014 
G01 X16.8003 Y32.4014 
G01 X16.8941 Y32.4402 
G01 X16.9658 Y32.5119 
G01 X17.0046 Y32.6057 
G01 X17.0046 Y33.4264 
G01 X16.9658 Y33.5201 
G01 X16.8941 Y33.5919 
G01 X16.8586 Y33.6273 
G01 X16.8586 Y34.9527 
G01 X16.9242 Y35.0183 
G01 X16.9799 Y35.0414 
G01 X17.8401 Y35.0414 
G01 X17.8957 Y35.0183 
G01 X17.9383 Y34.9757 
G01 X17.9614 Y34.9201 
G01 X17.9614 Y33.6599 
G01 X17.9383 Y33.6042 
G01 X17.8542 Y33.5201 
G01 X17.8154 Y33.4264 
G01 X17.8154 Y32.6057 
G01 X17.8542 Y32.5119 
G01 X17.9259 Y32.4402 
G01 X17.9395 Y32.4346 
G01 X17.9574 Y32.4167 
G01 X18.0460 Y32.3281 
G01 X18.0767 Y32.2974 
G01 X18.0946 Y32.2795 
G01 X18.1002 Y32.2659 
G01 X18.1719 Y32.1942 
G01 X18.2657 Y32.1554 
G01 X20.5435 Y32.1554 
G01 X20.6345 Y32.1931 
G01 X20.6372 Y32.1942 
G01 X20.7089 Y32.2659 
G01 X20.7470 Y32.3578 
G01 X20.7478 Y32.4611 
G01 X20.7100 Y32.5522 
G01 X20.7089 Y32.5549 
G01 X20.6372 Y32.6266 
G01 X20.5186 Y32.7452 
G01 X20.5186 Y33.2299 
G01 X20.5645 Y33.3407 
G01 X20.7343 Y33.5105 
G01 X20.7724 Y33.6024 
G01 X20.7732 Y33.7057 
G01 X20.7354 Y33.7968 
G01 X20.7343 Y33.7995 
G01 X20.6626 Y33.8712 
G01 X20.5645 Y33.9693 
G01 X20.5186 Y34.0800 
G01 X20.5186 Y34.4999 
G01 X20.5645 Y34.6107 
G01 X20.7343 Y34.7805 
G01 X20.7724 Y34.8724 
G01 X20.7732 Y34.9757 
G01 X20.7354 Y35.0668 
G01 X20.7343 Y35.0695 
G01 X20.6626 Y35.1412 
G01 X20.5645 Y35.2393 
G01 X20.5186 Y35.3500 
G01 X20.5186 Y35.7699 
G01 X20.5645 Y35.8807 
G01 X20.6493 Y35.9655 
G01 X20.7600 Y36.0114 
G01 X22.5499 Y36.0114 
G01 X22.6607 Y35.9655 
G01 X22.7455 Y35.8807 
G01 X22.7914 Y35.7699 
G01 X22.7914 Y35.3500 
G00 Z2.5400 
G00 X20.6690 Y35.7400 
G01 Z-0.0200 F254.00 
G01 X20.6690 Y35.3800 F300.00 
G01 X20.6920 Y35.3245 
G01 X20.7345 Y35.2820 
G01 X20.7900 Y35.2590 
G01 X22.5200 Y35.2590 
G01 X22.5755 Y35.2820 
G01 X22.6180 Y35.3245 
G01 X22.6410 Y35.3800 
G01 X22.6410 Y35.7400 
G01 X22.6180 Y35.7955 
G01 X22.5755 Y35.8380 
G01 X22.5200 Y35.8610 
G01 X20.7900 Y35.8610 
G01 X20.7345 Y35.8380 
G01 X20.6920 Y35.7955 
G01 X20.6690 Y35.7400 
G00 Z2.5400 
G00 X20.6690 Y34.4700 
G01 Z-0.0200 F254.00 
G01 X20.6690 Y34.1100 F300.00 
G01 X20.6920 Y34.0545 
G01 X20.7345 Y34.0120 
G01 X20.7900 Y33.9890 
G01 X22.5200 Y33.9890 
G01 X22.5755 Y34.0120 
G01 X22.6180 Y34.0545 
G01 X22.6410 Y34.1100 
G01 X22.6410 Y34.4700 
G01 X22.6180 Y34.5255 
G01 X22.5755 Y34.5680 
G01 X22.5200 Y34.5910 
G01 X20.7900 Y34.5910 
G01 X20.7345 Y34.5680 
G01 X20.6920 Y34.5255 
G01 X20.6690 Y34.4700 
G00 Z2.5400 
G00 X20.6690 Y33.2000 
G01 Z-0.0200 F254.00 
G01 X20.6690 Y32.8400 F300.00 
G01 X20.6920 Y32.7845 
G01 X20.7345 Y32.7420 
G01 X20.7900 Y32.7190 
G01 X22.5200 Y32.7190 
G01 X22.5755 Y32.7420 
G01 X22.6180 Y32.7845 
G01 X22.6410 Y32.8400 
G01 X22.6410 Y33.2000 
G01 X22.6180 Y33.2555 
G01 X22.5755 Y33.2980 
G01 X22.5200 Y33.3210 
G01 X20.7900 Y33.3210 
G01 X20.7345 Y33.2980 
G01 X20.6920 Y33.2555 
G01 X20.6690 Y33.2000 
G00 Z2.5400 
G00 X20.7345 Y31.4720 
G01 Z-0.0200 F254.00 
G01 X20.7900 Y31.4490 F300.00 
G01 X22.5200 Y31.4490 
G01 X22.5755 Y31.4720 
G01 X22.6180 Y31.5145 
G01 X22.6410 Y31.5700 
G01 X22.6410 Y31.9300 
G01 X22.6180 Y31.9855 
G01 X22.5755 Y32.0280 
G01 X22.5200 Y32.0510 
G01 X20.7900 Y32.0510 
G01 X20.7345 Y32.0280 
G01 X20.7114 Y32.0050 
G01 X17.9110 Y32.0050 
G01 X17.9110 Y32.2504 
G01 X17.6650 Y32.2510 
G01 X17.6650 Y33.6890 
G01 X17.8104 Y33.6890 
G01 X17.8110 Y34.8904 
G01 X17.0096 Y34.8910 
G01 X17.0090 Y33.6896 
G01 X17.1550 Y33.6890 
G01 X17.1550 Y32.2510 
G01 X16.8096 Y32.2510 
G01 X16.8090 Y31.2496 
G01 X17.9104 Y31.2490 
G01 X17.9110 Y31.4950 
G01 X20.7114 Y31.4950 
G01 X20.7345 Y31.4720 
G00 Z2.5400 
G00 X20.6690 Y30.6600 
G01 Z-0.0200 F254.00 
G01 X20.6690 Y30.3000 F300.00 
G01 X20.6920 Y30.2445 
G01 X20.7345 Y30.2020 
G01 X20.7900 Y30.1790 
G01 X22.5200 Y30.1790 
G01 X22.5755 Y30.2020 
G01 X22.6180 Y30.2445 
G01 X22.6410 Y30.3000 
G01 X22.6410 Y30.6600 
G01 X22.6180 Y30.7155 
G01 X22.5755 Y30.7580 
G01 X22.5200 Y30.7810 
G01 X20.7900 Y30.7810 
G01 X20.7345 Y30.7580 
G01 X20.6920 Y30.7155 
G01 X20.6690 Y30.6600 
G00 Z2.5400 
G00 X20.6690 Y29.3900 
G01 Z-0.0200 F254.00 
G01 X20.6690 Y29.0300 F300.00 
G01 X20.6920 Y28.9745 
G01 X20.7345 Y28.9320 
G01 X20.7900 Y28.9090 
G01 X22.5200 Y28.9090 
G01 X22.5755 Y28.9320 
G01 X22.6180 Y28.9745 
G01 X22.6410 Y29.0300 
G01 X22.6410 Y29.3900 
G01 X22.6180 Y29.4455 
G01 X22.5755 Y29.4880 
G01 X22.5200 Y29.5110 
G01 X20.7900 Y29.5110 
G01 X20.7345 Y29.4880 
G01 X20.6920 Y29.4455 
G01 X20.6690 Y29.3900 
G00 Z2.5400 
G00 X20.6690 Y28.1200 
G01 Z-0.0200 F254.00 
G01 X20.6690 Y27.7600 F300.00 
G01 X20.6920 Y27.7045 
G01 X20.7345 Y27.6620 
G01 X20.7900 Y27.6390 
G01 X22.5200 Y27.6390 
G01 X22.5755 Y27.6620 
G01 X22.6180 Y27.7045 
G01 X22.6410 Y27.7600 
G01 X22.6410 Y28.1200 
G01 X22.6180 Y28.1755 
G01 X22.5755 Y28.2180 
G01 X22.5200 Y28.2410 
G01 X20.7900 Y28.2410 
G01 X20.7345 Y28.2180 
G01 X20.6920 Y28.1755 
G01 X20.6690 Y28.1200 
G00 Z2.5400 
G00 X14.8570 Y32.2833 
G01 Z-0.0200 F254.00 
G01 X14.8636 Y32.3079 F300.00 
G01 X14.8636 Y32.3079 
G01 X14.8724 Y32.3407 
G01 X14.8779 Y32.3539 
G01 X14.8972 Y32.3874 
G01 X14.9076 Y32.4053 
G01 X14.9547 Y32.4524 
G01 X15.0124 Y32.4857 
G01 X15.0548 Y32.4971 
G01 X15.0767 Y32.5030 
G01 X15.4050 Y32.5030 
G01 X15.4050 Y32.3328 
G01 X15.3587 Y32.3136 
G01 X15.2651 Y32.2510 
G01 X15.1096 Y32.2510 
G01 X15.1090 Y32.0701 
G01 X15.0963 Y32.0512 
G01 X15.0484 Y31.9355 
G01 X15.0356 Y31.8710 
G01 X14.8570 Y31.8710 
G01 X14.8570 Y32.2833 
G00 Z2.5400 
G00 X13.0830 Y42.6467 
G01 Z-0.0200 F254.00 
G01 X13.0737 Y42.6122 F300.00 
G01 X13.0657 Y42.5824 
G01 X13.0422 Y42.5416 
G01 X13.0265 Y42.5187 
G01 X12.9913 Y42.4835 
G01 X12.9797 Y42.4758 
G01 X12.9636 Y42.4650 
G01 X12.9421 Y42.4526 
G01 X12.9160 Y42.4418 
G01 X12.9160 Y42.9250 
G01 X13.0830 Y42.9250 
G01 X13.0830 Y42.6467 
G00 Z2.5400 
G00 X14.9141 Y16.1510 
G01 Z-0.0200 F254.00 
G01 X13.7059 Y16.1510 F300.00 
G01 X13.6798 Y16.1402 
G01 X13.6598 Y16.1202 
G01 X13.6490 Y16.0941 
G01 X13.6490 Y15.9259 
G01 X13.6598 Y15.8998 
G01 X13.6798 Y15.8798 
G01 X13.7059 Y15.8690 
G01 X14.9141 Y15.8690 
G01 X14.9244 Y15.8732 
G01 X14.9275 Y15.8655 
G01 X14.9534 Y15.8397 
G01 X14.9763 Y15.8111 
G01 X14.9890 Y15.8041 
G01 X14.9993 Y15.7938 
G01 X15.0332 Y15.7798 
G01 X15.0614 Y15.7642 
G01 X15.0664 Y15.7494 
G01 X15.0776 Y15.7297 
G01 X15.0863 Y15.7087 
G01 X15.0989 Y15.6898 
G01 X15.1091 Y15.6695 
G01 X15.1198 Y15.6557 
G01 X15.1214 Y15.6529 
G01 X15.1214 Y15.6259 
G01 X15.1169 Y15.5921 
G01 X15.1214 Y15.5756 
G01 X15.1214 Y15.3960 
G01 X15.0877 Y15.3146 
G01 X15.0254 Y15.2523 
G01 X14.9440 Y15.2186 
G01 X14.5031 Y15.2186 
G01 X14.4094 Y15.1798 
G01 X14.3377 Y15.1081 
G01 X14.3126 Y15.0830 
G01 X14.2738 Y14.9893 
G01 X14.2738 Y12.2126 
G01 X14.3126 Y12.1188 
G01 X14.3843 Y12.0471 
G01 X14.4781 Y12.0083 
G01 X14.6986 Y12.0083 
G01 X14.7243 Y11.9976 
G01 X14.7542 Y11.9852 
G01 X14.7968 Y11.9426 
G01 X14.8199 Y11.8870 
G01 X14.8199 Y10.6330 
G01 X14.7968 Y10.5773 
G01 X14.7312 Y10.5117 
G01 X13.2088 Y10.5117 
G01 X13.1201 Y10.6004 
G01 X13.1201 Y11.9196 
G01 X13.2088 Y12.0083 
G01 X13.4619 Y12.0083 
G01 X13.5557 Y12.0471 
G01 X13.6274 Y12.1188 
G01 X13.6662 Y12.2126 
G01 X13.6662 Y15.1258 
G01 X13.6285 Y15.2169 
G01 X13.6274 Y15.2195 
G01 X13.5557 Y15.2913 
G01 X13.4962 Y15.3507 
G01 X13.4962 Y15.3917 
G01 X13.4574 Y15.4854 
G01 X13.3857 Y15.5572 
G01 X13.2919 Y15.5960 
G01 X13.1905 Y15.5960 
G01 X13.0967 Y15.5572 
G01 X13.0250 Y15.4854 
G01 X12.4758 Y14.9362 
G01 X11.9743 Y14.9362 
G01 X11.9241 Y14.9362 
G01 X11.8728 Y14.9362 
G01 X11.8206 Y14.9146 
G01 X11.7791 Y14.8974 
G01 X11.7438 Y14.8621 
G01 X11.7073 Y14.8257 
G01 X11.6784 Y14.7558 
G01 X11.6685 Y14.7319 
G01 X11.6685 Y14.6817 
G01 X11.6685 Y14.6305 
G01 X11.6902 Y14.5782 
G01 X11.7073 Y14.5367 
G01 X11.7114 Y14.5327 
G01 X11.7114 Y13.4073 
G01 X11.6227 Y13.3186 
G01 X10.3973 Y13.3186 
G01 X10.3045 Y13.4115 
G01 X10.2506 Y13.4337 
G01 X10.2107 Y13.4503 
G01 X10.1093 Y13.4503 
G01 X10.0182 Y13.4126 
G01 X10.0155 Y13.4115 
G01 X9.9438 Y13.3397 
G01 X9.9227 Y13.3186 
G01 X9.6521 Y13.3186 
G01 X9.5583 Y13.2798 
G01 X9.4866 Y13.2081 
G01 X9.4478 Y13.1143 
G01 X9.4478 Y12.5890 
G01 X9.3254 Y12.2935 
G01 X9.3254 Y12.1921 
G01 X9.3642 Y12.0983 
G01 X9.4359 Y12.0266 
G01 X9.5297 Y11.9878 
G01 X10.4920 Y11.9878 
G01 X10.5421 Y11.9878 
G01 X10.5934 Y11.9878 
G01 X10.6429 Y12.0083 
G01 X12.1912 Y12.0083 
G01 X12.2799 Y11.9196 
G01 X12.2799 Y10.6004 
G01 X12.1906 Y10.5111 
G01 X12.0983 Y10.4729 
G01 X12.0266 Y10.4012 
G01 X11.9878 Y10.3074 
G01 X11.9878 Y10.0126 
G01 X12.0266 Y9.9188 
G01 X12.0983 Y9.8471 
G01 X12.1906 Y9.8089 
G01 X12.2799 Y9.7196 
G01 X12.2799 Y8.4004 
G01 X12.2142 Y8.3348 
G01 X12.1586 Y8.3117 
G01 X10.7014 Y8.3117 
G01 X10.6457 Y8.3348 
G01 X10.6032 Y8.3773 
G01 X10.5801 Y8.4330 
G01 X10.5801 Y9.6870 
G01 X10.6032 Y9.7426 
G01 X10.6694 Y9.8089 
G01 X10.7617 Y9.8471 
G01 X10.8334 Y9.9188 
G01 X10.8722 Y10.0126 
G01 X10.8722 Y10.3074 
G01 X10.8334 Y10.4012 
G01 X10.7617 Y10.4729 
G01 X10.6694 Y10.5111 
G01 X10.6151 Y10.5654 
G01 X10.5801 Y10.6004 
G01 X10.5801 Y10.6679 
G01 X10.5413 Y10.7617 
G01 X10.4696 Y10.8334 
G01 X10.3758 Y10.8722 
G01 X10.0318 Y10.8722 
G01 X9.9934 Y10.8722 
G01 X8.0121 Y10.8722 
G01 X7.9183 Y10.8334 
G01 X7.8466 Y10.7617 
G01 X7.8078 Y10.6679 
G01 X7.8078 Y9.6012 
G01 X7.8466 Y9.5075 
G01 X7.8783 Y9.4757 
G01 X7.8802 Y9.4713 
G01 X7.9014 Y9.4201 
G01 X7.9014 Y8.3599 
G01 X7.8783 Y8.3042 
G01 X7.8357 Y8.2617 
G01 X7.7801 Y8.2386 
G01 X6.5873 Y8.2386 
G01 X6.5683 Y8.2576 
G01 X6.5283 Y8.2754 
G01 X6.4726 Y8.2984 
G01 X6.3711 Y8.2984 
G01 X6.3329 Y8.2826 
G01 X6.2774 Y8.2596 
G01 X6.2080 Y8.1903 
G01 X6.2046 Y8.1872 
G01 X6.1621 Y8.1626 
G01 X6.1360 Y8.1518 
G01 X6.1360 Y8.9526 
G01 X6.1116 Y9.0755 
G01 X6.0636 Y9.1912 
G01 X6.0510 Y9.2101 
G01 X6.0510 Y9.3904 
G01 X5.8950 Y9.3910 
G01 X5.8012 Y9.4536 
G01 X5.7550 Y9.4728 
G01 X5.7550 Y9.6430 
G01 X6.0833 Y9.6430 
G01 X6.1168 Y9.6340 
G01 X6.1476 Y9.6257 
G01 X6.2046 Y9.5928 
G01 X6.2075 Y9.5899 
G01 X6.2774 Y9.5204 
G01 X6.3711 Y9.4816 
G01 X6.4726 Y9.4816 
G01 X6.5663 Y9.5204 
G01 X6.6380 Y9.5921 
G01 X6.6534 Y9.6075 
G01 X6.6922 Y9.7012 
G01 X6.6922 Y11.5409 
G01 X6.6986 Y11.5564 
G01 X6.6986 Y12.0927 
G01 X6.7642 Y12.1583 
G01 X6.8199 Y12.1814 
G01 X7.1577 Y12.1814 
G01 X7.2514 Y12.2202 
G01 X7.3231 Y12.2919 
G01 X7.3545 Y12.3234 
G01 X7.4431 Y12.4120 
G01 X8.0020 Y12.9708 
G01 X8.0471 Y13.0160 
G01 X8.1902 Y13.1590 
G01 X8.2040 Y13.1729 
G01 X8.2217 Y13.1802 
G01 X8.2934 Y13.2519 
G01 X8.3166 Y13.3079 
G01 X8.3322 Y13.3456 
G01 X8.3322 Y13.6609 
G01 X8.4171 Y13.8660 
G01 X8.4666 Y13.9154 
G01 X8.5698 Y14.0186 
G01 X8.6086 Y14.1123 
G01 X8.6086 Y14.5001 
G01 X8.6317 Y14.5557 
G01 X8.6742 Y14.5983 
G01 X8.7299 Y14.6214 
G01 X8.9132 Y14.6214 
G01 X9.0069 Y14.6602 
G01 X9.0786 Y14.7319 
G01 X9.6325 Y15.2858 
G01 X9.6989 Y15.3522 
G01 X9.7043 Y15.3575 
G01 X9.7431 Y15.4513 
G01 X9.7431 Y15.5527 
G01 X9.7420 Y15.5554 
G01 X9.7043 Y15.6465 
G01 X9.6582 Y15.6925 
G01 X9.6582 Y15.7081 
G01 X9.6489 Y15.7306 
G01 X9.6318 Y15.7477 
G01 X9.6093 Y15.7570 
G01 X9.5650 Y15.7570 
G01 X9.5650 Y15.9272 
G01 X9.6112 Y15.9463 
G01 X9.7050 Y16.0090 
G01 X9.8604 Y16.0090 
G01 X9.8610 Y16.1899 
G01 X9.8736 Y16.2087 
G01 X9.9215 Y16.3245 
G01 X9.9460 Y16.4473 
G01 X9.9460 Y16.5727 
G01 X9.9215 Y16.6955 
G01 X9.8736 Y16.8113 
G01 X9.8610 Y16.8301 
G01 X9.8610 Y17.0104 
G01 X9.7050 Y17.0110 
G01 X9.6112 Y17.0736 
G01 X9.5650 Y17.0928 
G01 X9.5650 Y17.2630 
G01 X9.8933 Y17.2630 
G01 X9.9289 Y17.2534 
G01 X9.9577 Y17.2457 
G01 X9.9890 Y17.2276 
G01 X10.0011 Y17.2155 
G01 X10.0326 Y17.2025 
G01 X10.0620 Y17.1855 
G01 X10.0790 Y17.1832 
G01 X10.0949 Y17.1767 
G01 X10.1289 Y17.1767 
G01 X10.1626 Y17.1722 
G01 X10.1792 Y17.1767 
G01 X10.1963 Y17.1767 
G01 X10.2277 Y17.1897 
G01 X10.2606 Y17.1985 
G01 X10.2742 Y17.2089 
G01 X10.2901 Y17.2155 
G01 X10.3141 Y17.2396 
G01 X10.3411 Y17.2603 
G01 X10.3497 Y17.2751 
G01 X10.3618 Y17.2872 
G01 X10.3748 Y17.3187 
G01 X10.3918 Y17.3481 
G01 X10.3941 Y17.3651 
G01 X10.4006 Y17.3810 
G01 X10.4006 Y17.4150 
G01 X10.4051 Y17.4487 
G01 X10.4006 Y17.4653 
G01 X10.4006 Y18.2660 
G01 X10.4051 Y18.2825 
G01 X10.4006 Y18.3163 
G01 X10.4006 Y18.3503 
G01 X10.3941 Y18.3661 
G01 X10.3918 Y18.3831 
G01 X10.3748 Y18.4126 
G01 X10.3618 Y18.4440 
G01 X10.3497 Y18.4561 
G01 X10.3411 Y18.4710 
G01 X10.3141 Y18.4917 
G01 X10.2901 Y18.5157 
G01 X10.2742 Y18.5223 
G01 X10.2606 Y18.5327 
G01 X10.2277 Y18.5415 
G01 X10.1963 Y18.5546 
G01 X10.1792 Y18.5546 
G01 X10.1626 Y18.5590 
G01 X10.1466 Y18.5569 
G01 X10.1466 Y19.0309 
G01 X10.2187 Y19.0309 
G01 X10.3098 Y19.0687 
G01 X10.3125 Y19.0698 
G01 X10.3842 Y19.1415 
G01 X10.4168 Y19.2203 
G01 X10.4230 Y19.2352 
G01 X10.4857 Y19.3866 
G01 X10.5086 Y19.4419 
G01 X10.5086 Y19.7127 
G01 X10.5742 Y19.7783 
G01 X10.6299 Y19.8014 
G01 X10.8240 Y19.8014 
G01 X10.9177 Y19.8402 
G01 X10.9894 Y19.9119 
G01 X11.0209 Y19.9434 
G01 X11.1095 Y20.0320 
G01 X11.8986 Y20.8211 
G01 X12.0018 Y20.9243 
G01 X12.0406 Y21.0180 
G01 X12.0406 Y21.7212 
G01 X12.0634 Y21.7761 
G01 X12.1410 Y21.9635 
G01 X12.3265 Y22.1490 
G01 X12.3970 Y22.1782 
G01 X12.4780 Y22.2118 
G01 X12.5504 Y22.2417 
G01 X12.5718 Y22.2506 
G01 X12.6328 Y22.3116 
G01 X12.7055 Y22.3843 
G01 X12.7757 Y22.4546 
G01 X13.0298 Y22.7086 
G01 X13.0686 Y22.8023 
G01 X13.0686 Y22.9177 
G01 X13.0298 Y23.0114 
G01 X12.9581 Y23.0831 
G01 X12.3840 Y23.6571 
G01 X12.2271 Y23.8140 
G01 X12.1422 Y24.0190 
G01 X12.1422 Y34.0040 
G01 X12.1034 Y34.0978 
G01 X12.0317 Y34.1695 
G01 X11.2262 Y34.9749 
G01 X10.7245 Y35.4767 
G01 X10.6466 Y35.5546 
G01 X10.6359 Y35.5653 
G01 X8.6978 Y37.5034 
G01 X8.6041 Y37.5422 
G01 X7.0601 Y37.5422 
G01 X6.9664 Y37.5034 
G01 X6.8946 Y37.4317 
G01 X6.6379 Y37.1749 
G01 X6.4208 Y37.0850 
G01 X6.3271 Y37.0462 
G01 X6.2564 Y36.9756 
G01 X6.2331 Y36.9206 
G01 X6.2165 Y36.8807 
G01 X6.2165 Y36.7793 
G01 X6.2553 Y36.6855 
G01 X6.3260 Y36.6149 
G01 X6.6379 Y36.4851 
G01 X6.9449 Y36.1781 
G01 X7.1110 Y35.7771 
G01 X7.1110 Y35.3430 
G01 X7.0325 Y35.1535 
G01 X7.0325 Y35.0521 
G01 X7.0481 Y35.0144 
G01 X7.0713 Y34.9583 
G01 X7.1431 Y34.8866 
G01 X7.2368 Y34.8478 
G01 X8.1181 Y34.8478 
G01 X8.2119 Y34.8866 
G01 X8.2836 Y34.9583 
G01 X8.3794 Y35.0542 
G01 X8.7107 Y35.1914 
G01 X9.0693 Y35.1914 
G01 X9.4006 Y35.0542 
G01 X9.6541 Y34.8006 
G01 X9.6668 Y34.7700 
G01 X9.7914 Y34.4693 
G01 X9.7914 Y34.1107 
G01 X9.6542 Y33.7794 
G01 X9.4006 Y33.5258 
G01 X9.0693 Y33.3886 
G01 X8.7107 Y33.3886 
G01 X8.3794 Y33.5258 
G01 X8.3150 Y33.5902 
G01 X8.2119 Y33.6934 
G01 X8.1181 Y33.7322 
G01 X6.2390 Y33.7322 
G01 X6.0340 Y33.8171 
G01 X5.5243 Y34.3268 
G01 X5.4212 Y34.4300 
G01 X5.3275 Y34.4688 
G01 X3.9232 Y34.4688 
G01 X3.5221 Y34.6349 
G01 X3.2151 Y34.9419 
G01 X3.0490 Y35.3429 
G01 X3.0490 Y35.7770 
G01 X3.2122 Y36.1710 
G01 X3.2151 Y36.1781 
G01 X3.3730 Y36.3360 
G01 X3.4616 Y36.4246 
G01 X3.5221 Y36.4851 
G01 X3.8329 Y36.6138 
G01 X3.9047 Y36.6855 
G01 X3.9435 Y36.7793 
G01 X3.9435 Y36.8807 
G01 X3.9279 Y36.9184 
G01 X3.9047 Y36.9745 
G01 X3.8329 Y37.0462 
G01 X3.7392 Y37.0850 
G01 X3.5221 Y37.1749 
G01 X3.2151 Y37.4819 
G01 X3.0490 Y37.8829 
G01 X3.0490 Y38.3170 
G01 X3.2151 Y38.7181 
G01 X3.3012 Y38.8041 
G01 X3.3849 Y38.8879 
G01 X3.3898 Y38.8927 
G01 X3.5221 Y39.0251 
G01 X3.6418 Y39.0746 
G01 X3.6805 Y39.0872 
G01 X3.6883 Y39.0939 
G01 X3.6979 Y39.0979 
G01 X3.7267 Y39.1267 
G01 X3.7576 Y39.1531 
G01 X3.7623 Y39.1623 
G01 X3.7696 Y39.1696 
G01 X3.7852 Y39.2072 
G01 X3.8037 Y39.2435 
G01 X3.8045 Y39.2538 
G01 X3.8085 Y39.2633 
G01 X3.8085 Y39.3041 
G01 X3.8116 Y39.3446 
G01 X3.8085 Y39.3545 
G01 X3.8085 Y39.3648 
G01 X3.7929 Y39.4024 
G01 X3.7866 Y39.4216 
G01 X3.7911 Y39.4326 
G01 X3.7948 Y39.4416 
G01 X3.7956 Y39.4464 
G01 X3.7948 Y39.4561 
G01 X3.7948 Y39.4659 
G01 X3.7937 Y39.4706 
G01 X3.7893 Y39.4793 
G01 X3.7855 Y39.4883 
G01 X3.7827 Y39.4922 
G01 X3.7753 Y39.4986 
G01 X3.7684 Y39.5054 
G01 X3.7642 Y39.5080 
G01 X3.7549 Y39.5110 
G01 X3.7459 Y39.5147 
G01 X3.6989 Y39.5292 
G01 X3.6603 Y39.5458 
G01 X3.5150 Y39.6198 
G01 X3.3632 Y39.7302 
G01 X3.3012 Y39.7922 
G01 X3.2415 Y39.8519 
G01 X3.2395 Y39.8545 
G01 X3.2162 Y39.8893 
G01 X3.2014 Y39.9041 
G01 X3.1844 Y39.9262 
G01 X3.1385 Y39.9895 
G01 X3.1301 Y40.0040 
G01 X3.4457 Y40.0040 
G01 X3.5405 Y39.9092 
G01 X3.6946 Y39.8063 
G01 X3.8658 Y39.7353 
G01 X4.0475 Y39.6992 
G01 X6.1125 Y39.6992 
G01 X6.2942 Y39.7353 
G01 X6.4654 Y39.8063 
G01 X6.6195 Y39.9092 
G01 X6.7143 Y40.0040 
G01 X7.0299 Y40.0040 
G01 X7.0215 Y39.9895 
G01 X7.0014 Y39.9618 
G01 X6.9928 Y39.9532 
G01 X6.9696 Y39.9185 
G01 X6.9442 Y39.8853 
G01 X6.9185 Y39.8519 
G01 X6.9097 Y39.8431 
G01 X6.8675 Y39.8009 
G01 X6.8588 Y39.7921 
G01 X6.8136 Y39.7469 
G01 X6.7968 Y39.7302 
G01 X6.6450 Y39.6198 
G01 X6.4997 Y39.5458 
G01 X6.4621 Y39.5303 
G01 X6.4165 Y39.5147 
G01 X6.4050 Y39.5110 
G01 X6.3958 Y39.5080 
G01 X6.3916 Y39.5054 
G01 X6.3847 Y39.4986 
G01 X6.3773 Y39.4922 
G01 X6.3745 Y39.4883 
G01 X6.3707 Y39.4793 
G01 X6.3663 Y39.4706 
G01 X6.3652 Y39.4659 
G01 X6.3652 Y39.4561 
G01 X6.3644 Y39.4464 
G01 X6.3652 Y39.4416 
G01 X6.3689 Y39.4326 
G01 X6.3719 Y39.4233 
G01 X6.3671 Y39.4024 
G01 X6.3515 Y39.3648 
G01 X6.3515 Y39.3545 
G01 X6.3483 Y39.3446 
G01 X6.3515 Y39.3041 
G01 X6.3515 Y39.2633 
G01 X6.3555 Y39.2538 
G01 X6.3563 Y39.2435 
G01 X6.3748 Y39.2072 
G01 X6.3904 Y39.1696 
G01 X6.3977 Y39.1623 
G01 X6.4024 Y39.1531 
G01 X6.4333 Y39.1267 
G01 X6.4621 Y39.0979 
G01 X6.4717 Y39.0939 
G01 X6.4795 Y39.0872 
G01 X6.5182 Y39.0746 
G01 X6.6379 Y39.0251 
G01 X6.7702 Y38.8927 
G01 X6.8146 Y38.8484 
G01 X6.8588 Y38.8041 
G01 X6.8632 Y38.7998 
G01 X6.9664 Y38.6966 
G01 X7.0601 Y38.6578 
G01 X7.2061 Y38.6578 
G01 X7.2690 Y38.6578 
G01 X9.0009 Y38.6578 
G01 X9.2060 Y38.5729 
G01 X12.5232 Y35.2557 
G01 X13.1651 Y34.6137 
G01 X13.2589 Y34.5748 
G01 X13.3603 Y34.5748 
G01 X13.3790 Y34.5826 
G01 X13.4541 Y34.6137 
G01 X13.5180 Y34.6777 
G01 X13.5258 Y34.6854 
G01 X13.5646 Y34.7791 
G01 X13.5646 Y36.6072 
G01 X13.5258 Y36.7009 
G01 X13.4541 Y36.7726 
G01 X7.7518 Y42.4749 
G01 X7.7103 Y42.5164 
G01 X7.4909 Y42.7358 
G01 X7.3972 Y42.7746 
G01 X7.1526 Y42.7746 
G01 X7.0616 Y42.7369 
G01 X7.0589 Y42.7358 
G01 X6.9872 Y42.6641 
G01 X6.9572 Y42.5918 
G01 X6.9483 Y42.5703 
G01 X6.9449 Y42.5619 
G01 X6.8588 Y42.4759 
G01 X6.7897 Y42.4068 
G01 X6.7703 Y42.3873 
G01 X6.6379 Y42.2549 
G01 X6.5182 Y42.2054 
G01 X6.4795 Y42.1928 
G01 X6.4716 Y42.1861 
G01 X6.4621 Y42.1821 
G01 X6.4333 Y42.1533 
G01 X6.4024 Y42.1269 
G01 X6.3977 Y42.1177 
G01 X6.3904 Y42.1104 
G01 X6.3748 Y42.0728 
G01 X6.3563 Y42.0365 
G01 X6.3555 Y42.0262 
G01 X6.3515 Y42.0167 
G01 X6.3515 Y41.9760 
G01 X6.3483 Y41.9354 
G01 X6.3515 Y41.9255 
G01 X6.3515 Y41.9152 
G01 X6.3671 Y41.8776 
G01 X6.3734 Y41.8584 
G01 X6.3689 Y41.8474 
G01 X6.3652 Y41.8384 
G01 X6.3644 Y41.8336 
G01 X6.3652 Y41.8239 
G01 X6.3652 Y41.8141 
G01 X6.3663 Y41.8094 
G01 X6.3707 Y41.8007 
G01 X6.3745 Y41.7917 
G01 X6.3773 Y41.7878 
G01 X6.3847 Y41.7814 
G01 X6.3916 Y41.7745 
G01 X6.3958 Y41.7720 
G01 X6.4050 Y41.7690 
G01 X6.4141 Y41.7653 
G01 X6.4610 Y41.7508 
G01 X6.4997 Y41.7342 
G01 X6.6450 Y41.6602 
G01 X6.7968 Y41.5498 
G01 X6.8274 Y41.5193 
G01 X6.8588 Y41.4878 
G01 X6.9185 Y41.4281 
G01 X6.9755 Y41.3538 
G01 X7.0083 Y41.3087 
G01 X7.0283 Y41.2788 
G01 X7.0299 Y41.2760 
G01 X6.7143 Y41.2760 
G01 X6.6195 Y41.3708 
G01 X6.4654 Y41.4737 
G01 X6.2942 Y41.5447 
G01 X6.1125 Y41.5808 
G01 X4.0475 Y41.5808 
G01 X3.8658 Y41.5447 
G01 X3.6946 Y41.4737 
G01 X3.5405 Y41.3708 
G01 X3.4457 Y41.2760 
G01 X3.1301 Y41.2760 
G01 X3.1385 Y41.2905 
G01 X3.1844 Y41.3538 
G01 X3.2014 Y41.3759 
G01 X3.2162 Y41.3907 
G01 X3.2395 Y41.4255 
G01 X3.2415 Y41.4281 
G01 X3.2671 Y41.4537 
G01 X3.3179 Y41.5045 
G01 X3.3632 Y41.5498 
G01 X3.5150 Y41.6602 
G01 X3.6603 Y41.7342 
G01 X3.6979 Y41.7497 
G01 X3.7435 Y41.7653 
G01 X3.7549 Y41.7690 
G01 X3.7642 Y41.7720 
G01 X3.7684 Y41.7745 
G01 X3.7753 Y41.7814 
G01 X3.7827 Y41.7878 
G01 X3.7855 Y41.7917 
G01 X3.7893 Y41.8007 
G01 X3.7937 Y41.8094 
G01 X3.7948 Y41.8141 
G01 X3.7948 Y41.8239 
G01 X3.7956 Y41.8336 
G01 X3.7948 Y41.8384 
G01 X3.7911 Y41.8474 
G01 X3.7881 Y41.8567 
G01 X3.7929 Y41.8776 
G01 X3.8085 Y41.9152 
G01 X3.8085 Y41.9255 
G01 X3.8116 Y41.9354 
G01 X3.8085 Y41.9759 
G01 X3.8085 Y42.0167 
G01 X3.8045 Y42.0262 
G01 X3.8037 Y42.0365 
G01 X3.7852 Y42.0728 
G01 X3.7696 Y42.1104 
G01 X3.7623 Y42.1177 
G01 X3.7576 Y42.1269 
G01 X3.7267 Y42.1533 
G01 X3.6979 Y42.1821 
G01 X3.6883 Y42.1861 
G01 X3.6805 Y42.1928 
G01 X3.6418 Y42.2054 
G01 X3.5221 Y42.2549 
G01 X3.3898 Y42.3873 
G01 X3.3012 Y42.4759 
G01 X3.2151 Y42.5619 
G01 X3.0490 Y42.9629 
G01 X3.0490 Y43.3970 
G01 X3.2151 Y43.7981 
G01 X3.3730 Y43.9560 
G01 X3.4616 Y44.0446 
G01 X3.5221 Y44.1051 
G01 X3.8329 Y44.2338 
G01 X3.9047 Y44.3055 
G01 X3.9435 Y44.3993 
G01 X3.9435 Y44.5007 
G01 X3.9279 Y44.5384 
G01 X3.9047 Y44.5945 
G01 X3.8329 Y44.6662 
G01 X3.7392 Y44.7050 
G01 X3.5221 Y44.7949 
G01 X3.2151 Y45.1019 
G01 X3.0490 Y45.5029 
G01 X3.0490 Y45.9370 
G01 X3.2151 Y46.3381 
G01 X3.5221 Y46.6451 
G01 X3.9231 Y46.8112 
G01 X5.1838 Y46.8112 
G01 X5.2775 Y46.8500 
G01 X5.3492 Y46.9217 
G01 X8.5165 Y50.0890 
G01 X8.7588 Y50.1894 
G01 X9.0212 Y50.1894 
G01 X9.2635 Y50.0890 
G01 X9.2751 Y50.0774 
G01 X9.3783 Y49.9742 
G01 X9.4720 Y49.9354 
G01 X22.4243 Y49.9354 
G01 X22.5181 Y49.9742 
G01 X22.5898 Y50.0459 
G01 X22.6286 Y50.1397 
G01 X22.6286 Y50.1427 
G01 X22.6519 Y50.1660 
G01 X22.6942 Y50.2083 
G01 X22.7499 Y50.2314 
G01 X23.8101 Y50.2314 
G01 X23.8287 Y50.2237 
G01 X23.8658 Y50.2083 
G01 X23.9855 Y50.0885 
G01 X24.0774 Y50.0505 
G01 X24.1807 Y50.0497 
G01 X24.2718 Y50.0874 
G01 X24.2745 Y50.0885 
G01 X24.3462 Y50.1603 
G01 X24.3942 Y50.2083 
G01 X24.4313 Y50.2237 
G01 X24.4499 Y50.2314 
G01 X25.0532 Y50.2314 
G01 X25.1469 Y50.2702 
G01 X25.2186 Y50.3419 
G01 X25.2501 Y50.3734 
G01 X25.3387 Y50.4620 
G01 X25.8612 Y50.9845 
G01 X26.0154 Y51.1387 
G01 X26.0523 Y51.1569 
G01 X26.0910 Y51.1729 
G01 X26.1694 Y51.2054 
G01 X30.5606 Y51.2054 
G01 X30.7096 Y51.1437 
G01 X30.8954 Y50.9579 
G01 X31.9796 Y49.8737 
G01 X32.0937 Y49.7596 
G01 X32.1300 Y49.6719 
G01 X32.1659 Y49.5852 
G01 X32.1688 Y49.5782 
G01 X32.2405 Y49.5065 
G01 X32.3343 Y49.4677 
G01 X32.4357 Y49.4677 
G01 X32.5295 Y49.5065 
G01 X32.6012 Y49.5782 
G01 X32.6041 Y49.5851 
G01 X32.6763 Y49.7596 
G01 X33.9463 Y51.0296 
G01 X34.0604 Y51.1437 
G01 X34.2094 Y51.2054 
G01 X37.7247 Y51.2054 
G01 X37.7881 Y51.2054 
G01 X38.1806 Y51.2054 
G01 X38.2906 Y51.1598 
G01 X38.3296 Y51.1437 
G01 X40.0196 Y49.4537 
G01 X40.1337 Y49.3396 
G01 X40.1954 Y49.1906 
G01 X40.1954 Y49.1657 
G01 X40.2342 Y49.0719 
G01 X40.3059 Y49.0002 
G01 X40.3195 Y48.9946 
G01 X40.3801 Y48.9340 
G01 X40.4008 Y48.9070 
G01 X40.4157 Y48.8984 
G01 X40.4278 Y48.8863 
G01 X40.4592 Y48.8733 
G01 X40.4887 Y48.8562 
G01 X40.5057 Y48.8540 
G01 X40.5215 Y48.8474 
G01 X40.5556 Y48.8474 
G01 X40.5893 Y48.8430 
G01 X40.6058 Y48.8474 
G01 X40.6230 Y48.8474 
G01 X40.6544 Y48.8605 
G01 X40.6873 Y48.8693 
G01 X40.7009 Y48.8797 
G01 X40.7167 Y48.8863 
G01 X40.7408 Y48.9103 
G01 X40.7678 Y48.9310 
G01 X40.7763 Y48.9459 
G01 X40.7885 Y48.9580 
G01 X40.7943 Y48.9720 
G01 X40.7995 Y48.9773 
G01 X40.8347 Y49.0124 
G01 X40.8540 Y49.0236 
G01 X40.8540 Y47.4966 
G01 X40.8287 Y47.5135 
G01 X40.7943 Y47.5480 
G01 X40.7885 Y47.5620 
G01 X40.7763 Y47.5741 
G01 X40.7678 Y47.5890 
G01 X40.7408 Y47.6097 
G01 X40.7167 Y47.6337 
G01 X40.7009 Y47.6403 
G01 X40.6873 Y47.6507 
G01 X40.6544 Y47.6595 
G01 X40.6230 Y47.6726 
G01 X40.6058 Y47.6726 
G01 X40.5893 Y47.6770 
G01 X40.5556 Y47.6726 
G01 X40.5215 Y47.6726 
G01 X40.5057 Y47.6660 
G01 X40.4887 Y47.6638 
G01 X40.4592 Y47.6467 
G01 X40.4278 Y47.6337 
G01 X40.4157 Y47.6216 
G01 X40.4008 Y47.6130 
G01 X40.3801 Y47.5860 
G01 X40.3651 Y47.5710 
G01 X40.3583 Y47.5697 
G01 X40.3362 Y47.5653 
G01 X40.3201 Y47.5586 
G01 X39.2599 Y47.5586 
G01 X39.2042 Y47.5817 
G01 X39.1617 Y47.6242 
G01 X39.1386 Y47.6799 
G01 X39.1386 Y48.8727 
G01 X39.1519 Y48.8859 
G01 X39.1907 Y48.9797 
G01 X39.1907 Y49.0811 
G01 X39.1707 Y49.1294 
G01 X39.1519 Y49.1748 
G01 X39.1186 Y49.2081 
G01 X39.0801 Y49.2466 
G01 X38.6194 Y49.7073 
G01 X38.0741 Y50.2526 
G01 X38.0426 Y50.2841 
G01 X37.9709 Y50.3558 
G01 X37.8798 Y50.3935 
G01 X37.8772 Y50.3946 
G01 X34.5128 Y50.3946 
G01 X34.4191 Y50.3558 
G01 X34.4095 Y50.3462 
G01 X33.8659 Y49.8026 
G01 X33.8038 Y49.7405 
G01 X33.7941 Y49.7309 
G01 X33.7553 Y49.6371 
G01 X33.7553 Y49.5357 
G01 X33.7941 Y49.4419 
G01 X33.8659 Y49.3702 
G01 X33.9596 Y49.3314 
G01 X34.5648 Y49.3314 
G01 X34.7805 Y49.1157 
G01 X34.8724 Y49.0776 
G01 X34.9757 Y49.0768 
G01 X35.0668 Y49.1146 
G01 X35.0695 Y49.1157 
G01 X35.1412 Y49.1874 
G01 X35.2852 Y49.3314 
G01 X35.8348 Y49.3314 
G01 X35.9016 Y49.2646 
G01 X35.9655 Y49.2007 
G01 X36.0114 Y49.0899 
G01 X36.0114 Y47.3000 
G01 X35.9655 Y47.1893 
G01 X35.8807 Y47.1045 
G01 X35.7699 Y47.0586 
G01 X35.3500 Y47.0586 
G01 X35.2393 Y47.1045 
G01 X35.1412 Y47.2026 
G01 X35.0745 Y47.2693 
G01 X35.0695 Y47.2743 
G01 X34.9757 Y47.3132 
G01 X34.8743 Y47.3132 
G01 X34.7805 Y47.2743 
G01 X34.7088 Y47.2026 
G01 X34.6107 Y47.1045 
G01 X34.4999 Y47.0586 
G01 X34.0800 Y47.0586 
G01 X33.9693 Y47.1045 
G01 X33.8712 Y47.2026 
G01 X33.8045 Y47.2693 
G01 X33.7995 Y47.2743 
G01 X33.7057 Y47.3132 
G01 X33.6043 Y47.3132 
G01 X33.5105 Y47.2743 
G01 X33.4388 Y47.2026 
G01 X33.3407 Y47.1045 
G01 X33.2299 Y47.0586 
G01 X32.8100 Y47.0586 
G01 X32.6993 Y47.1045 
G01 X32.6012 Y47.2026 
G01 X32.5345 Y47.2693 
G01 X32.5295 Y47.2743 
G01 X32.4357 Y47.3132 
G01 X32.3343 Y47.3132 
G01 X32.2405 Y47.2743 
G01 X32.1688 Y47.2026 
G01 X32.0707 Y47.1045 
G01 X31.9599 Y47.0586 
G01 X31.5401 Y47.0586 
G01 X31.5082 Y47.0718 
G01 X31.4975 Y47.0784 
G01 X31.4505 Y47.0957 
G01 X31.4293 Y47.1045 
G01 X31.3758 Y47.1579 
G01 X31.3616 Y47.1793 
G01 X31.3403 Y47.1935 
G01 X31.3222 Y47.2116 
G01 X31.2985 Y47.2214 
G01 X31.2772 Y47.2356 
G01 X31.2521 Y47.2406 
G01 X31.2285 Y47.2504 
G01 X31.2029 Y47.2504 
G01 X31.1777 Y47.2554 
G01 X31.1526 Y47.2504 
G01 X31.1270 Y47.2504 
G01 X31.1160 Y47.2459 
G01 X31.1160 Y48.2576 
G01 X31.0916 Y48.3805 
G01 X31.0436 Y48.4962 
G01 X30.9740 Y48.6004 
G01 X30.8855 Y48.6890 
G01 X30.7813 Y48.7586 
G01 X30.7810 Y49.0600 
G01 X30.7580 Y49.1155 
G01 X30.7350 Y49.1385 
G01 X30.7350 Y49.4191 
G01 X30.7754 Y49.4082 
G01 X30.7829 Y49.4051 
G01 X30.7870 Y49.4051 
G01 X30.7910 Y49.4041 
G01 X30.7991 Y49.4051 
G01 X30.8072 Y49.4051 
G01 X30.8110 Y49.4067 
G01 X30.8151 Y49.4072 
G01 X30.8221 Y49.4113 
G01 X30.8296 Y49.4144 
G01 X30.8325 Y49.4173 
G01 X30.8361 Y49.4194 
G01 X30.8410 Y49.4258 
G01 X30.8468 Y49.4316 
G01 X30.8484 Y49.4354 
G01 X30.8509 Y49.4386 
G01 X30.8530 Y49.4465 
G01 X30.8561 Y49.4540 
G01 X30.8561 Y49.4581 
G01 X30.8571 Y49.4621 
G01 X30.8561 Y49.4701 
G01 X30.8561 Y49.4783 
G01 X30.8545 Y49.4821 
G01 X30.8540 Y49.4861 
G01 X30.8499 Y49.4932 
G01 X30.8468 Y49.5007 
G01 X30.8439 Y49.5036 
G01 X30.8418 Y49.5072 
G01 X30.8743 Y49.5435 
G01 X30.9131 Y49.6373 
G01 X30.9131 Y49.7387 
G01 X30.8742 Y49.8325 
G01 X30.8351 Y49.8716 
G01 X30.3509 Y50.3558 
G01 X30.2572 Y50.3946 
G01 X29.4133 Y50.3946 
G01 X29.3222 Y50.3569 
G01 X29.3195 Y50.3558 
G01 X29.2478 Y50.2841 
G01 X29.2098 Y50.1922 
G01 X29.2090 Y50.0889 
G01 X29.2467 Y49.9978 
G01 X29.2478 Y49.9951 
G01 X29.3195 Y49.9234 
G01 X29.4396 Y49.8737 
G01 X29.5537 Y49.7596 
G01 X29.6154 Y49.6106 
G01 X29.6154 Y49.5517 
G01 X29.6154 Y49.5015 
G01 X29.6154 Y49.4502 
G01 X29.6370 Y49.3980 
G01 X29.6542 Y49.3565 
G01 X29.6895 Y49.3212 
G01 X29.7259 Y49.2848 
G01 X29.7958 Y49.2558 
G01 X29.8197 Y49.2459 
G01 X29.8699 Y49.2459 
G01 X29.8726 Y49.2459 
G01 X29.8746 Y49.2383 
G01 X29.8771 Y49.2351 
G01 X29.8787 Y49.2313 
G01 X29.8844 Y49.2255 
G01 X29.8894 Y49.2191 
G01 X29.8929 Y49.2170 
G01 X29.8958 Y49.2141 
G01 X29.9034 Y49.2110 
G01 X29.9104 Y49.2069 
G01 X29.9145 Y49.2064 
G01 X29.9183 Y49.2048 
G01 X29.9264 Y49.2048 
G01 X29.9345 Y49.2038 
G01 X29.9384 Y49.2048 
G01 X29.9425 Y49.2048 
G01 X29.9501 Y49.2080 
G01 X29.9579 Y49.2101 
G01 X29.9612 Y49.2126 
G01 X29.9650 Y49.2141 
G01 X29.9707 Y49.2199 
G01 X29.9772 Y49.2248 
G01 X29.9792 Y49.2284 
G01 X29.9821 Y49.2313 
G01 X29.9852 Y49.2388 
G01 X30.0075 Y49.2774 
G01 X30.0148 Y49.2848 
G01 X30.0516 Y49.3215 
G01 X30.0731 Y49.3430 
G01 X30.1171 Y49.3724 
G01 X30.1514 Y49.3922 
G01 X30.2002 Y49.4124 
G01 X30.2250 Y49.4191 
G01 X30.2250 Y49.1385 
G01 X30.2020 Y49.1155 
G01 X30.1790 Y49.0600 
G01 X30.1790 Y48.7587 
G01 X30.0745 Y48.6890 
G01 X29.9860 Y48.6004 
G01 X29.9163 Y48.4962 
G01 X29.8684 Y48.3805 
G01 X29.8440 Y48.2576 
G01 X29.8440 Y47.2459 
G01 X29.8330 Y47.2504 
G01 X29.8074 Y47.2504 
G01 X29.7823 Y47.2554 
G01 X29.7571 Y47.2504 
G01 X29.7315 Y47.2504 
G01 X29.7079 Y47.2406 
G01 X29.6828 Y47.2356 
G01 X29.6615 Y47.2214 
G01 X29.6378 Y47.2116 
G01 X29.6197 Y47.1935 
G01 X29.5984 Y47.1793 
G01 X29.5842 Y47.1579 
G01 X29.5307 Y47.1045 
G01 X29.5096 Y47.0957 
G01 X29.4625 Y47.0784 
G01 X29.4518 Y47.0718 
G01 X29.4199 Y47.0586 
G01 X29.0000 Y47.0586 
G01 X28.8893 Y47.1045 
G01 X28.7912 Y47.2026 
G01 X28.7245 Y47.2693 
G01 X28.7195 Y47.2743 
G01 X28.6257 Y47.3132 
G01 X28.5243 Y47.3132 
G01 X28.4305 Y47.2743 
G01 X28.3588 Y47.2026 
G01 X28.2607 Y47.1045 
G01 X28.1499 Y47.0586 
G01 X27.6652 Y47.0586 
G01 X27.5466 Y47.1772 
G01 X27.4795 Y47.2443 
G01 X27.4749 Y47.2489 
G01 X27.3811 Y47.2878 
G01 X27.2797 Y47.2878 
G01 X27.1859 Y47.2489 
G01 X27.1142 Y47.1772 
G01 X27.0754 Y47.0835 
G01 X27.0754 Y44.3565 
G01 X27.1131 Y44.2655 
G01 X27.1142 Y44.2628 
G01 X27.1859 Y44.1911 
G01 X27.2778 Y44.1530 
G01 X27.3811 Y44.1522 
G01 X27.4722 Y44.1900 
G01 X27.4749 Y44.1911 
G01 X27.5466 Y44.2628 
G01 X27.6652 Y44.3814 
G01 X28.1499 Y44.3814 
G01 X28.2607 Y44.3355 
G01 X28.3588 Y44.2374 
G01 X28.4255 Y44.1707 
G01 X28.4305 Y44.1657 
G01 X28.5243 Y44.1268 
G01 X28.6257 Y44.1268 
G01 X28.7195 Y44.1657 
G01 X28.7912 Y44.2374 
G01 X28.8893 Y44.3355 
G01 X29.0001 Y44.3814 
G01 X29.4199 Y44.3814 
G01 X29.5307 Y44.3355 
G01 X29.6288 Y44.2374 
G01 X29.6955 Y44.1707 
G01 X29.7005 Y44.1657 
G01 X29.7943 Y44.1268 
G01 X29.8957 Y44.1268 
G01 X29.9895 Y44.1657 
G01 X30.0612 Y44.2374 
G01 X30.1593 Y44.3355 
G01 X30.2701 Y44.3814 
G01 X30.6899 Y44.3814 
G01 X30.8007 Y44.3355 
G01 X30.8988 Y44.2374 
G01 X30.9655 Y44.1707 
G01 X30.9705 Y44.1657 
G01 X31.0643 Y44.1268 
G01 X31.1657 Y44.1268 
G01 X31.2595 Y44.1657 
G01 X31.3312 Y44.2374 
G01 X31.4293 Y44.3355 
G01 X31.5401 Y44.3814 
G01 X31.9599 Y44.3814 
G01 X32.0707 Y44.3355 
G01 X32.1688 Y44.2374 
G01 X32.2355 Y44.1707 
G01 X32.2405 Y44.1657 
G01 X32.3343 Y44.1268 
G01 X32.4357 Y44.1268 
G01 X32.5295 Y44.1657 
G01 X32.6012 Y44.2374 
G01 X32.6993 Y44.3355 
G01 X32.8101 Y44.3814 
G01 X33.2299 Y44.3814 
G01 X33.3407 Y44.3355 
G01 X33.4388 Y44.2374 
G01 X33.5055 Y44.1707 
G01 X33.5105 Y44.1657 
G01 X33.6043 Y44.1268 
G01 X33.7057 Y44.1268 
G01 X33.7995 Y44.1657 
G01 X33.8712 Y44.2374 
G01 X33.9693 Y44.3355 
G01 X34.0800 Y44.3814 
G01 X34.4999 Y44.3814 
G01 X34.6107 Y44.3355 
G01 X34.7088 Y44.2374 
G01 X34.7755 Y44.1707 
G01 X34.7805 Y44.1657 
G01 X34.8743 Y44.1268 
G01 X34.9757 Y44.1268 
G01 X35.0695 Y44.1657 
G01 X35.1412 Y44.2374 
G01 X35.2393 Y44.3355 
G01 X35.3501 Y44.3814 
G01 X35.7699 Y44.3814 
G01 X35.8807 Y44.3355 
G01 X35.9655 Y44.2507 
G01 X36.0114 Y44.1399 
G01 X36.0114 Y43.7897 
G01 X36.0502 Y43.6959 
G01 X36.1219 Y43.6242 
G01 X36.2157 Y43.5854 
G01 X37.1757 Y43.5854 
G01 X37.2695 Y43.6242 
G01 X37.3412 Y43.6959 
G01 X37.3726 Y43.7274 
G01 X37.4612 Y43.8160 
G01 X37.5894 Y43.9442 
G01 X37.9207 Y44.0814 
G01 X38.2793 Y44.0814 
G01 X38.6106 Y43.9442 
G01 X38.8642 Y43.6906 
G01 X39.0014 Y43.3593 
G01 X39.0014 Y43.0007 
G01 X38.8642 Y42.6694 
G01 X38.6106 Y42.4158 
G01 X38.2793 Y42.2786 
G01 X37.9207 Y42.2786 
G01 X37.5894 Y42.4158 
G01 X37.3726 Y42.6326 
G01 X37.2695 Y42.7358 
G01 X37.1757 Y42.7746 
G01 X36.2157 Y42.7746 
G01 X36.1219 Y42.7358 
G01 X36.0502 Y42.6641 
G01 X36.0114 Y42.5703 
G01 X36.0114 Y42.3500 
G01 X36.0006 Y42.3241 
G01 X35.9655 Y42.2393 
G01 X35.8807 Y42.1545 
G01 X35.7699 Y42.1086 
G01 X35.2852 Y42.1086 
G01 X35.1666 Y42.2272 
G01 X35.0995 Y42.2943 
G01 X35.0949 Y42.2989 
G01 X35.0011 Y42.3378 
G01 X34.8997 Y42.3378 
G01 X34.8059 Y42.2989 
G01 X34.7342 Y42.2272 
G01 X34.6954 Y42.1335 
G01 X34.6954 Y40.8628 
G01 X34.7342 Y40.7691 
G01 X34.7444 Y40.7589 
G01 X35.2013 Y40.3020 
G01 X35.2598 Y40.2435 
G01 X35.3213 Y40.1819 
G01 X35.3829 Y40.1204 
G01 X35.3931 Y40.1102 
G01 X35.4868 Y40.0714 
G01 X36.5101 Y40.0714 
G01 X36.5262 Y40.0647 
G01 X36.5551 Y40.0590 
G01 X36.5701 Y40.0440 
G01 X36.5908 Y40.0170 
G01 X36.6057 Y40.0084 
G01 X36.6178 Y39.9963 
G01 X36.6492 Y39.9833 
G01 X36.6787 Y39.9662 
G01 X36.6957 Y39.9640 
G01 X36.7115 Y39.9574 
G01 X36.7456 Y39.9574 
G01 X36.7793 Y39.9530 
G01 X36.7958 Y39.9574 
G01 X36.8130 Y39.9574 
G01 X36.8444 Y39.9705 
G01 X36.8773 Y39.9793 
G01 X36.8909 Y39.9897 
G01 X36.9067 Y39.9963 
G01 X36.9308 Y40.0203 
G01 X36.9578 Y40.0410 
G01 X36.9663 Y40.0559 
G01 X36.9785 Y40.0680 
G01 X36.9843 Y40.0820 
G01 X36.9895 Y40.0873 
G01 X37.0187 Y40.1165 
G01 X37.0440 Y40.1334 
G01 X37.0440 Y38.6066 
G01 X37.0187 Y38.6235 
G01 X36.9892 Y38.6530 
G01 X36.9843 Y38.6579 
G01 X36.9785 Y38.6720 
G01 X36.9663 Y38.6841 
G01 X36.9578 Y38.6990 
G01 X36.9308 Y38.7197 
G01 X36.9067 Y38.7437 
G01 X36.8909 Y38.7503 
G01 X36.8773 Y38.7607 
G01 X36.8444 Y38.7695 
G01 X36.8130 Y38.7826 
G01 X36.7958 Y38.7826 
G01 X36.7793 Y38.7870 
G01 X36.7456 Y38.7826 
G01 X36.7115 Y38.7826 
G01 X36.6957 Y38.7760 
G01 X36.6787 Y38.7738 
G01 X36.6492 Y38.7567 
G01 X36.6178 Y38.7437 
G01 X36.6057 Y38.7316 
G01 X36.5908 Y38.7230 
G01 X36.5701 Y38.6960 
G01 X36.5551 Y38.6810 
G01 X36.5483 Y38.6797 
G01 X36.5262 Y38.6753 
G01 X36.5101 Y38.6686 
G01 X35.4499 Y38.6686 
G01 X35.3942 Y38.6917 
G01 X35.3517 Y38.7342 
G01 X35.3286 Y38.7899 
G01 X35.3286 Y38.9732 
G01 X35.3062 Y39.0273 
G01 X35.2898 Y39.0669 
G01 X35.2181 Y39.1386 
G01 X35.1866 Y39.1701 
G01 X35.1422 Y39.2145 
G01 X35.0980 Y39.2587 
G01 X35.0826 Y39.2741 
G01 X34.3444 Y40.0123 
G01 X33.9463 Y40.4104 
G01 X33.8846 Y40.5594 
G01 X33.8846 Y42.1335 
G01 X33.8469 Y42.2245 
G01 X33.8458 Y42.2272 
G01 X33.7741 Y42.2989 
G01 X33.6822 Y42.3370 
G01 X33.5789 Y42.3378 
G01 X33.4878 Y42.3000 
G01 X33.4851 Y42.2989 
G01 X33.4134 Y42.2272 
G01 X33.2948 Y42.1086 
G01 X32.8101 Y42.1086 
G01 X32.6993 Y42.1545 
G01 X32.5295 Y42.3243 
G01 X32.4376 Y42.3624 
G01 X32.3343 Y42.3632 
G01 X32.2432 Y42.3254 
G01 X32.2405 Y42.3243 
G01 X32.1688 Y42.2526 
G01 X32.0707 Y42.1545 
G01 X31.9599 Y42.1086 
G01 X31.4752 Y42.1086 
G01 X31.3566 Y42.2272 
G01 X31.2849 Y42.2989 
G01 X31.1914 Y42.3376 
G01 X31.0897 Y42.3378 
G01 X31.0236 Y42.3104 
G01 X30.9959 Y42.2989 
G01 X30.9242 Y42.2272 
G01 X30.8855 Y42.1338 
G01 X30.8854 Y41.3153 
G01 X30.9242 Y41.2216 
G01 X30.9959 Y41.1499 
G01 X31.0786 Y41.0672 
G01 X31.1672 Y40.9786 
G01 X31.1777 Y40.9681 
G01 X31.2437 Y40.9021 
G01 X31.3054 Y40.7531 
G01 X31.3054 Y40.1836 
G01 X31.3442 Y40.0899 
G01 X31.3993 Y40.0348 
G01 X31.4014 Y38.7073 
G01 X31.3442 Y38.6501 
G01 X31.3054 Y38.5564 
G01 X31.3054 Y37.6857 
G01 X31.3442 Y37.5919 
G01 X31.4159 Y37.5202 
G01 X31.5097 Y37.4814 
G01 X31.5127 Y37.4814 
G01 X31.5317 Y37.4624 
G01 X31.5717 Y37.4446 
G01 X31.6274 Y37.4216 
G01 X31.7289 Y37.4216 
G01 X31.7671 Y37.4374 
G01 X31.8226 Y37.4604 
G01 X31.8919 Y37.5297 
G01 X31.8954 Y37.5328 
G01 X31.9524 Y37.5657 
G01 X31.9801 Y37.5732 
G01 X32.0167 Y37.5830 
G01 X32.3450 Y37.5830 
G01 X32.3450 Y37.4128 
G01 X32.2988 Y37.3936 
G01 X32.2050 Y37.3310 
G01 X32.0496 Y37.3310 
G01 X32.0490 Y37.1501 
G01 X32.0364 Y37.1313 
G01 X31.9885 Y37.0155 
G01 X31.9640 Y36.8927 
G01 X31.9640 Y36.7673 
G01 X31.9885 Y36.6445 
G01 X32.0364 Y36.5287 
G01 X32.0490 Y36.5099 
G01 X32.0490 Y36.3296 
G01 X32.2050 Y36.3290 
G01 X32.2988 Y36.2663 
G01 X32.3450 Y36.2472 
G01 X32.3450 Y36.0770 
G01 X32.0167 Y36.0770 
G01 X31.9524 Y36.0943 
G01 X31.9404 Y36.1012 
G01 X31.8954 Y36.1272 
G01 X31.8925 Y36.1301 
G01 X31.8226 Y36.1996 
G01 X31.7683 Y36.2221 
G01 X31.7289 Y36.2384 
G01 X31.6274 Y36.2384 
G01 X31.5733 Y36.2160 
G01 X31.5337 Y36.1996 
G01 X31.5127 Y36.1786 
G01 X31.4707 Y36.1786 
G01 X31.3769 Y36.1398 
G01 X31.3052 Y36.0681 
G01 X31.2664 Y35.9743 
G01 X31.2664 Y35.4036 
G01 X31.2554 Y35.3770 
G01 X31.2554 Y35.1536 
G01 X31.2931 Y35.0625 
G01 X31.2942 Y35.0599 
G01 X31.3659 Y34.9881 
G01 X31.4014 Y34.9527 
G01 X31.4014 Y33.6273 
G01 X31.2942 Y33.5201 
G01 X31.2554 Y33.4264 
G01 X31.2554 Y32.6057 
G01 X31.2942 Y32.5119 
G01 X31.3659 Y32.4402 
G01 X31.4597 Y32.4014 
G01 X31.5127 Y32.4014 
G01 X31.5317 Y32.3824 
G01 X31.5717 Y32.3646 
G01 X31.6274 Y32.3416 
G01 X31.7289 Y32.3416 
G01 X31.7671 Y32.3574 
G01 X31.8226 Y32.3804 
G01 X31.8920 Y32.4497 
G01 X31.8954 Y32.4528 
G01 X31.9020 Y32.4566 
G01 X31.9524 Y32.4857 
G01 X31.9780 Y32.4926 
G01 X32.0167 Y32.5030 
G01 X32.3450 Y32.5030 
G01 X32.3450 Y32.2510 
G01 X32.0496 Y32.2510 
G01 X32.0490 Y31.2496 
G01 X33.1504 Y31.2490 
G01 X33.1510 Y31.4950 
G01 X33.4030 Y31.4950 
G01 X33.4030 Y31.2188 
G01 X33.3915 Y31.1911 
G01 X33.3915 Y31.1740 
G01 X33.3871 Y31.1574 
G01 X33.3915 Y31.1237 
G01 X33.3915 Y31.0897 
G01 X33.3981 Y31.0738 
G01 X33.4003 Y31.0568 
G01 X33.4173 Y31.0274 
G01 X33.4304 Y30.9959 
G01 X33.4425 Y30.9838 
G01 X33.4510 Y30.9690 
G01 X33.4780 Y30.9483 
G01 X33.5021 Y30.9242 
G01 X33.5179 Y30.9176 
G01 X33.5315 Y30.9072 
G01 X33.5644 Y30.8984 
G01 X33.5958 Y30.8854 
G01 X33.6130 Y30.8854 
G01 X33.6295 Y30.8809 
G01 X33.6633 Y30.8854 
G01 X33.8543 Y30.8854 
G01 X33.9481 Y30.9242 
G01 X34.0198 Y30.9959 
G01 X34.0586 Y31.0897 
G01 X34.0586 Y31.0927 
G01 X34.1473 Y31.1814 
G01 X35.2401 Y31.1814 
G01 X35.2562 Y31.1747 
G01 X35.2760 Y31.1708 
G01 X35.2851 Y31.1690 
G01 X35.3001 Y31.1540 
G01 X35.3208 Y31.1270 
G01 X35.3357 Y31.1184 
G01 X35.3478 Y31.1063 
G01 X35.3792 Y31.0933 
G01 X35.4087 Y31.0762 
G01 X35.4257 Y31.0740 
G01 X35.4415 Y31.0674 
G01 X35.4756 Y31.0674 
G01 X35.5093 Y31.0630 
G01 X35.5258 Y31.0674 
G01 X35.5430 Y31.0674 
G01 X35.5744 Y31.0805 
G01 X35.6073 Y31.0893 
G01 X35.6209 Y31.0997 
G01 X35.6367 Y31.1063 
G01 X35.6608 Y31.1303 
G01 X35.6878 Y31.1510 
G01 X35.6963 Y31.1659 
G01 X35.7085 Y31.1780 
G01 X35.7143 Y31.1920 
G01 X35.7487 Y31.2265 
G01 X35.7740 Y31.2434 
G01 X35.7740 Y29.7166 
G01 X35.7487 Y29.7335 
G01 X35.7192 Y29.7630 
G01 X35.7143 Y29.7679 
G01 X35.7085 Y29.7820 
G01 X35.6963 Y29.7941 
G01 X35.6878 Y29.8090 
G01 X35.6608 Y29.8297 
G01 X35.6367 Y29.8537 
G01 X35.6209 Y29.8603 
G01 X35.6073 Y29.8707 
G01 X35.5744 Y29.8795 
G01 X35.5430 Y29.8925 
G01 X35.5258 Y29.8925 
G01 X35.5093 Y29.8970 
G01 X35.4756 Y29.8925 
G01 X35.4415 Y29.8925 
G01 X35.4257 Y29.8860 
G01 X35.4087 Y29.8838 
G01 X35.3792 Y29.8667 
G01 X35.3478 Y29.8537 
G01 X35.3357 Y29.8416 
G01 X35.3208 Y29.8330 
G01 X35.3001 Y29.8060 
G01 X35.2851 Y29.7910 
G01 X35.2783 Y29.7897 
G01 X35.2562 Y29.7853 
G01 X35.2401 Y29.7786 
G01 X34.1473 Y29.7786 
G01 X34.0586 Y29.8673 
G01 X34.0586 Y29.8703 
G01 X34.0198 Y29.9641 
G01 X33.9481 Y30.0358 
G01 X33.8543 Y30.0746 
G01 X31.5333 Y30.0746 
G01 X31.4422 Y30.0369 
G01 X31.4395 Y30.0358 
G01 X31.3678 Y29.9641 
G01 X31.3298 Y29.8722 
G01 X31.3290 Y29.7689 
G01 X31.3667 Y29.6778 
G01 X31.3678 Y29.6751 
G01 X31.4395 Y29.6034 
G01 X31.5596 Y29.5537 
G01 X31.6331 Y29.4802 
G01 X31.7268 Y29.4414 
G01 X32.3627 Y29.4414 
G01 X32.4175 Y29.3866 
G01 X32.5112 Y29.3478 
G01 X33.5510 Y29.3478 
G01 X33.7560 Y29.2629 
G01 X33.9846 Y29.0342 
G01 X34.2816 Y28.7372 
G01 X34.3702 Y28.6486 
G01 X39.0763 Y23.9426 
G01 X39.4229 Y23.5960 
G01 X39.5078 Y23.3909 
G01 X39.5078 Y19.8112 
G01 X39.5466 Y19.7175 
G01 X39.5783 Y19.6858 
G01 X39.5802 Y19.6813 
G01 X39.6014 Y19.6301 
G01 X39.6014 Y18.4699 
G01 X39.5783 Y18.4142 
G01 X39.5357 Y18.3717 
G01 X39.4801 Y18.3486 
G01 X38.4199 Y18.3486 
G01 X38.4013 Y18.3563 
G01 X38.3642 Y18.3717 
G01 X38.3162 Y18.4197 
G01 X38.2484 Y18.4876 
G01 X38.2445 Y18.4915 
G01 X38.1507 Y18.5303 
G01 X38.0493 Y18.5303 
G01 X37.9555 Y18.4915 
G01 X37.8838 Y18.4197 
G01 X37.8357 Y18.3717 
G01 X37.8058 Y18.3593 
G01 X37.7987 Y18.3563 
G01 X37.7801 Y18.3486 
G01 X37.6116 Y18.3486 
G01 X37.5324 Y18.3158 
G01 X37.4369 Y18.2762 
G01 X37.4064 Y18.2636 
G01 X33.0857 Y18.2636 
G01 X32.9919 Y18.2248 
G01 X32.9202 Y18.1531 
G01 X32.8814 Y18.0593 
G01 X32.8814 Y17.9873 
G01 X32.8157 Y17.9217 
G01 X32.7601 Y17.8986 
G01 X31.0999 Y17.8986 
G01 X31.0687 Y17.9115 
G01 X31.0442 Y17.9217 
G01 X30.9786 Y17.9873 
G01 X30.9786 Y18.3895 
G01 X30.9398 Y18.4833 
G01 X30.8681 Y18.5550 
G01 X30.7743 Y18.5938 
G01 X30.3357 Y18.5938 
G01 X30.2419 Y18.5550 
G01 X30.1702 Y18.4833 
G01 X30.1314 Y18.3895 
G01 X30.1314 Y17.1199 
G01 X30.1083 Y17.0642 
G01 X30.0735 Y17.0294 
G01 X30.0427 Y16.9986 
G01 X29.3956 Y16.9986 
G01 X29.3019 Y16.9598 
G01 X29.2302 Y16.8881 
G01 X28.6410 Y16.2989 
G01 X28.6021 Y16.2051 
G01 X28.6021 Y16.1037 
G01 X28.6410 Y16.0099 
G01 X28.7127 Y15.9382 
G01 X28.8064 Y15.8994 
G01 X45.3920 Y15.8994 
G01 X45.4857 Y15.9382 
G01 X48.8318 Y19.2843 
G01 X48.8706 Y19.3780 
G01 X48.8706 Y50.1915 
G01 X48.8318 Y50.2852 
G01 X48.7601 Y50.3570 
G01 X48.6049 Y50.5121 
G01 X48.4388 Y50.9132 
G01 X48.4388 Y53.2268 
G01 X48.6049 Y53.6279 
G01 X48.7020 Y53.7250 
G01 X48.7856 Y53.8086 
G01 X48.7906 Y53.8136 
G01 X48.9119 Y53.9349 
G01 X49.3129 Y54.1010 
G01 X49.7471 Y54.1010 
G01 X50.1481 Y53.9349 
G01 X50.4551 Y53.6279 
G01 X50.5450 Y53.4108 
G01 X50.5827 Y53.3197 
G01 X50.5838 Y53.3171 
G01 X50.6555 Y53.2453 
G01 X50.7482 Y53.2070 
G01 X50.8507 Y53.2065 
G01 X50.9418 Y53.2442 
G01 X50.9445 Y53.2453 
G01 X51.0162 Y53.3171 
G01 X51.1449 Y53.6279 
G01 X51.4519 Y53.9349 
G01 X51.8529 Y54.1010 
G01 X52.2871 Y54.1010 
G01 X52.6881 Y53.9349 
G01 X52.9951 Y53.6279 
G01 X53.0446 Y53.5082 
G01 X53.0572 Y53.4695 
G01 X53.0639 Y53.4617 
G01 X53.0679 Y53.4521 
G01 X53.0967 Y53.4233 
G01 X53.1231 Y53.3924 
G01 X53.1323 Y53.3877 
G01 X53.1396 Y53.3804 
G01 X53.1772 Y53.3648 
G01 X53.2135 Y53.3463 
G01 X53.2238 Y53.3455 
G01 X53.2333 Y53.3415 
G01 X53.2741 Y53.3415 
G01 X53.3146 Y53.3383 
G01 X53.3245 Y53.3415 
G01 X53.3348 Y53.3415 
G01 X53.3724 Y53.3571 
G01 X53.3916 Y53.3634 
G01 X53.4026 Y53.3589 
G01 X53.4116 Y53.3552 
G01 X53.4164 Y53.3544 
G01 X53.4261 Y53.3552 
G01 X53.4359 Y53.3552 
G01 X53.4406 Y53.3563 
G01 X53.4493 Y53.3607 
G01 X53.4583 Y53.3645 
G01 X53.4622 Y53.3673 
G01 X53.4686 Y53.3747 
G01 X53.4754 Y53.3816 
G01 X53.4780 Y53.3858 
G01 X53.4810 Y53.3950 
G01 X53.4847 Y53.4041 
G01 X53.4992 Y53.4510 
G01 X53.5158 Y53.4897 
G01 X53.5872 Y53.6297 
G01 X53.5898 Y53.6350 
G01 X53.7002 Y53.7868 
G01 X53.8330 Y53.9196 
G01 X53.9848 Y54.0300 
G01 X53.9897 Y54.0324 
G01 X54.1521 Y54.1152 
G01 X54.3296 Y54.1729 
G01 X54.3296 Y53.9120 
G01 X54.1644 Y53.8435 
G01 X54.0103 Y53.7406 
G01 X53.8792 Y53.6095 
G01 X53.7763 Y53.4554 
G01 X53.7053 Y53.2842 
G01 X53.6692 Y53.1025 
G01 X53.6692 Y51.0375 
G01 X53.7053 Y50.8558 
G01 X53.7763 Y50.6846 
G01 X53.8792 Y50.5305 
G01 X53.9740 Y50.4357 
G01 X53.9740 Y50.1201 
G01 X53.9595 Y50.1285 
G01 X53.9102 Y50.1643 
G01 X53.8978 Y50.1766 
G01 X53.8631 Y50.1999 
G01 X53.8299 Y50.2253 
G01 X53.8262 Y50.2272 
G01 X53.7002 Y50.3532 
G01 X53.5898 Y50.5050 
G01 X53.5872 Y50.5103 
G01 X53.5158 Y50.6503 
G01 X53.5003 Y50.6879 
G01 X53.4847 Y50.7335 
G01 X53.4810 Y50.7449 
G01 X53.4780 Y50.7542 
G01 X53.4754 Y50.7584 
G01 X53.4686 Y50.7653 
G01 X53.4622 Y50.7727 
G01 X53.4583 Y50.7755 
G01 X53.4493 Y50.7793 
G01 X53.4406 Y50.7837 
G01 X53.4359 Y50.7848 
G01 X53.4261 Y50.7848 
G01 X53.4164 Y50.7856 
G01 X53.4116 Y50.7848 
G01 X53.4026 Y50.7811 
G01 X53.3933 Y50.7781 
G01 X53.3724 Y50.7829 
G01 X53.3348 Y50.7985 
G01 X53.3245 Y50.7985 
G01 X53.3146 Y50.8016 
G01 X53.2741 Y50.7985 
G01 X53.2333 Y50.7985 
G01 X53.2238 Y50.7945 
G01 X53.2135 Y50.7937 
G01 X53.1772 Y50.7752 
G01 X53.1396 Y50.7596 
G01 X53.1323 Y50.7523 
G01 X53.1231 Y50.7476 
G01 X53.0967 Y50.7167 
G01 X53.0679 Y50.6879 
G01 X53.0639 Y50.6783 
G01 X53.0572 Y50.6705 
G01 X53.0446 Y50.6318 
G01 X52.9951 Y50.5121 
G01 X52.9669 Y50.4840 
G01 X52.9533 Y50.4703 
G01 X52.8952 Y50.4122 
G01 X52.8564 Y50.3185 
G01 X52.8564 Y49.7034 
G01 X52.8536 Y49.6617 
G01 X52.8564 Y49.6409 
G01 X52.8564 Y47.4469 
G01 X52.8651 Y47.4259 
G01 X52.8808 Y47.3879 
G01 X52.9288 Y47.2722 
G01 X52.9714 Y47.1693 
G01 X52.9714 Y46.8107 
G01 X52.9614 Y46.7866 
G01 X52.9288 Y46.7078 
G01 X52.8825 Y46.5961 
G01 X52.8808 Y46.5921 
G01 X52.8564 Y46.5331 
G01 X52.8564 Y43.6369 
G01 X52.8651 Y43.6159 
G01 X52.8808 Y43.5779 
G01 X52.9288 Y43.4622 
G01 X52.9385 Y43.4386 
G01 X52.9714 Y43.3593 
G01 X52.9714 Y43.0007 
G01 X52.9383 Y42.9209 
G01 X52.9288 Y42.8978 
G01 X52.8808 Y42.7821 
G01 X52.8564 Y42.7231 
G01 X52.8564 Y39.8269 
G01 X52.8651 Y39.8058 
G01 X52.8808 Y39.7679 
G01 X52.9288 Y39.6522 
G01 X52.9381 Y39.6296 
G01 X52.9714 Y39.5493 
G01 X52.9714 Y39.1907 
G01 X52.8342 Y38.8594 
G01 X52.5806 Y38.6058 
G01 X52.2493 Y38.4686 
G01 X51.8907 Y38.4686 
G01 X51.5594 Y38.6058 
G01 X51.3194 Y38.8458 
G01 X51.3058 Y38.8594 
G01 X51.1686 Y39.1907 
G01 X51.1686 Y39.5493 
G01 X51.2836 Y39.8269 
G01 X51.2836 Y42.7231 
G01 X51.2749 Y42.7441 
G01 X51.1686 Y43.0007 
G01 X51.1686 Y43.3593 
G01 X51.2836 Y43.6369 
G01 X51.2836 Y46.5331 
G01 X51.2821 Y46.5367 
G01 X51.1686 Y46.8107 
G01 X51.1686 Y47.1693 
G01 X51.2836 Y47.4469 
G01 X51.2836 Y50.3185 
G01 X51.2448 Y50.4122 
G01 X51.1885 Y50.4686 
G01 X51.1731 Y50.4840 
G01 X51.1449 Y50.5121 
G01 X51.0162 Y50.8229 
G01 X50.9445 Y50.8947 
G01 X50.8507 Y50.9335 
G01 X50.7493 Y50.9335 
G01 X50.6555 Y50.8947 
G01 X50.5838 Y50.8229 
G01 X50.5450 Y50.7292 
G01 X50.4551 Y50.5121 
G01 X50.2282 Y50.2852 
G01 X50.1894 Y50.1915 
G01 X50.1894 Y18.9188 
G01 X50.1570 Y18.8407 
G01 X50.0890 Y18.6765 
G01 X46.0935 Y14.6810 
G01 X45.9295 Y14.6131 
G01 X45.8512 Y14.5806 
G01 X27.6607 Y14.5806 
G01 X27.5669 Y14.5418 
G01 X27.4952 Y14.4701 
G01 X27.4564 Y14.3763 
G01 X27.4564 Y13.1569 
G01 X27.4651 Y13.1359 
G01 X27.4808 Y13.0979 
G01 X27.5288 Y12.9822 
G01 X27.5714 Y12.8793 
G01 X27.5714 Y12.5207 
G01 X27.4342 Y12.1894 
G01 X27.1806 Y11.9358 
G01 X26.8493 Y11.7986 
G01 X26.4907 Y11.7986 
G01 X26.1594 Y11.9358 
G01 X25.9058 Y12.1894 
G01 X25.7686 Y12.5207 
G01 X25.7686 Y12.8793 
G01 X25.8112 Y12.9822 
G01 X25.8592 Y13.0979 
G01 X25.8836 Y13.1569 
G01 X25.8836 Y15.5964 
G01 X26.0033 Y15.8854 
G01 X26.2963 Y16.1784 
G01 X26.3583 Y16.2404 
G01 X27.3903 Y17.2724 
G01 X27.5817 Y17.4638 
G01 X27.6593 Y17.5414 
G01 X27.6703 Y17.5524 
G01 X27.8181 Y17.7002 
G01 X27.8770 Y17.7591 
G01 X27.8898 Y17.7719 
G01 X27.9286 Y17.8656 
G01 X27.9286 Y18.3895 
G01 X27.8898 Y18.4833 
G01 X27.8181 Y18.5550 
G01 X27.7243 Y18.5938 
G01 X24.5728 Y18.5938 
G01 X24.4791 Y18.5550 
G01 X24.4073 Y18.4833 
G01 X24.3457 Y18.4217 
G01 X24.2901 Y18.3986 
G01 X23.1299 Y18.3986 
G01 X23.0856 Y18.4170 
G01 X23.0742 Y18.4217 
G01 X23.0045 Y18.4915 
G01 X22.9506 Y18.5137 
G01 X22.9107 Y18.5303 
G01 X22.8093 Y18.5303 
G01 X22.7182 Y18.4926 
G01 X22.7155 Y18.4915 
G01 X22.6457 Y18.4217 
G01 X22.5901 Y18.3986 
G01 X21.4299 Y18.3986 
G01 X21.3742 Y18.4217 
G01 X21.3086 Y18.4873 
G01 X21.3086 Y18.5419 
G01 X21.2698 Y18.6357 
G01 X21.1981 Y18.7074 
G01 X21.1043 Y18.7462 
G01 X20.7902 Y18.7462 
G01 X20.7274 Y18.7462 
G01 X20.4307 Y18.7462 
G01 X20.3370 Y18.7074 
G01 X20.2653 Y18.6357 
G01 X20.2339 Y18.6042 
G01 X20.2249 Y18.5953 
G01 X19.7520 Y18.1223 
G01 X19.6723 Y18.0427 
G01 X19.6634 Y18.0338 
G01 X19.6275 Y17.9979 
G01 X19.5618 Y17.9322 
G01 X19.5558 Y17.9262 
G01 X19.5170 Y17.8325 
G01 X19.5170 Y17.7310 
G01 X19.5181 Y17.7283 
G01 X19.5214 Y17.7204 
G01 X19.5214 Y17.4444 
G01 X19.5169 Y17.4278 
G01 X19.5214 Y17.3941 
G01 X19.5214 Y17.3601 
G01 X19.5279 Y17.3443 
G01 X19.5302 Y17.3273 
G01 X19.5472 Y17.2978 
G01 X19.5602 Y17.2664 
G01 X19.5723 Y17.2543 
G01 X19.5903 Y17.2232 
G01 X19.6065 Y17.1840 
G01 X19.6230 Y17.1225 
G01 X19.6230 Y17.0181 
G01 X19.6618 Y16.9243 
G01 X19.7335 Y16.8526 
G01 X19.8273 Y16.8138 
G01 X21.6504 Y16.8138 
G01 X21.7621 Y16.7675 
G01 X24.2569 Y14.2727 
G01 X24.3875 Y14.1421 
G01 X24.4338 Y14.0304 
G01 X24.4338 Y6.2549 
G01 X24.4715 Y6.1639 
G01 X24.4726 Y6.1612 
G01 X24.5443 Y6.0895 
G01 X24.7481 Y6.0051 
G01 X25.0551 Y5.6981 
G01 X25.2212 Y5.2970 
G01 X25.2212 Y4.8630 
G01 X25.0551 Y4.4619 
G01 X24.7481 Y4.1549 
G01 X24.3470 Y3.9888 
G01 X23.9130 Y3.9888 
G01 X23.5119 Y4.1549 
G01 X23.2049 Y4.4619 
G01 X23.1150 Y4.6790 
G01 X23.0773 Y4.7701 
G01 X23.0762 Y4.7727 
G01 X23.0045 Y4.8445 
G01 X22.9118 Y4.8828 
G01 X22.8093 Y4.8833 
G01 X22.7182 Y4.8456 
G01 X22.7155 Y4.8445 
G01 X22.6438 Y4.7727 
G01 X22.5151 Y4.4619 
G01 X22.4546 Y4.4014 
G01 X22.3660 Y4.3128 
G01 X22.2081 Y4.1549 
G01 X21.8070 Y3.9888 
G01 X21.3729 Y3.9888 
G01 X20.9719 Y4.1549 
G01 X20.6649 Y4.4619 
G01 X20.5750 Y4.6790 
G01 X20.5373 Y4.7701 
G01 X20.5362 Y4.7727 
G01 X20.4644 Y4.8445 
G01 X20.3718 Y4.8828 
G01 X20.2693 Y4.8833 
G01 X20.1782 Y4.8456 
G01 X20.1755 Y4.8445 
G01 X20.1038 Y4.7727 
G01 X19.9751 Y4.4619 
G01 X19.9146 Y4.4014 
G01 X19.8260 Y4.3128 
G01 X19.6681 Y4.1549 
G01 X19.2670 Y3.9888 
G01 X18.8330 Y3.9888 
G01 X18.4319 Y4.1549 
G01 X18.1249 Y4.4619 
G01 X18.0350 Y4.6790 
G01 X17.9973 Y4.7701 
G01 X17.9962 Y4.7727 
G01 X17.9245 Y4.8445 
G01 X17.8318 Y4.8828 
G01 X17.7293 Y4.8833 
G01 X17.6382 Y4.8456 
G01 X17.6355 Y4.8445 
G01 X17.5638 Y4.7727 
G01 X17.4351 Y4.4619 
G01 X17.3746 Y4.4014 
G01 X17.2860 Y4.3128 
G01 X17.1281 Y4.1549 
G01 X16.7270 Y3.9888 
G01 X16.2930 Y3.9888 
G01 X15.8919 Y4.1549 
G01 X15.6842 Y4.3626 
G01 X15.6454 Y4.4014 
G01 X15.5849 Y4.4619 
G01 X15.4950 Y4.6790 
G01 X15.4573 Y4.7701 
G01 X15.4562 Y4.7727 
G01 X15.3845 Y4.8445 
G01 X15.2918 Y4.8828 
G01 X15.1893 Y4.8833 
G01 X15.0982 Y4.8456 
G01 X15.0955 Y4.8445 
G01 X15.0238 Y4.7727 
G01 X14.8951 Y4.4619 
G01 X14.8346 Y4.4014 
G01 X14.7460 Y4.3128 
G01 X14.5881 Y4.1549 
G01 X14.1870 Y3.9888 
G01 X13.7530 Y3.9888 
G01 X13.3519 Y4.1549 
G01 X13.1054 Y4.4014 
G01 X13.0449 Y4.4619 
G01 X12.9550 Y4.6790 
G01 X12.9173 Y4.7701 
G01 X12.9162 Y4.7727 
G01 X12.8445 Y4.8445 
G01 X12.7518 Y4.8828 
G01 X12.6493 Y4.8833 
G01 X12.5582 Y4.8456 
G01 X12.5555 Y4.8445 
G01 X12.4838 Y4.7727 
G01 X12.3551 Y4.4619 
G01 X12.2946 Y4.4014 
G01 X12.2060 Y4.3128 
G01 X12.0481 Y4.1549 
G01 X11.6470 Y3.9888 
G01 X11.2130 Y3.9888 
G01 X10.8119 Y4.1549 
G01 X10.5049 Y4.4619 
G01 X10.4150 Y4.6790 
G01 X10.3773 Y4.7701 
G01 X10.3762 Y4.7727 
G01 X10.3045 Y4.8445 
G01 X10.2118 Y4.8828 
G01 X10.1093 Y4.8833 
G01 X10.0182 Y4.8456 
G01 X10.0155 Y4.8445 
G01 X9.9438 Y4.7727 
G01 X9.8151 Y4.4619 
G01 X9.7546 Y4.4014 
G01 X9.6660 Y4.3128 
G01 X9.5081 Y4.1549 
G01 X9.1070 Y3.9888 
G01 X8.6730 Y3.9888 
G01 X8.2719 Y4.1549 
G01 X7.9649 Y4.4619 
G01 X7.8750 Y4.6790 
G01 X7.8373 Y4.7701 
G01 X7.8362 Y4.7727 
G01 X7.7645 Y4.8445 
G01 X7.6718 Y4.8828 
G01 X7.5693 Y4.8833 
G01 X7.4782 Y4.8456 
G01 X7.4755 Y4.8445 
G01 X7.4038 Y4.7727 
G01 X7.2751 Y4.4619 
G01 X7.2146 Y4.4014 
G01 X7.1260 Y4.3128 
G01 X6.9681 Y4.1549 
G01 X6.5670 Y3.9888 
G01 X6.1330 Y3.9888 
G01 X5.7319 Y4.1549 
G01 X5.4249 Y4.4619 
G01 X5.2588 Y4.8630 
G01 X5.2588 Y5.2970 
G01 X5.4249 Y5.6981 
G01 X5.7319 Y6.0051 
G01 X6.1330 Y6.1712 
G01 X6.5670 Y6.1712 
G01 X6.9681 Y6.0051 
G01 X7.1260 Y5.8472 
G01 X7.2146 Y5.7586 
G01 X7.2751 Y5.6981 
G01 X7.4038 Y5.3873 
G01 X7.4755 Y5.3155 
G01 X7.5693 Y5.2767 
G01 X7.6707 Y5.2767 
G01 X7.7645 Y5.3155 
G01 X7.8362 Y5.3873 
G01 X7.8750 Y5.4810 
G01 X7.9649 Y5.6981 
G01 X8.0254 Y5.7586 
G01 X8.2719 Y6.0051 
G01 X8.6730 Y6.1712 
G01 X9.1070 Y6.1712 
G01 X9.5081 Y6.0051 
G01 X9.6660 Y5.8472 
G01 X9.7546 Y5.7586 
G01 X9.8151 Y5.6981 
G01 X9.9438 Y5.3873 
G01 X10.0155 Y5.3155 
G01 X10.1093 Y5.2767 
G01 X10.2107 Y5.2767 
G01 X10.3045 Y5.3155 
G01 X10.3762 Y5.3873 
G01 X10.4150 Y5.4810 
G01 X10.5049 Y5.6981 
G01 X10.8119 Y6.0051 
G01 X10.8210 Y6.0088 
G01 X11.2129 Y6.1712 
G01 X11.6470 Y6.1712 
G01 X12.0481 Y6.0051 
G01 X12.2060 Y5.8472 
G01 X12.2946 Y5.7586 
G01 X12.3551 Y5.6981 
G01 X12.4838 Y5.3873 
G01 X12.5555 Y5.3155 
G01 X12.6493 Y5.2767 
G01 X12.7507 Y5.2767 
G01 X12.8445 Y5.3155 
G01 X12.9162 Y5.3873 
G01 X12.9550 Y5.4810 
G01 X13.0449 Y5.6981 
G01 X13.1054 Y5.7586 
G01 X13.3519 Y6.0051 
G01 X13.7530 Y6.1712 
G01 X14.1870 Y6.1712 
G01 X14.5881 Y6.0051 
G01 X14.7460 Y5.8472 
G01 X14.8346 Y5.7586 
G01 X14.8951 Y5.6981 
G01 X15.0238 Y5.3873 
G01 X15.0955 Y5.3155 
G01 X15.1893 Y5.2767 
G01 X15.2907 Y5.2767 
G01 X15.3845 Y5.3155 
G01 X15.4562 Y5.3873 
G01 X15.4950 Y5.4810 
G01 X15.5849 Y5.6981 
G01 X15.6454 Y5.7586 
G01 X15.8919 Y6.0051 
G01 X16.2930 Y6.1712 
G01 X16.7270 Y6.1712 
G01 X17.1281 Y6.0051 
G01 X17.2860 Y5.8472 
G01 X17.3746 Y5.7586 
G01 X17.4351 Y5.6981 
G01 X17.5638 Y5.3873 
G01 X17.6355 Y5.3155 
G01 X17.7293 Y5.2767 
G01 X17.8307 Y5.2767 
G01 X17.9245 Y5.3155 
G01 X17.9962 Y5.3873 
G01 X18.0350 Y5.4810 
G01 X18.1249 Y5.6981 
G01 X18.1854 Y5.7586 
G01 X18.4319 Y6.0051 
G01 X18.6357 Y6.0895 
G01 X18.7074 Y6.1612 
G01 X18.7462 Y6.2549 
G01 X18.7462 Y14.9893 
G01 X18.7074 Y15.0830 
G01 X18.6357 Y15.1547 
G01 X18.6106 Y15.1798 
G01 X18.5169 Y15.2186 
G01 X18.0760 Y15.2186 
G01 X17.9946 Y15.2523 
G01 X17.9323 Y15.3146 
G01 X17.8986 Y15.3960 
G01 X17.8986 Y15.6776 
G01 X17.9025 Y15.6973 
G01 X17.9025 Y15.7596 
G01 X17.9025 Y15.8226 
G01 X17.8986 Y15.8423 
G01 X17.8986 Y16.1776 
G01 X17.9025 Y16.1973 
G01 X17.9025 Y16.2596 
G01 X17.9025 Y16.3226 
G01 X17.8986 Y16.3423 
G01 X17.8986 Y16.5756 
G01 X17.9031 Y16.5921 
G01 X17.8986 Y16.6259 
G01 X17.8986 Y16.6547 
G01 X17.9055 Y16.6662 
G01 X17.9300 Y16.7019 
G01 X18.0407 Y16.8138 
G01 X18.6064 Y16.8138 
G01 X18.6347 Y16.8255 
G01 X18.6565 Y16.8473 
G01 X18.6782 Y16.8690 
G01 X19.3141 Y16.8690 
G01 X19.3402 Y16.8798 
G01 X19.3602 Y16.8998 
G01 X19.3710 Y16.9259 
G01 X19.3710 Y17.0941 
G01 X19.3602 Y17.1202 
G01 X19.3402 Y17.1402 
G01 X19.3141 Y17.1510 
G01 X18.1059 Y17.1510 
G01 X18.0956 Y17.1468 
G01 X18.0925 Y17.1545 
G01 X18.0648 Y17.1822 
G01 X18.0397 Y17.2122 
G01 X18.0292 Y17.2178 
G01 X18.0207 Y17.2262 
G01 X17.9845 Y17.2412 
G01 X17.9576 Y17.2553 
G01 X17.9534 Y17.2642 
G01 X17.9373 Y17.3044 
G01 X17.9352 Y17.3077 
G01 X17.9337 Y17.3113 
G01 X17.9250 Y17.3242 
G01 X17.9184 Y17.3383 
G01 X17.8986 Y17.3650 
G01 X17.8986 Y17.3941 
G01 X17.9031 Y17.4278 
G01 X17.8986 Y17.4444 
G01 X17.8986 Y17.6240 
G01 X17.9323 Y17.7054 
G01 X17.9946 Y17.7677 
G01 X18.0760 Y17.8014 
G01 X18.5169 Y17.8014 
G01 X18.6106 Y17.8402 
G01 X18.6823 Y17.9119 
G01 X18.7138 Y17.9434 
G01 X18.8023 Y18.0320 
G01 X19.8357 Y19.0653 
G01 X19.8587 Y19.0883 
G01 X20.0779 Y19.3075 
G01 X20.1896 Y19.3538 
G01 X20.7273 Y19.3538 
G01 X20.7899 Y19.3538 
G01 X21.1043 Y19.3538 
G01 X21.1981 Y19.3926 
G01 X21.2698 Y19.4643 
G01 X21.3086 Y19.5581 
G01 X21.3086 Y19.6127 
G01 X21.3255 Y19.6296 
G01 X21.3695 Y19.6736 
G01 X21.3973 Y19.7014 
G01 X22.6227 Y19.7014 
G01 X22.6438 Y19.6803 
G01 X22.7124 Y19.6117 
G01 X22.7155 Y19.6085 
G01 X22.8093 Y19.5697 
G01 X22.9107 Y19.5697 
G01 X22.9484 Y19.5853 
G01 X23.0045 Y19.6085 
G01 X23.0762 Y19.6803 
G01 X23.0973 Y19.7014 
G01 X24.3227 Y19.7014 
G01 X24.4791 Y19.5450 
G01 X24.5728 Y19.5062 
G01 X27.7243 Y19.5062 
G01 X27.8181 Y19.5450 
G01 X27.8898 Y19.6167 
G01 X27.9286 Y19.7105 
G01 X27.9286 Y20.2344 
G01 X27.8898 Y20.3281 
G01 X27.8181 Y20.3998 
G01 X27.4531 Y20.7648 
G01 X27.3594 Y20.8036 
G01 X18.9485 Y20.8036 
G01 X18.8860 Y20.8036 
G01 X18.6773 Y20.8036 
G01 X18.6232 Y20.7812 
G01 X18.5836 Y20.7648 
G01 X18.5160 Y20.6971 
G01 X18.3109 Y20.6122 
G01 X18.0890 Y20.6122 
G01 X17.8840 Y20.6971 
G01 X17.8175 Y20.7637 
G01 X17.7783 Y20.7805 
G01 X17.7227 Y20.8036 
G01 X17.6236 Y20.8036 
G01 X17.3345 Y20.9233 
G01 X17.1133 Y21.1445 
G01 X16.9936 Y21.4336 
G01 X16.9936 Y21.5327 
G01 X16.9548 Y21.6264 
G01 X16.8831 Y21.6981 
G01 X16.7798 Y21.8013 
G01 X16.7630 Y21.8181 
G01 X16.3178 Y22.2634 
G01 X16.2241 Y22.3022 
G01 X14.7419 Y22.3022 
G01 X14.6508 Y22.2645 
G01 X14.6481 Y22.2634 
G01 X14.5764 Y22.1917 
G01 X14.5450 Y22.1602 
G01 X14.4806 Y22.0958 
G01 X14.1493 Y21.9586 
G01 X13.9123 Y21.9586 
G01 X13.8186 Y21.9198 
G01 X13.8121 Y21.9133 
G01 X13.4699 Y21.5711 
G01 X13.4047 Y21.5059 
G01 X13.3982 Y21.4994 
G01 X13.3594 Y21.4057 
G01 X13.3594 Y21.1757 
G01 X13.3982 Y21.0819 
G01 X13.4699 Y21.0102 
G01 X13.5637 Y20.9714 
G01 X13.7327 Y20.9714 
G01 X13.7538 Y20.9503 
G01 X13.8224 Y20.8817 
G01 X13.8255 Y20.8785 
G01 X13.9193 Y20.8397 
G01 X14.0207 Y20.8397 
G01 X14.0584 Y20.8553 
G01 X14.1145 Y20.8785 
G01 X14.1862 Y20.9503 
G01 X14.2073 Y20.9714 
G01 X15.4001 Y20.9714 
G01 X15.4557 Y20.9483 
G01 X15.4983 Y20.9057 
G01 X15.5214 Y20.8501 
G01 X15.5214 Y20.4984 
G01 X15.5399 Y20.4051 
G01 X15.5438 Y20.3858 
G01 X15.5438 Y20.2542 
G01 X15.5392 Y20.2314 
G01 X15.5214 Y20.1416 
G01 X15.5214 Y19.7899 
G01 X15.4983 Y19.7342 
G01 X15.4558 Y19.6917 
G01 X15.4001 Y19.6686 
G01 X15.0731 Y19.6686 
G01 X14.9794 Y19.6298 
G01 X14.9077 Y19.5581 
G01 X14.8762 Y19.5266 
G01 X14.7877 Y19.4380 
G01 X14.4158 Y19.0662 
G01 X14.3126 Y18.9630 
G01 X14.2738 Y18.8693 
G01 X14.2738 Y18.0307 
G01 X14.3126 Y17.9370 
G01 X14.3843 Y17.8653 
G01 X14.4094 Y17.8402 
G01 X14.5031 Y17.8014 
G01 X14.9440 Y17.8014 
G01 X15.0254 Y17.7677 
G01 X15.0877 Y17.7054 
G01 X15.1214 Y17.6240 
G01 X15.1214 Y17.3424 
G01 X15.1175 Y17.3227 
G01 X15.1175 Y17.2604 
G01 X15.1175 Y17.1974 
G01 X15.1214 Y17.1777 
G01 X15.1214 Y16.8424 
G01 X15.1175 Y16.8227 
G01 X15.1175 Y16.7604 
G01 X15.1175 Y16.6974 
G01 X15.1214 Y16.6777 
G01 X15.1214 Y16.4444 
G01 X15.1169 Y16.4278 
G01 X15.1214 Y16.3941 
G01 X15.1214 Y16.3671 
G01 X15.1198 Y16.3643 
G01 X15.1091 Y16.3505 
G01 X15.0989 Y16.3302 
G01 X15.0863 Y16.3113 
G01 X15.0776 Y16.2903 
G01 X15.0664 Y16.2706 
G01 X15.0608 Y16.2540 
G01 X15.0594 Y16.2511 
G01 X15.0240 Y16.2408 
G01 X15.0127 Y16.2318 
G01 X14.9993 Y16.2262 
G01 X14.9734 Y16.2003 
G01 X14.9448 Y16.1774 
G01 X14.9378 Y16.1647 
G01 X14.9275 Y16.1545 
G01 X14.9244 Y16.1468 
G01 X14.9141 Y16.1510 
G00 Z2.5400 
G00 X23.6110 Y44.3760 
G01 Z-0.0200 F254.00 
G01 X23.6110 Y44.5240 F300.00 
G01 X23.5822 Y44.6691 
G01 X23.5255 Y44.8057 
G01 X23.4434 Y44.9287 
G01 X23.3387 Y45.0334 
G01 X23.2157 Y45.1155 
G01 X23.0791 Y45.1722 
G01 X22.9340 Y45.2010 
G01 X22.7860 Y45.2010 
G01 X22.6409 Y45.1722 
G01 X22.5043 Y45.1155 
G01 X22.3813 Y45.0334 
G01 X22.2766 Y44.9287 
G01 X22.1945 Y44.8057 
G01 X22.1378 Y44.6691 
G01 X22.1090 Y44.5240 
G01 X22.1090 Y44.3760 
G01 X22.1378 Y44.2309 
G01 X22.1945 Y44.0943 
G01 X22.2766 Y43.9713 
G01 X22.3813 Y43.8666 
G01 X22.5043 Y43.7845 
G01 X22.6050 Y43.7427 
G01 X22.6050 Y42.1650 
G01 X21.2387 Y42.1650 
G01 X21.2387 Y42.2100 
G01 X19.2687 Y42.2106 
G01 X19.2681 Y41.6100 
G01 X21.2381 Y41.6094 
G01 X21.2387 Y41.6550 
G01 X22.9107 Y41.6550 
G01 X23.0045 Y41.6938 
G01 X23.0762 Y41.7655 
G01 X23.1150 Y41.8593 
G01 X23.1150 Y43.7427 
G01 X23.2157 Y43.7845 
G01 X23.3387 Y43.8666 
G01 X23.4434 Y43.9713 
G01 X23.5255 Y44.0943 
G01 X23.5822 Y44.2309 
G01 X23.6110 Y44.3760 
G00 Z2.5400 
G00 X27.4210 Y12.6260 
G01 Z-0.0200 F254.00 
G01 X27.4210 Y12.7740 F300.00 
G01 X27.3922 Y12.9191 
G01 X27.3355 Y13.0557 
G01 X27.3060 Y13.0999 
G01 X27.3060 Y14.7310 
G01 X45.7870 Y14.7310 
G01 X45.9165 Y14.7657 
G01 X46.0325 Y14.8327 
G01 X49.9373 Y18.7375 
G01 X50.0043 Y18.8535 
G01 X50.0390 Y18.9830 
G01 X50.0390 Y50.3388 
G01 X50.1297 Y50.3994 
G01 X50.2608 Y50.5305 
G01 X50.3637 Y50.6846 
G01 X50.4347 Y50.8558 
G01 X50.4708 Y51.0375 
G01 X50.4708 Y53.1025 
G01 X50.4347 Y53.2842 
G01 X50.3637 Y53.4554 
G01 X50.2608 Y53.6095 
G01 X50.1297 Y53.7406 
G01 X49.9756 Y53.8435 
G01 X49.8044 Y53.9145 
G01 X49.6227 Y53.9506 
G01 X49.4373 Y53.9506 
G01 X49.2556 Y53.9145 
G01 X49.0844 Y53.8435 
G01 X48.9303 Y53.7406 
G01 X48.7992 Y53.6095 
G01 X48.6963 Y53.4554 
G01 X48.6253 Y53.2842 
G01 X48.5892 Y53.1025 
G01 X48.5892 Y51.0375 
G01 X48.6253 Y50.8558 
G01 X48.6963 Y50.6846 
G01 X48.7992 Y50.5305 
G01 X48.9303 Y50.3994 
G01 X49.0210 Y50.3388 
G01 X49.0210 Y19.2608 
G01 X45.5092 Y15.7490 
G01 X27.8785 Y15.7490 
G01 X29.2784 Y17.1490 
G01 X29.9804 Y17.1490 
G01 X29.9810 Y18.4504 
G01 X28.0796 Y18.4510 
G01 X28.0790 Y17.7484 
G01 X26.2646 Y15.9340 
G01 X26.1760 Y15.8454 
G01 X26.1064 Y15.7413 
G01 X26.0584 Y15.6255 
G01 X26.0340 Y15.5026 
G01 X26.0340 Y13.0999 
G01 X26.0045 Y13.0557 
G01 X25.9478 Y12.9191 
G01 X25.9190 Y12.7740 
G01 X25.9190 Y12.6260 
G01 X25.9478 Y12.4809 
G01 X26.0045 Y12.3443 
G01 X26.0866 Y12.2213 
G01 X26.1913 Y12.1166 
G01 X26.3143 Y12.0345 
G01 X26.4509 Y11.9778 
G01 X26.5960 Y11.9490 
G01 X26.7440 Y11.9490 
G01 X26.8891 Y11.9778 
G01 X27.0257 Y12.0345 
G01 X27.1487 Y12.1166 
G01 X27.2534 Y12.2213 
G01 X27.3355 Y12.3443 
G01 X27.3922 Y12.4809 
G01 X27.4210 Y12.6260 
G00 Z2.5400 
G00 X12.3194 Y15.0866 
G01 Z-0.0200 F254.00 
G01 X12.3805 Y15.0866 F300.00 
G01 X12.4369 Y15.1099 
G01 X13.6283 Y16.3014 
G01 X14.2853 Y16.3014 
G01 X14.3417 Y16.3247 
G01 X14.3849 Y16.3679 
G01 X14.9141 Y16.3690 
G01 X14.9402 Y16.3798 
G01 X14.9602 Y16.3998 
G01 X14.9710 Y16.4259 
G01 X14.9710 Y16.5941 
G01 X14.9602 Y16.6202 
G01 X14.9402 Y16.6402 
G01 X14.9141 Y16.6510 
G01 X14.3704 Y16.6510 
G01 X14.3405 Y16.6634 
G01 X14.2795 Y16.6634 
G01 X14.2495 Y16.6510 
G01 X13.7059 Y16.6510 
G01 X13.6798 Y16.6402 
G01 X13.6598 Y16.6202 
G01 X13.6548 Y16.6082 
G01 X13.5342 Y16.6082 
G01 X13.4778 Y16.5849 
G01 X12.2864 Y15.3934 
G01 X11.3995 Y15.3934 
G01 X11.3431 Y15.3701 
G01 X10.9231 Y14.9501 
G01 X10.8799 Y14.9069 
G01 X10.8566 Y14.8505 
G01 X10.8566 Y14.4710 
G01 X10.4596 Y14.4710 
G01 X10.4590 Y13.4696 
G01 X11.5604 Y13.4690 
G01 X11.5610 Y14.4704 
G01 X11.1634 Y14.4710 
G01 X11.1634 Y14.7565 
G01 X11.4935 Y15.0866 
G01 X12.3194 Y15.0866 
G00 Z2.5400 
G00 X52.8210 Y46.9160 
G01 Z-0.0200 F254.00 
G01 X52.8210 Y47.0640 F300.00 
G01 X52.7922 Y47.2091 
G01 X52.7355 Y47.3457 
G01 X52.7060 Y47.3899 
G01 X52.7060 Y50.4357 
G01 X52.8008 Y50.5305 
G01 X52.9037 Y50.6846 
G01 X52.9747 Y50.8558 
G01 X53.0108 Y51.0375 
G01 X53.0108 Y53.1025 
G01 X52.9747 Y53.2842 
G01 X52.9037 Y53.4554 
G01 X52.8008 Y53.6095 
G01 X52.6697 Y53.7406 
G01 X52.5156 Y53.8435 
G01 X52.3444 Y53.9145 
G01 X52.1627 Y53.9506 
G01 X51.9773 Y53.9506 
G01 X51.7956 Y53.9145 
G01 X51.6244 Y53.8435 
G01 X51.4703 Y53.7406 
G01 X51.3392 Y53.6095 
G01 X51.2363 Y53.4554 
G01 X51.1653 Y53.2842 
G01 X51.1292 Y53.1025 
G01 X51.1292 Y51.0375 
G01 X51.1653 Y50.8558 
G01 X51.2363 Y50.6846 
G01 X51.3392 Y50.5305 
G01 X51.4340 Y50.4357 
G01 X51.4340 Y47.3899 
G01 X51.4045 Y47.3457 
G01 X51.3478 Y47.2091 
G01 X51.3190 Y47.0640 
G01 X51.3190 Y46.9160 
G01 X51.3478 Y46.7709 
G01 X51.4045 Y46.6343 
G01 X51.4340 Y46.5901 
G01 X51.4340 Y43.5799 
G01 X51.4045 Y43.5357 
G01 X51.3478 Y43.3991 
G01 X51.3190 Y43.2540 
G01 X51.3190 Y43.1060 
G01 X51.3478 Y42.9609 
G01 X51.4045 Y42.8243 
G01 X51.4340 Y42.7801 
G01 X51.4340 Y39.7699 
G01 X51.4045 Y39.7257 
G01 X51.3478 Y39.5891 
G01 X51.3190 Y39.4440 
G01 X51.3190 Y39.2960 
G01 X51.3478 Y39.1509 
G01 X51.4045 Y39.0143 
G01 X51.4866 Y38.8913 
G01 X51.5913 Y38.7866 
G01 X51.7143 Y38.7045 
G01 X51.8509 Y38.6478 
G01 X51.9960 Y38.6190 
G01 X52.1440 Y38.6190 
G01 X52.2891 Y38.6478 
G01 X52.4257 Y38.7045 
G01 X52.5487 Y38.7866 
G01 X52.6534 Y38.8913 
G01 X52.7355 Y39.0143 
G01 X52.7922 Y39.1509 
G01 X52.8210 Y39.2960 
G01 X52.8210 Y39.4440 
G01 X52.7922 Y39.5891 
G01 X52.7355 Y39.7257 
G01 X52.7060 Y39.7699 
G01 X52.7060 Y42.7801 
G01 X52.7355 Y42.8243 
G01 X52.7922 Y42.9609 
G01 X52.8210 Y43.1060 
G01 X52.8210 Y43.2540 
G01 X52.7922 Y43.3991 
G01 X52.7355 Y43.5357 
G01 X52.7060 Y43.5799 
G01 X52.7060 Y46.5901 
G01 X52.7355 Y46.6343 
G01 X52.7922 Y46.7709 
G01 X52.8210 Y46.9160 
G00 Z2.5400 
G00 X12.1282 Y15.8071 
G01 Z-0.0200 F254.00 
G01 X12.1282 Y15.8071 F300.00 
G01 X12.1778 Y15.8566 
G01 X12.1871 Y15.8791 
G01 X12.1871 Y15.9033 
G01 X12.1833 Y15.9124 
G01 X12.1778 Y15.9258 
G01 X12.1606 Y15.9429 
G01 X12.1382 Y15.9522 
G01 X12.0143 Y15.9522 
G01 X11.9918 Y15.9429 
G01 X11.9747 Y15.9258 
G01 X11.9654 Y15.9033 
G01 X11.9654 Y15.8467 
G01 X11.9747 Y15.8242 
G01 X11.9918 Y15.8071 
G01 X12.0143 Y15.7978 
G01 X12.1058 Y15.7978 
G01 X12.1153 Y15.8017 
G01 X12.1282 Y15.8071 
G00 Z2.5400 
G00 X13.4122 Y19.1610 
G01 Z-0.0200 F254.00 
G01 X13.4870 Y19.3415 F300.00 
G01 X13.4870 Y19.3657 
G01 X13.4777 Y19.3882 
G01 X13.4605 Y19.4053 
G01 X13.4381 Y19.4146 
G01 X12.9010 Y19.4146 
G01 X12.8817 Y19.4066 
G01 X12.7215 Y19.4066 
G01 X12.6990 Y19.3973 
G01 X12.6819 Y19.3802 
G01 X11.9827 Y18.6810 
G01 X11.9734 Y18.6585 
G01 X11.9734 Y17.1167 
G01 X11.9827 Y17.0942 
G01 X11.9998 Y17.0771 
G01 X12.0223 Y17.0678 
G01 X12.4558 Y17.0678 
G01 X12.4782 Y17.0771 
G01 X12.4954 Y17.0942 
G01 X12.8840 Y17.4829 
G01 X13.0890 Y17.5678 
G01 X13.1957 Y17.5678 
G01 X13.2182 Y17.5771 
G01 X13.2353 Y17.5942 
G01 X13.2446 Y17.6167 
G01 X13.2446 Y17.7769 
G01 X13.4029 Y17.9352 
G01 X13.4122 Y17.9576 
G01 X13.4122 Y17.9819 
G01 X13.4122 Y19.1610 
G00 Z2.5400 
G00 X23.8662 Y40.0387 
G01 Z-0.0200 F254.00 
G01 X27.2082 Y43.3807 F300.00 
G01 X27.2082 Y43.3807 
G01 X27.2253 Y43.3978 
G01 X27.2346 Y43.4203 
G01 X27.2346 Y43.9469 
G01 X27.2253 Y43.9694 
G01 X27.2082 Y43.9865 
G01 X27.1857 Y43.9958 
G01 X27.1615 Y43.9958 
G01 X27.1390 Y43.9865 
G01 X27.1219 Y43.9694 
G01 X23.2775 Y40.1250 
G01 X23.2682 Y40.1025 
G01 X23.2682 Y40.0783 
G01 X23.2775 Y40.0558 
G01 X23.2946 Y40.0387 
G01 X23.3171 Y40.0294 
G01 X23.8437 Y40.0294 
G01 X23.8662 Y40.0387 
G00 Z2.5400 
G00 X7.2908 Y4.9873 
G01 Z-0.0200 F254.00 
G01 X7.2908 Y5.1727 F300.00 
G01 X7.2547 Y5.3544 
G01 X7.1837 Y5.5256 
G01 X7.0808 Y5.6797 
G01 X6.9497 Y5.8108 
G01 X6.7956 Y5.9137 
G01 X6.6244 Y5.9847 
G01 X6.4427 Y6.0208 
G01 X6.2573 Y6.0208 
G01 X6.0756 Y5.9847 
G01 X5.9044 Y5.9137 
G01 X5.7503 Y5.8108 
G01 X5.6192 Y5.6797 
G01 X5.5163 Y5.5256 
G01 X5.4453 Y5.3544 
G01 X5.4092 Y5.1727 
G01 X5.4092 Y4.9873 
G01 X5.4453 Y4.8056 
G01 X5.5163 Y4.6344 
G01 X5.6192 Y4.4803 
G01 X5.7503 Y4.3492 
G01 X5.9044 Y4.2463 
G01 X6.0756 Y4.1753 
G01 X6.2573 Y4.1392 
G01 X6.4427 Y4.1392 
G01 X6.6244 Y4.1753 
G01 X6.7956 Y4.2463 
G01 X6.9497 Y4.3492 
G01 X7.0808 Y4.4803 
G01 X7.1837 Y4.6344 
G01 X7.2547 Y4.8056 
G01 X7.2908 Y4.9873 
G00 Z2.5400 
G00 X9.8308 Y4.9873 
G01 Z-0.0200 F254.00 
G01 X9.8308 Y5.1727 F300.00 
G01 X9.7947 Y5.3544 
G01 X9.7237 Y5.5256 
G01 X9.6208 Y5.6797 
G01 X9.4897 Y5.8108 
G01 X9.3356 Y5.9137 
G01 X9.1644 Y5.9847 
G01 X8.9827 Y6.0208 
G01 X8.7973 Y6.0208 
G01 X8.6156 Y5.9847 
G01 X8.4444 Y5.9137 
G01 X8.2903 Y5.8108 
G01 X8.1592 Y5.6797 
G01 X8.0563 Y5.5256 
G01 X7.9853 Y5.3544 
G01 X7.9492 Y5.1727 
G01 X7.9492 Y4.9873 
G01 X7.9853 Y4.8056 
G01 X8.0563 Y4.6344 
G01 X8.1592 Y4.4803 
G01 X8.2903 Y4.3492 
G01 X8.4444 Y4.2463 
G01 X8.6156 Y4.1753 
G01 X8.7973 Y4.1392 
G01 X8.9827 Y4.1392 
G01 X9.1644 Y4.1753 
G01 X9.3356 Y4.2463 
G01 X9.4897 Y4.3492 
G01 X9.6208 Y4.4803 
G01 X9.7237 Y4.6344 
G01 X9.7947 Y4.8056 
G01 X9.8308 Y4.9873 
G00 Z2.5400 
G00 X12.3708 Y4.9873 
G01 Z-0.0200 F254.00 
G01 X12.3708 Y5.1727 F300.00 
G01 X12.3347 Y5.3544 
G01 X12.2637 Y5.5256 
G01 X12.1608 Y5.6797 
G01 X12.0297 Y5.8108 
G01 X11.8756 Y5.9137 
G01 X11.7044 Y5.9847 
G01 X11.5227 Y6.0208 
G01 X11.3373 Y6.0208 
G01 X11.1556 Y5.9847 
G01 X10.9844 Y5.9137 
G01 X10.8303 Y5.8108 
G01 X10.6992 Y5.6797 
G01 X10.5963 Y5.5256 
G01 X10.5253 Y5.3544 
G01 X10.4892 Y5.1727 
G01 X10.4892 Y4.9873 
G01 X10.5253 Y4.8056 
G01 X10.5963 Y4.6344 
G01 X10.6992 Y4.4803 
G01 X10.8303 Y4.3492 
G01 X10.9844 Y4.2463 
G01 X11.1556 Y4.1753 
G01 X11.3373 Y4.1392 
G01 X11.5227 Y4.1392 
G01 X11.7044 Y4.1753 
G01 X11.8756 Y4.2463 
G01 X12.0297 Y4.3492 
G01 X12.1608 Y4.4803 
G01 X12.2637 Y4.6344 
G01 X12.3347 Y4.8056 
G01 X12.3708 Y4.9873 
G00 Z2.5400 
G00 X14.9108 Y4.9873 
G01 Z-0.0200 F254.00 
G01 X14.9108 Y5.1727 F300.00 
G01 X14.8747 Y5.3544 
G01 X14.8037 Y5.5256 
G01 X14.7008 Y5.6797 
G01 X14.5697 Y5.8108 
G01 X14.4156 Y5.9137 
G01 X14.2444 Y5.9847 
G01 X14.0627 Y6.0208 
G01 X13.8773 Y6.0208 
G01 X13.6956 Y5.9847 
G01 X13.5244 Y5.9137 
G01 X13.3703 Y5.8108 
G01 X13.2392 Y5.6797 
G01 X13.1363 Y5.5256 
G01 X13.0653 Y5.3544 
G01 X13.0292 Y5.1727 
G01 X13.0292 Y4.9873 
G01 X13.0653 Y4.8056 
G01 X13.1363 Y4.6344 
G01 X13.2392 Y4.4803 
G01 X13.3703 Y4.3492 
G01 X13.5244 Y4.2463 
G01 X13.6956 Y4.1753 
G01 X13.8773 Y4.1392 
G01 X14.0627 Y4.1392 
G01 X14.2444 Y4.1753 
G01 X14.4156 Y4.2463 
G01 X14.5697 Y4.3492 
G01 X14.7008 Y4.4803 
G01 X14.8037 Y4.6344 
G01 X14.8747 Y4.8056 
G01 X14.9108 Y4.9873 
G00 Z2.5400 
G00 X17.4508 Y4.9873 
G01 Z-0.0200 F254.00 
G01 X17.4508 Y5.1727 F300.00 
G01 X17.4147 Y5.3544 
G01 X17.3437 Y5.5256 
G01 X17.2408 Y5.6797 
G01 X17.1097 Y5.8108 
G01 X16.9556 Y5.9137 
G01 X16.7844 Y5.9847 
G01 X16.6027 Y6.0208 
G01 X16.4173 Y6.0208 
G01 X16.2356 Y5.9847 
G01 X16.0644 Y5.9137 
G01 X15.9103 Y5.8108 
G01 X15.7792 Y5.6797 
G01 X15.6763 Y5.5256 
G01 X15.6053 Y5.3544 
G01 X15.5692 Y5.1727 
G01 X15.5692 Y4.9873 
G01 X15.6053 Y4.8056 
G01 X15.6763 Y4.6344 
G01 X15.7792 Y4.4803 
G01 X15.9103 Y4.3492 
G01 X16.0644 Y4.2463 
G01 X16.2356 Y4.1753 
G01 X16.4173 Y4.1392 
G01 X16.6027 Y4.1392 
G01 X16.7844 Y4.1753 
G01 X16.9556 Y4.2463 
G01 X17.1097 Y4.3492 
G01 X17.2408 Y4.4803 
G01 X17.3437 Y4.6344 
G01 X17.4147 Y4.8056 
G01 X17.4508 Y4.9873 
G00 Z2.5400 
G00 X19.9908 Y4.9873 
G01 Z-0.0200 F254.00 
G01 X19.9908 Y5.1727 F300.00 
G01 X19.9547 Y5.3544 
G01 X19.8837 Y5.5256 
G01 X19.7808 Y5.6797 
G01 X19.6497 Y5.8108 
G01 X19.4956 Y5.9137 
G01 X19.3244 Y5.9847 
G01 X19.2034 Y6.0087 
G01 X19.2034 Y15.2005 
G01 X19.1801 Y15.2569 
G01 X19.1369 Y15.3001 
G01 X19.0680 Y15.3690 
G01 X19.3141 Y15.3690 
G01 X19.3402 Y15.3798 
G01 X19.3602 Y15.3998 
G01 X19.3710 Y15.4259 
G01 X19.3710 Y15.5941 
G01 X19.3602 Y15.6202 
G01 X19.3402 Y15.6402 
G01 X19.3141 Y15.6510 
G01 X18.7705 Y15.6510 
G01 X18.7405 Y15.6634 
G01 X18.6795 Y15.6634 
G01 X18.6495 Y15.6510 
G01 X18.1059 Y15.6510 
G01 X18.0798 Y15.6402 
G01 X18.0598 Y15.6202 
G01 X18.0490 Y15.5941 
G01 X18.0490 Y15.4259 
G01 X18.0598 Y15.3998 
G01 X18.0798 Y15.3798 
G01 X18.1059 Y15.3690 
G01 X18.6341 Y15.3690 
G01 X18.8966 Y15.1065 
G01 X18.8966 Y6.0087 
G01 X18.7756 Y5.9847 
G01 X18.6044 Y5.9137 
G01 X18.4503 Y5.8108 
G01 X18.3192 Y5.6797 
G01 X18.2163 Y5.5256 
G01 X18.1453 Y5.3544 
G01 X18.1092 Y5.1727 
G01 X18.1092 Y4.9873 
G01 X18.1453 Y4.8056 
G01 X18.2163 Y4.6344 
G01 X18.3192 Y4.4803 
G01 X18.4503 Y4.3492 
G01 X18.6044 Y4.2463 
G01 X18.7756 Y4.1753 
G01 X18.9573 Y4.1392 
G01 X19.1427 Y4.1392 
G01 X19.3244 Y4.1753 
G01 X19.4956 Y4.2463 
G01 X19.6497 Y4.3492 
G01 X19.7808 Y4.4803 
G01 X19.8837 Y4.6344 
G01 X19.9547 Y4.8056 
G01 X19.9908 Y4.9873 
G00 Z2.5400 
G00 X22.5308 Y4.9873 
G01 Z-0.0200 F254.00 
G01 X22.5308 Y5.1727 F300.00 
G01 X22.4947 Y5.3544 
G01 X22.4237 Y5.5256 
G01 X22.3208 Y5.6797 
G01 X22.1897 Y5.8108 
G01 X22.0356 Y5.9137 
G01 X21.8644 Y5.9847 
G01 X21.7434 Y6.0087 
G01 X21.7434 Y15.2705 
G01 X21.7201 Y15.3269 
G01 X21.6769 Y15.3701 
G01 X20.9069 Y16.1401 
G01 X20.8505 Y16.1634 
G01 X18.6795 Y16.1634 
G01 X18.6495 Y16.1510 
G01 X18.1059 Y16.1510 
G01 X18.0798 Y16.1402 
G01 X18.0598 Y16.1202 
G01 X18.0490 Y16.0941 
G01 X18.0490 Y15.9259 
G01 X18.0598 Y15.8998 
G01 X18.0798 Y15.8798 
G01 X18.1059 Y15.8690 
G01 X18.6495 Y15.8690 
G01 X18.6795 Y15.8566 
G01 X20.7565 Y15.8566 
G01 X21.4366 Y15.1765 
G01 X21.4366 Y6.0087 
G01 X21.3156 Y5.9847 
G01 X21.1444 Y5.9137 
G01 X20.9903 Y5.8108 
G01 X20.8592 Y5.6797 
G01 X20.7563 Y5.5256 
G01 X20.6853 Y5.3544 
G01 X20.6492 Y5.1727 
G01 X20.6492 Y4.9873 
G01 X20.6853 Y4.8056 
G01 X20.7563 Y4.6344 
G01 X20.8592 Y4.4803 
G01 X20.9903 Y4.3492 
G01 X21.1444 Y4.2463 
G01 X21.3156 Y4.1753 
G01 X21.4973 Y4.1392 
G01 X21.6827 Y4.1392 
G01 X21.8644 Y4.1753 
G01 X22.0356 Y4.2463 
G01 X22.1897 Y4.3492 
G01 X22.3208 Y4.4803 
G01 X22.4237 Y4.6344 
G01 X22.4947 Y4.8056 
G01 X22.5308 Y4.9873 
G00 Z2.5400 
G00 X25.6190 Y29.3900 
G01 Z-0.0200 F254.00 
G01 X25.6190 Y29.0300 F300.00 
G01 X25.6420 Y28.9745 
G01 X25.6845 Y28.9320 
G01 X25.7400 Y28.9090 
G01 X27.4700 Y28.9090 
G01 X27.5255 Y28.9320 
G01 X27.5486 Y28.9550 
G01 X31.1990 Y28.9550 
G01 X31.1990 Y28.2896 
G01 X32.3004 Y28.2890 
G01 X32.3010 Y28.3826 
G01 X33.2712 Y28.3826 
G01 X38.5426 Y23.1112 
G01 X38.5426 Y19.6010 
G01 X38.4496 Y19.6010 
G01 X38.4490 Y18.4996 
G01 X39.4504 Y18.4990 
G01 X39.4510 Y19.6004 
G01 X39.3574 Y19.6010 
G01 X39.3574 Y23.3336 
G01 X39.3297 Y23.4373 
G01 X39.2760 Y23.5302 
G01 X33.7660 Y29.0402 
G01 X33.6902 Y29.1160 
G01 X33.5973 Y29.1697 
G01 X33.4936 Y29.1974 
G01 X32.3010 Y29.1974 
G01 X32.3010 Y29.2904 
G01 X31.6096 Y29.2910 
G01 X31.4745 Y29.4262 
G01 X31.3807 Y29.4650 
G01 X27.5486 Y29.4650 
G01 X27.5255 Y29.4880 
G01 X27.4700 Y29.5110 
G01 X25.7400 Y29.5110 
G01 X25.6845 Y29.4880 
G01 X25.6420 Y29.4455 
G01 X25.6190 Y29.3900 
G00 Z2.5400 
G00 X25.6190 Y33.2000 
G01 Z-0.0200 F254.00 
G01 X25.6190 Y32.8400 F300.00 
G01 X25.6420 Y32.7845 
G01 X25.6845 Y32.7420 
G01 X25.7400 Y32.7190 
G01 X27.4700 Y32.7190 
G01 X27.5255 Y32.7420 
G01 X27.5680 Y32.7845 
G01 X27.5910 Y32.8400 
G01 X27.5910 Y33.2000 
G01 X27.5680 Y33.2555 
G01 X27.5255 Y33.2980 
G01 X27.4700 Y33.3210 
G01 X25.7400 Y33.3210 
G01 X25.6845 Y33.2980 
G01 X25.6420 Y33.2555 
G01 X25.6190 Y33.2000 
G00 Z2.5400 
G00 X25.6190 Y34.4700 
G01 Z-0.0200 F254.00 
G01 X25.6190 Y34.1100 F300.00 
G01 X25.6420 Y34.0545 
G01 X25.6845 Y34.0120 
G01 X25.7400 Y33.9890 
G01 X27.4700 Y33.9890 
G01 X27.5255 Y34.0120 
G01 X27.5680 Y34.0545 
G01 X27.5910 Y34.1100 
G01 X27.5910 Y34.4700 
G01 X27.5680 Y34.5255 
G01 X27.5255 Y34.5680 
G01 X27.4700 Y34.5910 
G01 X25.7400 Y34.5910 
G01 X25.6845 Y34.5680 
G01 X25.6420 Y34.5255 
G01 X25.6190 Y34.4700 
G00 Z2.5400 
G00 X25.6190 Y35.7400 
G01 Z-0.0200 F254.00 
G01 X25.6190 Y35.3800 F300.00 
G01 X25.6420 Y35.3245 
G01 X25.6845 Y35.2820 
G01 X25.7400 Y35.2590 
G01 X27.4700 Y35.2590 
G01 X27.5255 Y35.2820 
G01 X27.5680 Y35.3245 
G01 X27.5910 Y35.3800 
G01 X27.5910 Y35.7400 
G01 X27.5680 Y35.7955 
G01 X27.5255 Y35.8380 
G01 X27.4700 Y35.8610 
G01 X25.7400 Y35.8610 
G01 X25.6845 Y35.8380 
G01 X25.6420 Y35.7955 
G01 X25.6190 Y35.7400 
G00 Z2.5400 
G00 X14.6695 Y10.6627 
G01 Z-0.0200 F254.00 
G01 X14.6695 Y11.8573 F300.00 
G01 X14.6689 Y11.8579 
G01 X14.1234 Y11.8579 
G01 X14.1234 Y15.1065 
G01 X14.3859 Y15.3690 
G01 X14.9141 Y15.3690 
G01 X14.9402 Y15.3798 
G01 X14.9602 Y15.3998 
G01 X14.9710 Y15.4259 
G01 X14.9710 Y15.5941 
G01 X14.9602 Y15.6202 
G01 X14.9402 Y15.6402 
G01 X14.9141 Y15.6510 
G01 X14.3704 Y15.6510 
G01 X14.3405 Y15.6634 
G01 X13.7695 Y15.6634 
G01 X13.7395 Y15.6510 
G01 X13.7059 Y15.6510 
G01 X13.6798 Y15.6402 
G01 X13.6598 Y15.6202 
G01 X13.6490 Y15.5941 
G01 X13.6490 Y15.5463 
G01 X13.6466 Y15.5405 
G01 X13.6466 Y15.4795 
G01 X13.6490 Y15.4737 
G01 X13.6490 Y15.4259 
G01 X13.6598 Y15.3998 
G01 X13.6798 Y15.3798 
G01 X13.7059 Y15.3690 
G01 X13.7395 Y15.3690 
G01 X13.7695 Y15.3566 
G01 X13.9396 Y15.3566 
G01 X13.8831 Y15.3001 
G01 X13.8399 Y15.2569 
G01 X13.8166 Y15.2005 
G01 X13.8166 Y11.8579 
G01 X13.2711 Y11.8579 
G01 X13.2705 Y10.6627 
G01 X14.6689 Y10.6621 
G00 Z2.5400 
G00 X18.1059 Y16.6510 
G01 Z-0.0200 F254.00 
G01 X18.0798 Y16.6402 F300.00 
G01 X18.0598 Y16.6202 
G01 X18.0490 Y16.5941 
G01 X18.0490 Y16.4259 
G01 X18.0598 Y16.3998 
G01 X18.0798 Y16.3798 
G01 X18.1059 Y16.3690 
G01 X18.6495 Y16.3690 
G01 X18.6795 Y16.3566 
G01 X21.5265 Y16.3566 
G01 X23.9766 Y13.9065 
G01 X23.9766 Y6.0087 
G01 X23.8556 Y5.9847 
G01 X23.6844 Y5.9137 
G01 X23.5303 Y5.8108 
G01 X23.3992 Y5.6797 
G01 X23.2963 Y5.5256 
G01 X23.2253 Y5.3544 
G01 X23.1892 Y5.1727 
G01 X23.1892 Y4.9873 
G01 X23.2253 Y4.8056 
G01 X23.2963 Y4.6344 
G01 X23.3992 Y4.4803 
G01 X23.5303 Y4.3492 
G01 X23.6844 Y4.2463 
G01 X23.8556 Y4.1753 
G01 X24.0373 Y4.1392 
G01 X24.2227 Y4.1392 
G01 X24.4044 Y4.1753 
G01 X24.5756 Y4.2463 
G01 X24.7297 Y4.3492 
G01 X24.8608 Y4.4803 
G01 X24.9637 Y4.6344 
G01 X25.0347 Y4.8056 
G01 X25.0708 Y4.9873 
G01 X25.0708 Y5.1727 
G01 X25.0347 Y5.3544 
G01 X24.9637 Y5.5256 
G01 X24.8608 Y5.6797 
G01 X24.7297 Y5.8108 
G01 X24.5756 Y5.9137 
G01 X24.4044 Y5.9847 
G01 X24.2834 Y6.0087 
G01 X24.2834 Y14.0005 
G01 X24.2601 Y14.0569 
G01 X24.2169 Y14.1001 
G01 X21.6769 Y16.6401 
G01 X21.6205 Y16.6634 
G01 X18.6795 Y16.6634 
G01 X18.6495 Y16.6510 
G01 X18.1059 Y16.6510 
G00 Z2.5400 
G00 X19.3710 Y17.4259 
G01 Z-0.0200 F254.00 
G01 X19.3710 Y17.5941 F300.00 
G01 X19.3602 Y17.6202 
G01 X19.3402 Y17.6402 
G01 X19.3141 Y17.6510 
G01 X19.0680 Y17.6510 
G01 X20.3135 Y18.8966 
G01 X21.4590 Y18.8966 
G01 X21.4590 Y18.5496 
G01 X22.5604 Y18.5490 
G01 X22.5610 Y19.5504 
G01 X21.4596 Y19.5510 
G01 X21.4590 Y19.2034 
G01 X20.2195 Y19.2034 
G01 X20.1631 Y19.1801 
G01 X20.1199 Y19.1369 
G01 X18.6341 Y17.6510 
G01 X18.1059 Y17.6510 
G01 X18.0798 Y17.6402 
G01 X18.0598 Y17.6202 
G01 X18.0490 Y17.5941 
G01 X18.0490 Y17.4259 
G01 X18.0598 Y17.3998 
G01 X18.0798 Y17.3798 
G01 X18.1059 Y17.3690 
G01 X18.6495 Y17.3690 
G01 X18.6795 Y17.3566 
G01 X18.7405 Y17.3566 
G01 X18.7705 Y17.3690 
G01 X19.3141 Y17.3690 
G01 X19.3402 Y17.3798 
G01 X19.3602 Y17.3998 
G01 X19.3710 Y17.4259 
G00 Z2.5400 
G00 X28.1200 Y44.2310 
G01 Z-0.0200 F254.00 
G01 X27.7600 Y44.2310 F300.00 
G01 X27.7045 Y44.2080 
G01 X27.6620 Y44.1655 
G01 X27.6390 Y44.1100 
G01 X27.6390 Y43.2396 
G01 X24.0244 Y39.6250 
G01 X21.2387 Y39.6250 
G01 X21.2387 Y39.6700 
G01 X19.2687 Y39.6706 
G01 X19.2681 Y39.0700 
G01 X21.2381 Y39.0694 
G01 X21.2387 Y39.1150 
G01 X24.1807 Y39.1150 
G01 X24.2745 Y39.1538 
G01 X27.6390 Y42.5183 
G01 X27.6390 Y42.3800 
G01 X27.6620 Y42.3245 
G01 X27.7045 Y42.2820 
G01 X27.7600 Y42.2590 
G01 X28.1200 Y42.2590 
G01 X28.1755 Y42.2820 
G01 X28.2180 Y42.3245 
G01 X28.2410 Y42.3800 
G01 X28.2410 Y44.1100 
G01 X28.2180 Y44.1655 
G01 X28.1755 Y44.2080 
G01 X28.1200 Y44.2310 
G00 Z2.5400 
G00 X29.3900 Y44.2310 
G01 Z-0.0200 F254.00 
G01 X29.0300 Y44.2310 F300.00 
G01 X28.9745 Y44.2080 
G01 X28.9320 Y44.1655 
G01 X28.9090 Y44.1100 
G01 X28.9090 Y42.3800 
G01 X28.9320 Y42.3245 
G01 X28.9745 Y42.2820 
G01 X29.0300 Y42.2590 
G01 X29.3900 Y42.2590 
G01 X29.4455 Y42.2820 
G01 X29.4880 Y42.3245 
G01 X29.5110 Y42.3800 
G01 X29.5110 Y44.1100 
G01 X29.4880 Y44.1655 
G01 X29.4455 Y44.2080 
G01 X29.3900 Y44.2310 
G00 Z2.5400 
G00 X31.9300 Y44.2310 
G01 Z-0.0200 F254.00 
G01 X31.5700 Y44.2310 F300.00 
G01 X31.5145 Y44.2080 
G01 X31.4720 Y44.1655 
G01 X31.4490 Y44.1100 
G01 X31.4490 Y42.3800 
G01 X31.4720 Y42.3245 
G01 X31.5145 Y42.2820 
G01 X31.5700 Y42.2590 
G01 X31.9300 Y42.2590 
G01 X31.9855 Y42.2820 
G01 X32.0280 Y42.3245 
G01 X32.0510 Y42.3800 
G01 X32.0510 Y44.1100 
G01 X32.0280 Y44.1655 
G01 X31.9855 Y44.2080 
G01 X31.9300 Y44.2310 
G00 Z2.5400 
G00 X33.2000 Y44.2310 
G01 Z-0.0200 F254.00 
G01 X32.8400 Y44.2310 F300.00 
G01 X32.7845 Y44.2080 
G01 X32.7420 Y44.1655 
G01 X32.7190 Y44.1100 
G01 X32.7190 Y42.3800 
G01 X32.7420 Y42.3245 
G01 X32.7845 Y42.2820 
G01 X32.8400 Y42.2590 
G01 X33.2000 Y42.2590 
G01 X33.2555 Y42.2820 
G01 X33.2980 Y42.3245 
G01 X33.3210 Y42.3800 
G01 X33.3210 Y44.1100 
G01 X33.2980 Y44.1655 
G01 X33.2555 Y44.2080 
G01 X33.2000 Y44.2310 
G00 Z2.5400 
G00 X34.4700 Y44.2310 
G01 Z-0.0200 F254.00 
G01 X34.1100 Y44.2310 F300.00 
G01 X34.0545 Y44.2080 
G01 X34.0120 Y44.1655 
G01 X33.9890 Y44.1100 
G01 X33.9890 Y42.3800 
G01 X34.0120 Y42.3245 
G01 X34.0350 Y42.3014 
G01 X34.0350 Y40.5893 
G01 X34.0738 Y40.4955 
G01 X35.3438 Y39.2255 
G01 X35.4155 Y39.1538 
G01 X35.4790 Y39.1275 
G01 X35.4790 Y38.8196 
G01 X36.4804 Y38.8190 
G01 X36.4810 Y39.9204 
G01 X35.4796 Y39.9210 
G01 X35.4790 Y39.8117 
G01 X34.5450 Y40.7456 
G01 X34.5450 Y42.3014 
G01 X34.5680 Y42.3245 
G01 X34.5910 Y42.3800 
G01 X34.5910 Y44.1100 
G01 X34.5680 Y44.1655 
G01 X34.5255 Y44.2080 
G01 X34.4700 Y44.2310 
G00 Z2.5400 
G00 X35.7400 Y44.2310 
G01 Z-0.0200 F254.00 
G01 X35.3800 Y44.2310 F300.00 
G01 X35.3245 Y44.2080 
G01 X35.2820 Y44.1655 
G01 X35.2590 Y44.1100 
G01 X35.2590 Y42.3800 
G01 X35.2820 Y42.3245 
G01 X35.3245 Y42.2820 
G01 X35.3800 Y42.2590 
G01 X35.7400 Y42.2590 
G01 X35.7955 Y42.2820 
G01 X35.8380 Y42.3245 
G01 X35.8610 Y42.3800 
G01 X35.8610 Y42.9250 
G01 X37.3927 Y42.9250 
G01 X37.4345 Y42.8243 
G01 X37.5166 Y42.7013 
G01 X37.6213 Y42.5966 
G01 X37.7443 Y42.5145 
G01 X37.8809 Y42.4578 
G01 X38.0260 Y42.4290 
G01 X38.1740 Y42.4290 
G01 X38.3191 Y42.4578 
G01 X38.4557 Y42.5145 
G01 X38.5787 Y42.5966 
G01 X38.6834 Y42.7013 
G01 X38.7655 Y42.8243 
G01 X38.8222 Y42.9609 
G01 X38.8510 Y43.1060 
G01 X38.8510 Y43.2540 
G01 X38.8222 Y43.3991 
G01 X38.7655 Y43.5357 
G01 X38.6834 Y43.6587 
G01 X38.5787 Y43.7634 
G01 X38.4557 Y43.8455 
G01 X38.3191 Y43.9022 
G01 X38.1740 Y43.9310 
G01 X38.0260 Y43.9310 
G01 X37.8809 Y43.9022 
G01 X37.7443 Y43.8455 
G01 X37.6213 Y43.7634 
G01 X37.5166 Y43.6587 
G01 X37.4345 Y43.5357 
G01 X37.3927 Y43.4350 
G01 X35.8610 Y43.4350 
G01 X35.8610 Y44.1100 
G01 X35.8380 Y44.1655 
G01 X35.7955 Y44.2080 
G01 X35.7400 Y44.2310 
G00 Z2.5400 
G00 X35.7400 Y49.1810 
G01 Z-0.0200 F254.00 
G01 X35.3800 Y49.1810 F300.00 
G01 X35.3245 Y49.1580 
G01 X35.2820 Y49.1155 
G01 X35.2590 Y49.0600 
G01 X35.2590 Y47.3300 
G01 X35.2820 Y47.2745 
G01 X35.3245 Y47.2320 
G01 X35.3800 Y47.2090 
G01 X35.7400 Y47.2090 
G01 X35.7955 Y47.2320 
G01 X35.8380 Y47.2745 
G01 X35.8610 Y47.3300 
G01 X35.8610 Y49.0600 
G01 X35.8380 Y49.1155 
G01 X35.7955 Y49.1580 
G01 X35.7400 Y49.1810 
G00 Z2.5400 
G00 X34.4700 Y49.1810 
G01 Z-0.0200 F254.00 
G01 X34.1100 Y49.1810 F300.00 
G01 X34.0545 Y49.1580 
G01 X34.0120 Y49.1155 
G01 X33.9890 Y49.0600 
G01 X33.9890 Y47.3300 
G01 X34.0120 Y47.2745 
G01 X34.0545 Y47.2320 
G01 X34.1100 Y47.2090 
G01 X34.4700 Y47.2090 
G01 X34.5255 Y47.2320 
G01 X34.5680 Y47.2745 
G01 X34.5910 Y47.3300 
G01 X34.5910 Y49.0600 
G01 X34.5680 Y49.1155 
G01 X34.5255 Y49.1580 
G01 X34.4700 Y49.1810 
G00 Z2.5400 
G00 X28.9320 Y49.1155 
G01 Z-0.0200 F254.00 
G01 X28.9090 Y49.0600 F300.00 
G01 X28.9090 Y47.3300 
G01 X28.9320 Y47.2745 
G01 X28.9745 Y47.2320 
G01 X29.0300 Y47.2090 
G01 X29.3900 Y47.2090 
G01 X29.4455 Y47.2320 
G01 X29.4880 Y47.2745 
G01 X29.5110 Y47.3300 
G01 X29.5110 Y49.0600 
G01 X29.4880 Y49.1155 
G01 X29.4650 Y49.1386 
G01 X29.4650 Y49.5807 
G01 X29.4262 Y49.6745 
G01 X29.3545 Y49.7462 
G01 X29.2607 Y49.7850 
G01 X28.4825 Y49.7850 
G01 X28.4649 Y49.8026 
G01 X28.3712 Y49.8414 
G01 X27.5088 Y49.8414 
G01 X27.4151 Y49.8026 
G01 X27.3975 Y49.7850 
G01 X26.6193 Y49.7850 
G01 X26.5255 Y49.7462 
G01 X26.4538 Y49.6745 
G01 X26.4150 Y49.5807 
G01 X26.4150 Y44.5556 
G01 X22.7544 Y40.8950 
G01 X21.2387 Y40.8950 
G01 X21.2387 Y40.9400 
G01 X19.2687 Y40.9406 
G01 X19.2681 Y40.3400 
G01 X21.2381 Y40.3394 
G01 X21.2387 Y40.3850 
G01 X22.9107 Y40.3850 
G01 X23.0045 Y40.4238 
G01 X26.8862 Y44.3055 
G01 X26.9250 Y44.3993 
G01 X26.9250 Y49.2750 
G01 X27.5539 Y49.2750 
G01 X27.6476 Y49.3138 
G01 X27.6652 Y49.3314 
G01 X28.2148 Y49.3314 
G01 X28.2324 Y49.3138 
G01 X28.3261 Y49.2750 
G01 X28.9550 Y49.2750 
G01 X28.9550 Y49.1386 
G01 X28.9320 Y49.1155 
G00 Z2.5400 
G00 X28.1200 Y49.1810 
G01 Z-0.0200 F254.00 
G01 X27.7600 Y49.1810 F300.00 
G01 X27.7045 Y49.1580 
G01 X27.6620 Y49.1155 
G01 X27.6390 Y49.0600 
G01 X27.6390 Y47.3300 
G01 X27.6620 Y47.2745 
G01 X27.7045 Y47.2320 
G01 X27.7600 Y47.2090 
G01 X28.1200 Y47.2090 
G01 X28.1755 Y47.2320 
G01 X28.2180 Y47.2745 
G01 X28.2410 Y47.3300 
G01 X28.2410 Y49.0600 
G01 X28.2180 Y49.1155 
G01 X28.1755 Y49.1580 
G01 X28.1200 Y49.1810 
G00 Z2.5400 
G00 X4.0475 Y42.2392 
G01 Z-0.0200 F254.00 
G01 X6.1125 Y42.2392 F300.00 
G01 X6.2942 Y42.2753 
G01 X6.4654 Y42.3463 
G01 X6.6195 Y42.4492 
G01 X6.7506 Y42.5803 
G01 X6.8535 Y42.7344 
G01 X6.9245 Y42.9056 
G01 X6.9283 Y42.9250 
G01 X7.5144 Y42.9250 
G01 X13.7150 Y36.7244 
G01 X13.7150 Y26.6845 
G01 X13.7538 Y26.5908 
G01 X16.4308 Y23.9138 
G01 X16.5245 Y23.8750 
G01 X21.4590 Y23.8750 
G01 X21.4590 Y23.6296 
G01 X22.5604 Y23.6290 
G01 X22.5610 Y24.6304 
G01 X21.4596 Y24.6310 
G01 X21.4590 Y24.3850 
G01 X16.6809 Y24.3850 
G01 X14.2250 Y26.8409 
G01 X14.2250 Y36.8807 
G01 X14.1862 Y36.9745 
G01 X7.7645 Y43.3962 
G01 X7.6707 Y43.4350 
G01 X6.9283 Y43.4350 
G01 X6.9245 Y43.4544 
G01 X6.8535 Y43.6256 
G01 X6.7506 Y43.7797 
G01 X6.6195 Y43.9108 
G01 X6.4654 Y44.0137 
G01 X6.2942 Y44.0847 
G01 X6.1125 Y44.1208 
G01 X4.0475 Y44.1208 
G01 X3.8658 Y44.0847 
G01 X3.6946 Y44.0137 
G01 X3.5405 Y43.9108 
G01 X3.4094 Y43.7797 
G01 X3.3065 Y43.6256 
G01 X3.2355 Y43.4544 
G01 X3.1994 Y43.2727 
G01 X3.1994 Y43.0873 
G01 X3.2355 Y42.9056 
G01 X3.3065 Y42.7344 
G01 X3.4094 Y42.5803 
