(.../eduards/EAGLE/pcb-gcode/pcb-gcode.ulp)
(Copyright 2005 - 2012 by John Johnson)
(See readme.txt for licensing terms.)
(This file generated from the board:)
(.../New_Project/AFM_QFM_sensor.brd)
(Current profile is .../pcb-gcode/profiles/generic.pp  )
(This file generated 12/29/23 11:33 PM)
(Settings from pcb-machine.h)
(  Tool Size)
(0.1000 )
(Z Axis Settings)
(  High     Up        Down     Drill)
(12.7000 	2.5400 	-0.1000 	-0.8128 )
(spindle on time = 3.0000)
(milling depth = -0.1000)
(text depth = -0.1270)
(tool change at 12.7000 15.2400 25.4000 )
(feed rate xy = F300.00 )
(feed rate z  = F254.00 )
(Settings from pcb-defaults.h)
(isolate min = 0.0010)
(isolate max = 2.0000)
(isolate step = 0.1200)
(Generated top outlines, top drill, )
(Unit of measure: mm)
(Metric Mode)
G21
(Absolute Coordinates)
G90
G00 X0.0000 Y0.0000 
M03
G04 P3.000000
G00 Z2.5400 
G00 X0.7175 Y18.4602 
G01 Z-0.1000 F254.00 
G01 X0.5590 Y18.8429 F300.00 
G01 X0.5590 Y19.2571 
G01 X0.7175 Y19.6398 
G01 X1.0104 Y19.9327 
G01 X1.3931 Y20.0912 
G01 X3.6869 Y20.0912 
G01 X4.0696 Y19.9327 
G01 X4.3625 Y19.6398 
G01 X4.5210 Y19.2571 
G01 X4.5210 Y18.8429 
G01 X4.3625 Y18.4602 
G01 X4.0696 Y18.1673 
G01 X3.6869 Y18.0088 
G01 X3.2383 Y18.0088 
G01 X3.1975 Y17.9919 
G01 X3.1663 Y17.9607 
G01 X3.1494 Y17.9199 
G01 X3.1494 Y15.5163 
G01 X3.1663 Y15.4755 
G01 X3.1777 Y15.4642 
G01 X3.8723 Y14.7695 
G01 X3.8922 Y14.7497 
G01 X3.9035 Y14.7383 
G01 X3.9443 Y14.7214 
G01 X3.9595 Y14.7214 
G01 X4.2356 Y14.6070 
G01 X4.4470 Y14.3956 
G01 X4.5614 Y14.1195 
G01 X4.5614 Y13.8205 
G01 X4.4470 Y13.5444 
G01 X4.2356 Y13.3330 
G01 X3.9595 Y13.2186 
G01 X3.6605 Y13.2186 
G01 X3.3844 Y13.3330 
G01 X3.1730 Y13.5444 
G01 X3.0586 Y13.8205 
G01 X3.0586 Y13.8357 
G01 X3.0417 Y13.8765 
G01 X3.0105 Y13.9077 
G01 X2.1948 Y14.7234 
G01 X2.0234 Y14.8948 
G01 X1.9306 Y15.1188 
G01 X1.9306 Y17.9199 
G01 X1.9137 Y17.9607 
G01 X1.8825 Y17.9919 
G01 X1.8417 Y18.0088 
G01 X1.3931 Y18.0088 
G01 X1.0104 Y18.1673 
G01 X0.7175 Y18.4602 
G00 Z2.5400 
G00 X4.5110 Y13.9010 
G01 Z-0.1000 F254.00 
G01 X4.5110 Y14.0390 F300.00 
G01 X4.4841 Y14.1745 
G01 X4.4312 Y14.3020 
G01 X4.3545 Y14.4169 
G01 X4.2569 Y14.5145 
G01 X4.1420 Y14.5912 
G01 X4.0145 Y14.6441 
G01 X3.9046 Y14.6659 
G01 X3.0990 Y15.4715 
G01 X3.0990 Y18.0592 
G01 X3.5774 Y18.0592 
G01 X3.7688 Y18.0973 
G01 X3.9491 Y18.1720 
G01 X4.1114 Y18.2804 
G01 X4.2494 Y18.4184 
G01 X4.3578 Y18.5807 
G01 X4.4325 Y18.7610 
G01 X4.4706 Y18.9524 
G01 X4.4706 Y19.1476 
G01 X4.4325 Y19.3390 
G01 X4.3578 Y19.5193 
G01 X4.2494 Y19.6816 
G01 X4.1114 Y19.8196 
G01 X3.9491 Y19.9280 
G01 X3.7688 Y20.0027 
G01 X3.5774 Y20.0408 
G01 X1.5026 Y20.0408 
G01 X1.3112 Y20.0027 
G01 X1.1309 Y19.9280 
G01 X0.9686 Y19.8196 
G01 X0.8306 Y19.6816 
G01 X0.7222 Y19.5193 
G01 X0.6475 Y19.3390 
G01 X0.6094 Y19.1476 
G01 X0.6094 Y18.9524 
G01 X0.6475 Y18.7610 
G01 X0.7222 Y18.5807 
G01 X0.8306 Y18.4184 
G01 X0.9686 Y18.2804 
G01 X1.1309 Y18.1720 
G01 X1.3112 Y18.0973 
G01 X1.5026 Y18.0592 
G01 X1.9810 Y18.0592 
G01 X1.9810 Y15.1664 
G01 X2.0191 Y15.0242 
G01 X2.0927 Y14.8968 
G01 X2.1968 Y14.7927 
G01 X3.1141 Y13.8754 
G01 X3.1359 Y13.7655 
G01 X3.1888 Y13.6380 
G01 X3.2655 Y13.5231 
G01 X3.3631 Y13.4255 
G01 X3.4780 Y13.3488 
G01 X3.6055 Y13.2959 
G01 X3.7410 Y13.2690 
G01 X3.8790 Y13.2690 
G01 X4.0145 Y13.2959 
G01 X4.1420 Y13.3488 
G01 X4.2569 Y13.4255 
G01 X4.3545 Y13.5231 
G01 X4.4312 Y13.6380 
G01 X4.4841 Y13.7655 
G01 X4.5110 Y13.9010 
G00 Z2.5400 
G00 X20.0797 Y39.2428 
G01 Z-0.1000 F254.00 
G01 X20.2574 Y39.2147 F300.00 
G01 X20.4285 Y39.1591 
G01 X20.5888 Y39.0774 
G01 X20.7343 Y38.9717 
G01 X20.8615 Y38.8445 
G01 X20.9672 Y38.6990 
G01 X21.0489 Y38.5387 
G01 X21.1045 Y38.3676 
G01 X21.1198 Y38.2710 
G01 X20.9660 Y38.2710 
G01 X20.9425 Y38.3890 
G01 X20.8678 Y38.5693 
G01 X20.7594 Y38.7316 
G01 X20.6214 Y38.8696 
G01 X20.4591 Y38.9780 
G01 X20.2788 Y39.0527 
G01 X20.0874 Y39.0908 
G01 X19.2210 Y39.0908 
G01 X19.2210 Y39.2428 
G01 X20.0797 Y39.2428 
G00 Z2.5400 
G00 X18.0203 Y36.9572 
G01 Z-0.1000 F254.00 
G01 X17.8426 Y36.9853 F300.00 
G01 X17.6715 Y37.0409 
G01 X17.5112 Y37.1226 
G01 X17.3657 Y37.2283 
G01 X17.2385 Y37.3555 
G01 X17.1328 Y37.5010 
G01 X17.0511 Y37.6613 
G01 X16.9955 Y37.8324 
G01 X16.9802 Y37.9290 
G01 X17.1340 Y37.9290 
G01 X17.1575 Y37.8110 
G01 X17.2322 Y37.6307 
G01 X17.3406 Y37.4684 
G01 X17.4786 Y37.3304 
G01 X17.6409 Y37.2220 
G01 X17.8212 Y37.1473 
G01 X18.0126 Y37.1092 
G01 X18.8790 Y37.1092 
G01 X18.8790 Y36.9572 
G01 X18.0203 Y36.9572 
G00 Z2.5400 
G00 X20.9672 Y37.5010 
G01 Z-0.1000 F254.00 
G01 X20.8615 Y37.3555 F300.00 
G01 X20.7343 Y37.2283 
G01 X20.5888 Y37.1226 
G01 X20.4285 Y37.0409 
G01 X20.2574 Y36.9853 
G01 X20.0797 Y36.9572 
G01 X19.2210 Y36.9572 
G01 X19.2210 Y37.1092 
G01 X20.0874 Y37.1092 
G01 X20.2788 Y37.1473 
G01 X20.4591 Y37.2220 
G01 X20.6214 Y37.3304 
G01 X20.7594 Y37.4684 
G01 X20.8678 Y37.6307 
G01 X20.9425 Y37.8110 
G01 X20.9660 Y37.9290 
G01 X21.1198 Y37.9290 
G01 X21.1045 Y37.8324 
G01 X21.0489 Y37.6613 
G01 X20.9672 Y37.5010 
G00 Z2.5400 
G00 X16.9955 Y38.3676 
G01 Z-0.1000 F254.00 
G01 X17.0511 Y38.5387 F300.00 
G01 X17.1328 Y38.6990 
G01 X17.2385 Y38.8445 
G01 X17.3657 Y38.9717 
G01 X17.5112 Y39.0774 
G01 X17.6715 Y39.1591 
G01 X17.8426 Y39.2147 
G01 X18.0203 Y39.2428 
G01 X18.8790 Y39.2428 
G01 X18.8790 Y39.0908 
G01 X18.0126 Y39.0908 
G01 X17.8212 Y39.0527 
G01 X17.6409 Y38.9780 
G01 X17.4786 Y38.8696 
G01 X17.3406 Y38.7316 
G01 X17.2322 Y38.5693 
G01 X17.1575 Y38.3890 
G01 X17.1340 Y38.2710 
G01 X16.9802 Y38.2710 
G01 X16.9955 Y38.3676 
G00 Z2.5400 
G00 X17.1415 Y43.6878 
G01 Z-0.1000 F254.00 
G01 X17.1531 Y43.6926 F300.00 
G01 X17.1823 Y43.7047 
G01 X17.2135 Y43.7359 
G01 X17.2275 Y43.7698 
G01 X17.5204 Y44.0627 
G01 X17.9031 Y44.2212 
G01 X20.1969 Y44.2212 
G01 X20.5796 Y44.0627 
G01 X20.8725 Y43.7698 
G01 X21.0310 Y43.3871 
G01 X21.0310 Y42.9729 
G01 X20.8725 Y42.5902 
G01 X20.5796 Y42.2973 
G01 X20.1969 Y42.1388 
G01 X17.9031 Y42.1388 
G01 X17.5204 Y42.2973 
G01 X17.2275 Y42.5902 
G01 X17.2135 Y42.6241 
G01 X17.1823 Y42.6553 
G01 X17.1538 Y42.6671 
G01 X17.1415 Y42.6722 
G01 X14.2595 Y42.6722 
G01 X14.2479 Y42.6674 
G01 X14.2187 Y42.6553 
G01 X14.1875 Y42.6241 
G01 X14.1420 Y42.5786 
G01 X12.9580 Y42.5786 
G01 X12.8986 Y42.6380 
G01 X12.8986 Y43.7220 
G01 X12.9580 Y43.7814 
G01 X14.1420 Y43.7814 
G01 X14.1875 Y43.7359 
G01 X14.2187 Y43.7047 
G01 X14.2472 Y43.6929 
G01 X14.2595 Y43.6878 
G01 X17.1415 Y43.6878 
G00 Z2.5400 
G00 X14.1510 Y42.6589 
G01 Z-0.1000 F254.00 
G01 X14.1510 Y42.7226 F300.00 
G01 X17.2272 Y42.7226 
G01 X17.2322 Y42.7107 
G01 X17.3406 Y42.5484 
G01 X17.4786 Y42.4104 
G01 X17.6409 Y42.3020 
G01 X17.8212 Y42.2273 
G01 X18.0126 Y42.1892 
G01 X20.0874 Y42.1892 
G01 X20.2788 Y42.2273 
G01 X20.4591 Y42.3020 
G01 X20.6214 Y42.4104 
G01 X20.7594 Y42.5484 
G01 X20.8678 Y42.7107 
G01 X20.9425 Y42.8910 
G01 X20.9806 Y43.0824 
G01 X20.9806 Y43.2776 
G01 X20.9425 Y43.4690 
G01 X20.8678 Y43.6493 
G01 X20.7594 Y43.8116 
G01 X20.6214 Y43.9496 
G01 X20.4591 Y44.0580 
G01 X20.2788 Y44.1327 
G01 X20.0874 Y44.1708 
G01 X18.0126 Y44.1708 
G01 X17.8212 Y44.1327 
G01 X17.6409 Y44.0580 
G01 X17.4786 Y43.9496 
G01 X17.3406 Y43.8116 
G01 X17.2322 Y43.6493 
G01 X17.2272 Y43.6374 
G01 X14.1510 Y43.6374 
G01 X14.1510 Y43.7011 
G01 X14.1211 Y43.7310 
G01 X12.9789 Y43.7310 
G01 X12.9490 Y43.7011 
G01 X12.9490 Y42.6589 
G01 X12.9789 Y42.6290 
G01 X14.1211 Y42.6290 
G01 X14.1510 Y42.6589 
G00 Z2.5400 
G00 X11.4803 Y36.6890 
G01 Z-0.1000 F254.00 
G01 X11.4067 Y36.7315 F300.00 
G01 X11.3465 Y36.7917 
G01 X11.3040 Y36.8653 
G01 X11.2820 Y36.9475 
G01 X11.2820 Y37.5090 
G01 X11.4340 Y37.5090 
G01 X11.4340 Y36.9560 
G01 X11.4600 Y36.8931 
G01 X11.5081 Y36.8450 
G01 X11.5540 Y36.8260 
G01 X11.5540 Y36.6693 
G01 X11.4803 Y36.6890 
G00 Z2.5400 
G00 X16.6484 Y3.6959 
G01 Z-0.1000 F254.00 
G01 X16.5967 Y3.7097 F300.00 
G01 X16.5505 Y3.7365 
G01 X16.5127 Y3.7743 
G01 X16.4859 Y3.8205 
G01 X16.4721 Y3.8722 
G01 X16.4721 Y3.9558 
G01 X16.6241 Y3.9558 
G01 X16.6241 Y3.8778 
G01 X16.6540 Y3.8479 
G01 X17.2654 Y3.8479 
G01 X17.2654 Y3.6959 
G01 X16.6484 Y3.6959 
G00 Z2.5400 
G00 X18.3767 Y4.5072 
G01 Z-0.1000 F254.00 
G01 X18.3681 Y4.4751 F300.00 
G01 X18.3644 Y4.4687 
G01 X18.3625 Y4.4540 
G01 X18.3586 Y4.4397 
G01 X18.3596 Y4.4323 
G01 X18.3586 Y4.4249 
G01 X18.3625 Y4.4106 
G01 X18.3644 Y4.3959 
G01 X18.3681 Y4.3895 
G01 X18.3767 Y4.3574 
G01 X18.3767 Y4.2737 
G01 X18.2247 Y4.2737 
G01 X18.2247 Y4.3518 
G01 X18.1948 Y4.3817 
G01 X17.5833 Y4.3817 
G01 X17.5833 Y4.4829 
G01 X18.1948 Y4.4829 
G01 X18.2247 Y4.5128 
G01 X18.2247 Y4.5908 
G01 X18.3767 Y4.5908 
G01 X18.3767 Y4.5072 
G00 Z2.5400 
G00 X18.3767 Y3.8722 
G01 Z-0.1000 F254.00 
G01 X18.3629 Y3.8205 F300.00 
G01 X18.3361 Y3.7743 
G01 X18.2983 Y3.7365 
G01 X18.2520 Y3.7097 
G01 X18.2004 Y3.6959 
G01 X17.5833 Y3.6959 
G01 X17.5833 Y3.8479 
G01 X18.1948 Y3.8479 
G01 X18.2247 Y3.8778 
G01 X18.2247 Y3.9558 
G01 X18.3767 Y3.9558 
G01 X18.3767 Y3.8722 
G00 Z2.5400 
G00 X16.4721 Y4.3574 
G01 Z-0.1000 F254.00 
G01 X16.4807 Y4.3895 F300.00 
G01 X16.4844 Y4.3959 
G01 X16.4863 Y4.4106 
G01 X16.4902 Y4.4249 
G01 X16.4892 Y4.4323 
G01 X16.4902 Y4.4397 
G01 X16.4863 Y4.4540 
G01 X16.4844 Y4.4687 
G01 X16.4807 Y4.4751 
G01 X16.4721 Y4.5072 
G01 X16.4721 Y4.5908 
G01 X16.6241 Y4.5908 
G01 X16.6241 Y4.5128 
G01 X16.6540 Y4.4829 
G01 X17.2654 Y4.4829 
G01 X17.2654 Y4.3817 
G01 X16.6540 Y4.3817 
G01 X16.6241 Y4.3518 
G01 X16.6241 Y4.2737 
G01 X16.4721 Y4.2737 
G01 X16.4721 Y4.3574 
G00 Z2.5400 
G00 X10.7590 Y21.0830 
G01 Z-0.1000 F254.00 
G01 X10.7892 Y21.0101 F300.00 
G01 X10.8451 Y20.9542 
G01 X10.9180 Y20.9240 
G01 X11.9120 Y20.9240 
G01 X11.9849 Y20.9542 
G01 X12.0408 Y21.0101 
G01 X12.0710 Y21.0830 
G01 X12.0710 Y21.0990 
G01 X12.2230 Y21.0990 
G01 X12.2230 Y21.0763 
G01 X12.1991 Y20.9872 
G01 X12.1530 Y20.9073 
G01 X12.1262 Y20.8805 
G01 X12.0956 Y20.8499 
G01 X12.0853 Y20.8259 
G01 X12.0781 Y20.8085 
G01 X12.0781 Y20.7643 
G01 X12.0950 Y20.7235 
G01 X12.1257 Y20.6928 
G01 X12.1496 Y20.6826 
G01 X12.1670 Y20.6754 
G01 X13.5257 Y20.6754 
G01 X13.5665 Y20.6923 
G01 X13.5977 Y20.7235 
G01 X13.6146 Y20.7643 
G01 X13.6146 Y22.5397 
G01 X13.5977 Y22.5805 
G01 X13.5665 Y22.6117 
G01 X13.5257 Y22.6286 
G01 X13.4280 Y22.6286 
G01 X13.3686 Y22.6880 
G01 X13.3686 Y23.1395 
G01 X13.3606 Y23.1588 
G01 X13.3606 Y23.4012 
G01 X13.3686 Y23.4205 
G01 X13.3686 Y23.8720 
G01 X13.4280 Y23.9314 
G01 X14.5120 Y23.9314 
G01 X14.5559 Y23.8875 
G01 X14.5871 Y23.8563 
G01 X14.6156 Y23.8445 
G01 X14.6279 Y23.8394 
G01 X16.6312 Y23.8394 
G01 X16.8511 Y23.7483 
G01 X16.8912 Y23.7317 
G01 X17.1520 Y23.7314 
G01 X17.2114 Y23.6720 
G01 X17.2114 Y22.7880 
G01 X17.1520 Y22.7286 
G01 X16.8919 Y22.7286 
G01 X16.8512 Y22.7117 
G01 X16.6312 Y22.6206 
G01 X15.9383 Y22.6206 
G01 X15.8975 Y22.6037 
G01 X15.8663 Y22.5725 
G01 X15.8494 Y22.5317 
G01 X15.8494 Y22.2379 
G01 X15.8562 Y22.2215 
G01 X15.8663 Y22.1971 
G01 X15.8975 Y22.1659 
G01 X15.9383 Y22.1490 
G01 X15.9825 Y22.1490 
G01 X15.9989 Y22.1558 
G01 X16.0233 Y22.1659 
G01 X16.0545 Y22.1971 
G01 X16.0844 Y22.2270 
G01 X16.3605 Y22.3414 
G01 X16.6595 Y22.3414 
G01 X16.9356 Y22.2270 
G01 X17.1470 Y22.0156 
G01 X17.2614 Y21.7395 
G01 X17.2614 Y21.4405 
G01 X17.1470 Y21.1644 
G01 X16.9356 Y20.9530 
G01 X16.6595 Y20.8386 
G01 X16.3605 Y20.8386 
G01 X16.0844 Y20.9530 
G01 X15.9721 Y21.0653 
G01 X15.9313 Y21.0822 
G01 X15.8187 Y21.0822 
G01 X15.8071 Y21.0774 
G01 X15.7779 Y21.0653 
G01 X15.7467 Y21.0341 
G01 X15.6656 Y20.9530 
G01 X15.3895 Y20.8386 
G01 X15.0905 Y20.8386 
G01 X14.8144 Y20.9530 
G01 X14.6030 Y21.1644 
G01 X14.5474 Y21.2986 
G01 X14.5305 Y21.3394 
G01 X14.4998 Y21.3701 
G01 X14.4759 Y21.3803 
G01 X14.4585 Y21.3875 
G01 X14.4143 Y21.3875 
G01 X14.3735 Y21.3706 
G01 X14.3428 Y21.3399 
G01 X14.3326 Y21.3160 
G01 X14.3254 Y21.2986 
G01 X14.3254 Y20.1728 
G01 X14.1172 Y19.9646 
G01 X12.0405 Y19.9646 
G01 X11.9997 Y19.9477 
G01 X11.9911 Y19.9391 
G01 X11.9835 Y19.9315 
G01 X11.9685 Y19.9165 
G01 X11.9599 Y19.9079 
G01 X11.9556 Y19.8976 
G01 X11.9430 Y19.8671 
G01 X11.9430 Y19.8452 
G01 X11.9430 Y19.8229 
G01 X11.9513 Y19.8028 
G01 X11.9599 Y19.7821 
G01 X11.9677 Y19.7743 
G01 X11.9911 Y19.7509 
G01 X11.9997 Y19.7423 
G01 X12.0105 Y19.7378 
G01 X12.0405 Y19.7254 
G01 X12.0628 Y19.7254 
G01 X14.2394 Y19.7254 
G01 X14.2802 Y19.7423 
G01 X14.3114 Y19.7735 
G01 X14.3361 Y19.7982 
G01 X18.0017 Y19.7982 
G01 X18.0425 Y19.8151 
G01 X18.0737 Y19.8463 
G01 X18.6777 Y20.4503 
G01 X18.6946 Y20.4911 
G01 X18.6946 Y26.2257 
G01 X18.6777 Y26.2665 
G01 X18.6465 Y26.2977 
G01 X18.6057 Y26.3146 
G01 X14.3207 Y26.3146 
G01 X14.2799 Y26.2977 
G01 X14.2487 Y26.2665 
G01 X14.1698 Y26.1876 
G01 X13.7702 Y26.1876 
G01 X13.6601 Y26.2977 
G01 X13.6193 Y26.3146 
G01 X11.7503 Y26.3146 
G01 X11.7095 Y26.2977 
G01 X11.6783 Y26.2665 
G01 X11.6614 Y26.2257 
G01 X11.6614 Y26.1280 
G01 X11.6020 Y26.0686 
G01 X10.4180 Y26.0686 
G01 X10.3586 Y26.1280 
G01 X10.3586 Y27.2120 
G01 X10.4180 Y27.2714 
G01 X11.6020 Y27.2714 
G01 X11.6614 Y27.2120 
G01 X11.6614 Y27.1143 
G01 X11.6783 Y27.0735 
G01 X11.7095 Y27.0423 
G01 X11.7503 Y27.0254 
G01 X13.3987 Y27.0254 
G01 X13.4395 Y27.0423 
G01 X13.4707 Y27.0735 
G01 X13.4876 Y27.1143 
G01 X13.4876 Y28.5197 
G01 X13.4707 Y28.5605 
G01 X13.4395 Y28.5917 
G01 X13.3987 Y28.6086 
G01 X12.9580 Y28.6086 
G01 X12.8986 Y28.6680 
G01 X12.8986 Y29.7520 
G01 X12.9580 Y29.8114 
G01 X14.1420 Y29.8114 
G01 X14.2014 Y29.7520 
G01 X14.2014 Y29.2647 
G01 X14.2183 Y29.2239 
G01 X14.4524 Y28.9898 
G01 X14.4524 Y27.1143 
G01 X14.4693 Y27.0735 
G01 X14.5005 Y27.0423 
G01 X14.5413 Y27.0254 
G01 X19.1972 Y27.0254 
G01 X19.4054 Y26.8172 
G01 X19.4054 Y20.1728 
G01 X18.3200 Y19.0874 
G01 X14.6544 Y19.0874 
G01 X14.6136 Y19.0705 
G01 X14.5824 Y19.0393 
G01 X14.5577 Y19.0146 
G01 X12.0405 Y19.0146 
G01 X11.9997 Y18.9977 
G01 X11.9756 Y18.9736 
G01 X10.8544 Y18.9736 
G01 X10.7086 Y19.1194 
G01 X10.7086 Y19.6206 
G01 X10.8389 Y19.7509 
G01 X10.8701 Y19.7821 
G01 X10.8868 Y19.8224 
G01 X10.8870 Y19.8671 
G01 X10.8701 Y19.9079 
G01 X10.7086 Y20.0694 
G01 X10.7086 Y20.5706 
G01 X10.7856 Y20.6476 
G01 X10.7973 Y20.6566 
G01 X10.8011 Y20.6631 
G01 X10.8063 Y20.6683 
G01 X10.8120 Y20.6820 
G01 X10.8194 Y20.6948 
G01 X10.8204 Y20.7022 
G01 X10.8232 Y20.7091 
G01 X10.8232 Y20.7239 
G01 X10.8252 Y20.7386 
G01 X10.8232 Y20.7458 
G01 X10.8232 Y20.7533 
G01 X10.8176 Y20.7670 
G01 X10.8137 Y20.7813 
G01 X10.8092 Y20.7872 
G01 X10.8063 Y20.7941 
G01 X10.7959 Y20.8046 
G01 X10.7869 Y20.8163 
G01 X10.7804 Y20.8200 
G01 X10.7751 Y20.8253 
G01 X10.7614 Y20.8310 
G01 X10.7423 Y20.8420 
G01 X10.6770 Y20.9073 
G01 X10.6309 Y20.9872 
G01 X10.6070 Y21.0764 
G01 X10.6070 Y21.0990 
G01 X10.7590 Y21.0990 
G01 X10.7590 Y21.0830 
G00 Z2.5400 
G00 X14.4143 Y22.6206 
G01 Z-0.1000 F254.00 
G01 X14.3735 Y22.6037 F300.00 
G01 X14.3423 Y22.5725 
G01 X14.3254 Y22.5317 
G01 X14.3254 Y21.8814 
G01 X14.3322 Y21.8650 
G01 X14.3423 Y21.8406 
G01 X14.3735 Y21.8094 
G01 X14.4143 Y21.7925 
G01 X14.4585 Y21.7925 
G01 X14.4749 Y21.7993 
G01 X14.4993 Y21.8094 
G01 X14.5305 Y21.8406 
G01 X14.5474 Y21.8814 
G01 X14.6030 Y22.0156 
G01 X14.6137 Y22.0263 
G01 X14.6230 Y22.0488 
G01 X14.6306 Y22.0671 
G01 X14.6306 Y22.0890 
G01 X14.6306 Y22.1113 
G01 X14.6306 Y22.5317 
G01 X14.6137 Y22.5725 
G01 X14.5825 Y22.6037 
G01 X14.5417 Y22.6206 
G01 X14.4975 Y22.6206 
G01 X14.4143 Y22.6206 
G00 Z2.5400 
G00 X15.7990 Y22.6710 
G01 Z-0.1000 F254.00 
G01 X16.5836 Y22.6710 F300.00 
G01 X16.7258 Y22.7091 
G01 X16.8468 Y22.7790 
G01 X17.1311 Y22.7790 
G01 X17.1610 Y22.8089 
G01 X17.1610 Y23.6511 
G01 X17.1311 Y23.6810 
G01 X16.8468 Y23.6810 
G01 X16.7258 Y23.7509 
G01 X16.5836 Y23.7890 
G01 X14.5210 Y23.7890 
G01 X14.5210 Y23.8511 
G01 X14.4911 Y23.8810 
G01 X13.4489 Y23.8810 
G01 X13.4190 Y23.8511 
G01 X13.4190 Y23.3835 
G01 X13.4110 Y23.3536 
G01 X13.4110 Y23.2064 
G01 X13.4190 Y23.1765 
G01 X13.4190 Y22.7089 
G01 X13.4489 Y22.6790 
G01 X13.6650 Y22.6790 
G01 X13.6650 Y20.6250 
G01 X11.9957 Y20.6250 
G01 X11.9849 Y20.6358 
G01 X11.9120 Y20.6660 
G01 X10.9180 Y20.6660 
G01 X10.8451 Y20.6358 
G01 X10.7892 Y20.5799 
G01 X10.7590 Y20.5070 
G01 X10.7590 Y20.1330 
G01 X10.7892 Y20.0601 
G01 X10.8451 Y20.0042 
G01 X10.9180 Y19.9740 
G01 X11.9120 Y19.9740 
G01 X11.9849 Y20.0042 
G01 X11.9957 Y20.0150 
G01 X14.0102 Y20.0150 
G01 X14.0877 Y20.0358 
G01 X14.1573 Y20.0759 
G01 X14.2141 Y20.1327 
G01 X14.2542 Y20.2023 
G01 X14.2750 Y20.2798 
G01 X14.2750 Y22.6710 
G01 X14.6810 Y22.6710 
G01 X14.6810 Y22.0152 
G01 X14.6188 Y21.9220 
G01 X14.5659 Y21.7945 
G01 X14.5390 Y21.6590 
G01 X14.5390 Y21.5210 
G01 X14.5659 Y21.3855 
G01 X14.6188 Y21.2580 
G01 X14.6955 Y21.1431 
G01 X14.7931 Y21.0455 
G01 X14.9080 Y20.9688 
G01 X15.0355 Y20.9159 
G01 X15.1710 Y20.8890 
G01 X15.3090 Y20.8890 
G01 X15.4445 Y20.9159 
G01 X15.5720 Y20.9688 
G01 X15.6869 Y21.0455 
G01 X15.7740 Y21.1326 
G01 X15.9760 Y21.1326 
G01 X16.0631 Y21.0455 
G01 X16.1779 Y20.9688 
G01 X16.3055 Y20.9159 
G01 X16.4410 Y20.8890 
G01 X16.5790 Y20.8890 
G01 X16.7145 Y20.9159 
G01 X16.8420 Y20.9688 
G01 X16.9569 Y21.0455 
G01 X17.0545 Y21.1431 
G01 X17.1312 Y21.2580 
G01 X17.1841 Y21.3855 
G01 X17.2110 Y21.5210 
G01 X17.2110 Y21.6590 
G01 X17.1841 Y21.7945 
G01 X17.1312 Y21.9220 
G01 X17.0545 Y22.0369 
G01 X16.9569 Y22.1345 
G01 X16.8420 Y22.2112 
G01 X16.7145 Y22.2641 
G01 X16.5790 Y22.2910 
G01 X16.4410 Y22.2910 
G01 X16.3055 Y22.2641 
G01 X16.1779 Y22.2112 
G01 X16.0631 Y22.1345 
G01 X15.9760 Y22.0474 
G01 X15.7990 Y22.0474 
G01 X15.7990 Y22.6710 
G00 Z2.5400 
G00 X10.7590 Y19.5570 
G01 Z-0.1000 F254.00 
G01 X10.7590 Y19.1830 F300.00 
G01 X10.7892 Y19.1101 
G01 X10.8451 Y19.0542 
G01 X10.9180 Y19.0240 
G01 X11.9120 Y19.0240 
G01 X11.9849 Y19.0542 
G01 X11.9957 Y19.0650 
G01 X14.4507 Y19.0650 
G01 X14.5282 Y19.0858 
G01 X14.5978 Y19.1259 
G01 X14.6097 Y19.1378 
G01 X18.2130 Y19.1378 
G01 X18.2905 Y19.1586 
G01 X18.3601 Y19.1987 
G01 X19.2941 Y20.1327 
G01 X19.3342 Y20.2023 
G01 X19.3550 Y20.2798 
G01 X19.3550 Y26.7102 
G01 X19.3342 Y26.7877 
G01 X19.2941 Y26.8573 
G01 X19.2373 Y26.9141 
G01 X19.1677 Y26.9542 
G01 X19.0902 Y26.9750 
G01 X14.4020 Y26.9750 
G01 X14.4020 Y28.8469 
G01 X14.3726 Y28.9567 
G01 X14.3157 Y29.0553 
G01 X14.2353 Y29.1357 
G01 X14.1510 Y29.2199 
G01 X14.1510 Y29.7311 
G01 X14.1211 Y29.7610 
G01 X12.9789 Y29.7610 
G01 X12.9490 Y29.7311 
G01 X12.9490 Y28.6889 
G01 X12.9789 Y28.6590 
G01 X13.4901 Y28.6590 
G01 X13.5380 Y28.6111 
G01 X13.5380 Y26.9750 
G01 X11.6110 Y26.9750 
G01 X11.6110 Y27.1911 
G01 X11.5811 Y27.2210 
G01 X10.4389 Y27.2210 
G01 X10.4090 Y27.1911 
G01 X10.4090 Y26.1489 
G01 X10.4389 Y26.1190 
G01 X11.5811 Y26.1190 
G01 X11.6110 Y26.1489 
G01 X11.6110 Y26.3650 
G01 X13.6641 Y26.3650 
G01 X13.7047 Y26.3243 
G01 X13.8033 Y26.2674 
G01 X13.9131 Y26.2380 
G01 X14.0269 Y26.2380 
G01 X14.1367 Y26.2674 
G01 X14.2353 Y26.3243 
G01 X14.2759 Y26.3650 
G01 X18.7450 Y26.3650 
G01 X18.7450 Y20.4463 
G01 X18.0465 Y19.7478 
G01 X14.4432 Y19.7478 
G01 X14.3656 Y19.7270 
G01 X14.2961 Y19.6869 
G01 X14.2842 Y19.6750 
G01 X11.9957 Y19.6750 
G01 X11.9849 Y19.6858 
G01 X11.9120 Y19.7160 
G01 X10.9180 Y19.7160 
G01 X10.8451 Y19.6858 
G01 X10.7892 Y19.6299 
G01 X10.7590 Y19.5570 
G00 Z2.5400 
G00 X10.7590 Y21.4570 
G01 Z-0.1000 F254.00 
G01 X10.7590 Y21.4410 F300.00 
G01 X10.6070 Y21.4410 
G01 X10.6070 Y21.4636 
G01 X10.6309 Y21.5528 
G01 X10.6770 Y21.6327 
G01 X10.7423 Y21.6980 
G01 X10.8222 Y21.7441 
G01 X10.9114 Y21.7680 
G01 X11.2440 Y21.7680 
G01 X11.2440 Y21.6160 
G01 X10.9180 Y21.6160 
G01 X10.8451 Y21.5858 
G01 X10.7892 Y21.5299 
G01 X10.7590 Y21.4570 
G00 Z2.5400 
G00 X11.9186 Y21.7680 
G01 Z-0.1000 F254.00 
G01 X12.0078 Y21.7441 F300.00 
G01 X12.0877 Y21.6980 
G01 X12.1530 Y21.6327 
G01 X12.1991 Y21.5528 
G01 X12.2230 Y21.4636 
G01 X12.2230 Y21.4410 
G01 X12.0710 Y21.4410 
G01 X12.0710 Y21.4570 
G01 X12.0408 Y21.5299 
G01 X11.9849 Y21.5858 
G01 X11.9120 Y21.6160 
G01 X11.5860 Y21.6160 
G01 X11.5860 Y21.7680 
G01 X11.9186 Y21.7680 
G00 Z2.5400 
G00 X11.4340 Y32.7160 
G01 Z-0.1000 F254.00 
G01 X11.4600 Y32.6531 F300.00 
G01 X11.5081 Y32.6050 
G01 X11.5540 Y32.5860 
G01 X11.5540 Y32.4293 
G01 X11.4803 Y32.4490 
G01 X11.4067 Y32.4915 
G01 X11.3465 Y32.5517 
G01 X11.3040 Y32.6253 
G01 X11.2820 Y32.7075 
G01 X11.2820 Y33.2690 
G01 X11.4340 Y33.2690 
G01 X11.4340 Y32.7160 
G00 Z2.5400 
G00 X11.9419 Y32.6050 
G01 Z-0.1000 F254.00 
G01 X11.9900 Y32.6531 F300.00 
G01 X12.0160 Y32.7160 
G01 X12.0160 Y34.1640 
G01 X11.9900 Y34.2269 
G01 X11.9419 Y34.2750 
G01 X11.8960 Y34.2940 
G01 X11.8960 Y34.4507 
G01 X11.9697 Y34.4310 
G01 X12.0433 Y34.3885 
G01 X12.0635 Y34.3683 
G01 X12.1043 Y34.3514 
G01 X12.6457 Y34.3514 
G01 X12.6865 Y34.3683 
G01 X12.7067 Y34.3885 
G01 X12.7803 Y34.4310 
G01 X12.8540 Y34.4507 
G01 X12.8540 Y34.2940 
G01 X12.8081 Y34.2750 
G01 X12.7600 Y34.2269 
G01 X12.7340 Y34.1640 
G01 X12.7340 Y32.7160 
G01 X12.7600 Y32.6531 
G01 X12.8081 Y32.6050 
G01 X12.8540 Y32.5860 
G01 X12.8540 Y32.4293 
G01 X12.8488 Y32.4307 
G01 X12.8341 Y32.4287 
G01 X12.8193 Y32.4287 
G01 X12.8124 Y32.4259 
G01 X12.8051 Y32.4249 
G01 X12.7922 Y32.4175 
G01 X12.7785 Y32.4118 
G01 X12.7733 Y32.4066 
G01 X12.7668 Y32.4029 
G01 X12.7578 Y32.3911 
G01 X12.7473 Y32.3806 
G01 X12.7444 Y32.3737 
G01 X12.7399 Y32.3678 
G01 X12.7361 Y32.3535 
G01 X12.7304 Y32.3398 
G01 X12.7304 Y32.3324 
G01 X12.7285 Y32.3252 
G01 X12.7304 Y32.3105 
G01 X12.7304 Y31.2778 
G01 X11.8023 Y30.3497 
G01 X11.7854 Y30.3089 
G01 X11.7854 Y30.1603 
G01 X11.8023 Y30.1195 
G01 X11.8335 Y30.0883 
G01 X12.0935 Y29.8283 
G01 X12.1343 Y29.8114 
G01 X12.4420 Y29.8114 
G01 X12.5014 Y29.7520 
G01 X12.5014 Y28.6680 
G01 X12.4420 Y28.6086 
G01 X11.9905 Y28.6086 
G01 X11.9735 Y28.6016 
G01 X11.7288 Y28.6006 
G01 X11.7095 Y28.6086 
G01 X11.2580 Y28.6086 
G01 X11.1986 Y28.6680 
G01 X11.1986 Y28.9149 
G01 X11.1817 Y28.9557 
G01 X11.1505 Y28.9869 
G01 X11.0746 Y29.0628 
G01 X11.0746 Y29.0997 
G01 X11.0577 Y29.1405 
G01 X11.0265 Y29.1717 
G01 X7.2748 Y32.9234 
G01 X7.1034 Y33.0948 
G01 X7.0106 Y33.3188 
G01 X7.0106 Y34.0117 
G01 X6.9937 Y34.0525 
G01 X6.9625 Y34.0837 
G01 X6.9217 Y34.1006 
G01 X5.6879 Y34.1006 
G01 X5.6715 Y34.0938 
G01 X5.6471 Y34.0837 
G01 X5.6220 Y34.0586 
G01 X4.5380 Y34.0586 
G01 X4.4786 Y34.1180 
G01 X4.4786 Y34.5695 
G01 X4.4716 Y34.5864 
G01 X4.4706 Y34.8312 
G01 X4.4786 Y34.8505 
G01 X4.4786 Y35.3020 
G01 X4.5380 Y35.3614 
G01 X5.6220 Y35.3614 
G01 X5.6465 Y35.3369 
G01 X5.6705 Y35.3266 
G01 X5.6879 Y35.3194 
G01 X7.0121 Y35.3194 
G01 X7.0285 Y35.3262 
G01 X7.0529 Y35.3363 
G01 X7.0780 Y35.3614 
G01 X8.1620 Y35.3614 
G01 X8.2214 Y35.3020 
G01 X8.2214 Y34.8505 
G01 X8.2284 Y34.8335 
G01 X8.2294 Y34.5888 
G01 X8.2214 Y34.5695 
G01 X8.2214 Y34.4305 
G01 X8.2284 Y34.4135 
G01 X8.2294 Y33.7163 
G01 X8.2463 Y33.6755 
G01 X8.2775 Y33.6443 
G01 X11.1217 Y30.8001 
G01 X11.1625 Y30.7832 
G01 X11.2067 Y30.7832 
G01 X11.2231 Y30.7900 
G01 X11.2475 Y30.8001 
G01 X11.2787 Y30.8313 
G01 X11.2997 Y30.8523 
G01 X12.0027 Y31.5553 
G01 X12.0196 Y31.5961 
G01 X12.0196 Y32.3105 
G01 X12.0215 Y32.3251 
G01 X12.0196 Y32.3323 
G01 X12.0196 Y32.3398 
G01 X12.0139 Y32.3535 
G01 X12.0101 Y32.3678 
G01 X12.0056 Y32.3737 
G01 X12.0027 Y32.3806 
G01 X11.9922 Y32.3911 
G01 X11.9832 Y32.4028 
G01 X11.9768 Y32.4065 
G01 X11.9715 Y32.4118 
G01 X11.9578 Y32.4175 
G01 X11.9450 Y32.4249 
G01 X11.9376 Y32.4259 
G01 X11.9307 Y32.4287 
G01 X11.9159 Y32.4287 
G01 X11.9012 Y32.4307 
G01 X11.8960 Y32.4293 
G01 X11.8960 Y32.5860 
G01 X11.9419 Y32.6050 
G00 Z2.5400 
G00 X8.1710 Y35.2811 
G01 Z-0.1000 F254.00 
G01 X8.1411 Y35.3110 F300.00 
G01 X7.0989 Y35.3110 
G01 X7.0690 Y35.2811 
G01 X7.0690 Y35.2690 
G01 X5.6310 Y35.2690 
G01 X5.6310 Y35.2811 
G01 X5.6011 Y35.3110 
G01 X4.5589 Y35.3110 
G01 X4.5290 Y35.2811 
G01 X4.5290 Y34.8134 
G01 X4.5210 Y34.7836 
G01 X4.5210 Y34.6364 
G01 X4.5290 Y34.6065 
G01 X4.5290 Y34.1389 
G01 X4.5589 Y34.1090 
G01 X5.6011 Y34.1090 
G01 X5.6310 Y34.1389 
G01 X5.6310 Y34.1510 
G01 X6.9685 Y34.1510 
G01 X7.0610 Y34.0585 
G01 X7.0610 Y33.3664 
G01 X7.0991 Y33.2242 
G01 X7.1727 Y33.0968 
G01 X7.2768 Y32.9927 
G01 X11.1343 Y29.1352 
G01 X11.1458 Y29.0923 
G01 X11.1859 Y29.0227 
G01 X11.2427 Y28.9659 
G01 X11.2490 Y28.9623 
G01 X11.2490 Y28.6889 
G01 X11.2789 Y28.6590 
G01 X11.7465 Y28.6590 
G01 X11.7764 Y28.6510 
G01 X11.9236 Y28.6510 
G01 X11.9535 Y28.6590 
G01 X12.4211 Y28.6590 
G01 X12.4510 Y28.6889 
G01 X12.4510 Y29.7311 
G01 X12.4211 Y29.7610 
G01 X12.0895 Y29.7610 
G01 X11.7350 Y30.1155 
G01 X11.7350 Y30.3537 
G01 X12.5623 Y31.1809 
G01 X12.6191 Y31.2377 
G01 X12.6592 Y31.3073 
G01 X12.6800 Y31.3848 
G01 X12.6800 Y33.4802 
G01 X12.6660 Y33.5324 
G01 X12.6660 Y34.1640 
G01 X12.6400 Y34.2269 
G01 X12.5919 Y34.2750 
G01 X12.5290 Y34.3010 
G01 X12.2210 Y34.3010 
G01 X12.1581 Y34.2750 
G01 X12.1100 Y34.2269 
G01 X12.0840 Y34.1640 
G01 X12.0840 Y33.5324 
G01 X12.0700 Y33.4802 
G01 X12.0700 Y31.5513 
G01 X11.2427 Y30.7241 
G01 X11.1859 Y30.6673 
G01 X8.1790 Y33.6715 
G01 X8.1790 Y34.3636 
G01 X8.1710 Y34.3935 
G01 X8.1710 Y34.6065 
G01 X8.1790 Y34.6364 
G01 X8.1790 Y34.7836 
G01 X8.1710 Y34.8135 
G01 X8.1710 Y35.2811 
G00 Z2.5400 
G00 X11.5081 Y34.2750 
G01 Z-0.1000 F254.00 
G01 X11.4600 Y34.2269 F300.00 
G01 X11.4340 Y34.1640 
G01 X11.4340 Y33.6110 
G01 X11.2820 Y33.6110 
G01 X11.2820 Y34.1725 
G01 X11.3040 Y34.2547 
G01 X11.3465 Y34.3283 
G01 X11.4067 Y34.3885 
G01 X11.4803 Y34.4310 
G01 X11.5540 Y34.4507 
G01 X11.5540 Y34.2940 
G01 X11.5081 Y34.2750 
G00 Z2.5400 
G00 X13.2697 Y34.4310 
G01 Z-0.1000 F254.00 
G01 X13.3433 Y34.3885 F300.00 
G01 X13.3631 Y34.3687 
G01 X13.3930 Y34.3561 
G01 X13.4043 Y34.3514 
G01 X13.4261 Y34.3514 
G01 X13.4484 Y34.3514 
G01 X13.8867 Y34.3514 
G01 X14.0164 Y34.2217 
G01 X14.0164 Y33.6251 
G01 X14.0333 Y33.5843 
G01 X14.0645 Y33.5531 
G01 X15.3703 Y32.2473 
G01 X15.5954 Y32.0222 
G01 X15.5954 Y31.2423 
G01 X15.5954 Y31.2205 
G01 X15.5954 Y31.1982 
G01 X15.5999 Y31.1873 
G01 X15.6123 Y31.1574 
G01 X15.6435 Y31.1262 
G01 X15.6560 Y31.1210 
G01 X15.6656 Y31.1170 
G01 X15.7467 Y31.0359 
G01 X15.7779 Y31.0047 
G01 X15.8064 Y30.9929 
G01 X15.8187 Y30.9878 
G01 X17.1833 Y30.9878 
G01 X17.2241 Y31.0047 
G01 X17.2553 Y31.0359 
G01 X17.2722 Y31.0767 
G01 X17.2722 Y31.8510 
G01 X17.3495 Y32.0376 
G01 X17.4219 Y32.1100 
G01 X17.4316 Y32.1335 
G01 X17.4388 Y32.1508 
G01 X17.4388 Y32.1950 
G01 X17.4320 Y32.2114 
G01 X17.4219 Y32.2358 
G01 X17.3907 Y32.2670 
G01 X17.2275 Y32.4302 
G01 X17.0690 Y32.8129 
G01 X17.0690 Y33.2271 
G01 X17.2275 Y33.6098 
G01 X17.5204 Y33.9027 
G01 X17.9031 Y34.0612 
G01 X20.1969 Y34.0612 
G01 X20.5796 Y33.9027 
G01 X20.8725 Y33.6098 
G01 X21.0310 Y33.2271 
G01 X21.0310 Y32.8129 
G01 X20.8725 Y32.4302 
G01 X20.5796 Y32.1373 
G01 X20.1969 Y31.9788 
G01 X18.7508 Y31.9788 
G01 X18.7100 Y31.9619 
G01 X18.6788 Y31.9307 
G01 X18.3047 Y31.5566 
G01 X18.2878 Y31.5158 
G01 X18.2878 Y30.7695 
G01 X18.3047 Y30.7287 
G01 X18.3359 Y30.6975 
G01 X18.3814 Y30.6520 
G01 X18.3814 Y29.4680 
G01 X18.3220 Y29.4086 
G01 X17.2380 Y29.4086 
G01 X17.1786 Y29.4680 
G01 X17.1786 Y29.8833 
G01 X17.1617 Y29.9241 
G01 X17.1305 Y29.9553 
G01 X17.0897 Y29.9722 
G01 X15.8187 Y29.9722 
G01 X15.8071 Y29.9674 
G01 X15.7779 Y29.9553 
G01 X15.7467 Y29.9241 
G01 X15.6656 Y29.8430 
G01 X15.3895 Y29.7286 
G01 X15.0905 Y29.7286 
G01 X14.8144 Y29.8430 
G01 X14.6030 Y30.0544 
G01 X14.4886 Y30.3305 
G01 X14.4886 Y30.6295 
G01 X14.6030 Y30.9056 
G01 X14.8144 Y31.1170 
G01 X14.8231 Y31.1206 
G01 X14.8365 Y31.1262 
G01 X14.8674 Y31.1571 
G01 X14.8799 Y31.1869 
G01 X14.8846 Y31.1982 
G01 X14.8846 Y31.2200 
G01 X14.8846 Y31.2423 
G01 X14.8846 Y31.7039 
G01 X14.8677 Y31.7447 
G01 X14.8551 Y31.7573 
G01 X14.0793 Y32.5330 
G01 X14.0481 Y32.5643 
G01 X14.0073 Y32.5812 
G01 X13.9632 Y32.5812 
G01 X13.9467 Y32.5744 
G01 X13.9224 Y32.5643 
G01 X13.8911 Y32.5330 
G01 X13.8867 Y32.5286 
G01 X13.4484 Y32.5286 
G01 X13.4266 Y32.5286 
G01 X13.4043 Y32.5286 
G01 X13.3934 Y32.5241 
G01 X13.3635 Y32.5117 
G01 X13.3433 Y32.4915 
G01 X13.2697 Y32.4490 
G01 X13.1960 Y32.4293 
G01 X13.1960 Y32.5860 
G01 X13.2419 Y32.6050 
G01 X13.2900 Y32.6531 
G01 X13.3160 Y32.7160 
G01 X13.3160 Y34.1640 
G01 X13.2900 Y34.2269 
G01 X13.2419 Y34.2750 
G01 X13.1960 Y34.2940 
G01 X13.1960 Y34.4507 
G01 X13.2697 Y34.4310 
G00 Z2.5400 
G00 X18.3011 Y30.6610 
G01 Z-0.1000 F254.00 
G01 X18.2374 Y30.6610 F300.00 
G01 X18.2374 Y31.5605 
G01 X18.7061 Y32.0292 
G01 X20.0874 Y32.0292 
G01 X20.2788 Y32.0673 
G01 X20.4591 Y32.1420 
G01 X20.6214 Y32.2504 
G01 X20.7594 Y32.3884 
G01 X20.8678 Y32.5507 
G01 X20.9425 Y32.7310 
G01 X20.9806 Y32.9224 
G01 X20.9806 Y33.1176 
G01 X20.9425 Y33.3090 
G01 X20.8678 Y33.4893 
G01 X20.7594 Y33.6516 
G01 X20.6214 Y33.7896 
G01 X20.4591 Y33.8980 
G01 X20.2788 Y33.9727 
G01 X20.0874 Y34.0108 
G01 X18.0126 Y34.0108 
G01 X17.8212 Y33.9727 
G01 X17.6409 Y33.8980 
G01 X17.4786 Y33.7896 
G01 X17.3406 Y33.6516 
G01 X17.2322 Y33.4893 
G01 X17.1575 Y33.3090 
G01 X17.1194 Y33.1176 
G01 X17.1194 Y32.9224 
G01 X17.1575 Y32.7310 
G01 X17.2322 Y32.5507 
G01 X17.3406 Y32.3884 
G01 X17.4786 Y32.2504 
G01 X17.5715 Y32.1883 
G01 X17.4992 Y32.1160 
G01 X17.4140 Y32.0308 
G01 X17.3538 Y31.9266 
G01 X17.3226 Y31.8102 
G01 X17.3226 Y30.9374 
G01 X15.7740 Y30.9374 
G01 X15.6869 Y31.0245 
G01 X15.5720 Y31.1012 
G01 X15.5450 Y31.1124 
G01 X15.5450 Y31.9152 
G01 X15.5242 Y31.9927 
G01 X15.4841 Y32.0623 
G01 X15.4273 Y32.1191 
G01 X13.9660 Y33.5803 
G01 X13.9660 Y34.1640 
G01 X13.9400 Y34.2269 
G01 X13.8919 Y34.2750 
G01 X13.8290 Y34.3010 
G01 X13.5210 Y34.3010 
G01 X13.4581 Y34.2750 
G01 X13.4100 Y34.2269 
G01 X13.3840 Y34.1640 
G01 X13.3840 Y33.5324 
G01 X13.3700 Y33.4802 
G01 X13.3700 Y33.3998 
G01 X13.3840 Y33.3476 
G01 X13.3840 Y32.7160 
G01 X13.4100 Y32.6531 
G01 X13.4581 Y32.6050 
G01 X13.5210 Y32.5790 
G01 X13.8290 Y32.5790 
G01 X13.8919 Y32.6050 
G01 X13.9400 Y32.6531 
G01 X13.9660 Y32.7160 
G01 X14.9350 Y31.7487 
G01 X14.9350 Y31.1124 
G01 X14.9080 Y31.1012 
G01 X14.7931 Y31.0245 
G01 X14.6955 Y30.9269 
G01 X14.6188 Y30.8120 
G01 X14.5659 Y30.6845 
G01 X14.5390 Y30.5490 
G01 X14.5390 Y30.4110 
G01 X14.5659 Y30.2755 
G01 X14.6188 Y30.1480 
G01 X14.6955 Y30.0331 
G01 X14.7931 Y29.9355 
G01 X14.9080 Y29.8588 
G01 X15.0355 Y29.8059 
G01 X15.1710 Y29.7790 
G01 X15.3090 Y29.7790 
G01 X15.4445 Y29.8059 
G01 X15.5720 Y29.8588 
G01 X15.6869 Y29.9355 
G01 X15.7740 Y30.0226 
G01 X17.1705 Y30.0226 
G01 X17.2290 Y29.9641 
G01 X17.2290 Y29.4889 
G01 X17.2589 Y29.4590 
G01 X18.3011 Y29.4590 
G01 X18.3310 Y29.4889 
G01 X18.3310 Y30.6311 
G01 X18.3011 Y30.6610 
G00 Z2.5400 
G00 X13.9660 Y38.4040 
G01 Z-0.1000 F254.00 
G01 X13.9400 Y38.4669 F300.00 
G01 X13.8919 Y38.5150 
G01 X13.8460 Y38.5340 
G01 X13.8460 Y38.6907 
G01 X13.9197 Y38.6710 
G01 X13.9933 Y38.6285 
G01 X14.0535 Y38.5683 
G01 X14.0960 Y38.4947 
G01 X14.1180 Y38.4125 
G01 X14.1180 Y37.8510 
G01 X13.9660 Y37.8510 
G01 X13.9660 Y38.4040 
G00 Z2.5400 
G00 X6.9170 Y16.2367 
G01 Z-0.1000 F254.00 
G01 X6.9308 Y16.2883 F300.00 
G01 X6.9576 Y16.3346 
G01 X6.9954 Y16.3724 
G01 X7.0416 Y16.3992 
G01 X7.0933 Y16.4130 
G01 X7.4490 Y16.4130 
G01 X7.4490 Y16.2610 
G01 X7.0989 Y16.2610 
G01 X7.0690 Y16.2311 
G01 X7.0690 Y15.8310 
G01 X6.9170 Y15.8310 
G01 X6.9170 Y16.2367 
G00 Z2.5400 
G00 X19.3233 Y9.4570 
G01 Z-0.1000 F254.00 
G01 X19.2716 Y9.4708 F300.00 
G01 X19.2254 Y9.4976 
G01 X19.1876 Y9.5354 
G01 X19.1608 Y9.5816 
G01 X19.1470 Y9.6333 
G01 X19.1470 Y9.9890 
G01 X19.2990 Y9.9890 
G01 X19.2990 Y9.6389 
G01 X19.3289 Y9.6090 
G01 X19.7290 Y9.6090 
G01 X19.7290 Y9.4570 
G01 X19.3233 Y9.4570 
G00 Z2.5400 
G00 X20.5283 Y10.8492 
G01 Z-0.1000 F254.00 
G01 X20.5746 Y10.8224 F300.00 
G01 X20.6124 Y10.7846 
G01 X20.6392 Y10.7383 
G01 X20.6530 Y10.6867 
G01 X20.6530 Y10.3310 
G01 X20.5010 Y10.3310 
G01 X20.5010 Y10.6811 
G01 X20.4711 Y10.7110 
G01 X20.0710 Y10.7110 
G01 X20.0710 Y10.8630 
G01 X20.4767 Y10.8630 
G01 X20.5283 Y10.8492 
G00 Z2.5400 
G00 X20.6530 Y9.6333 
G01 Z-0.1000 F254.00 
G01 X20.6392 Y9.5816 F300.00 
G01 X20.6124 Y9.5354 
G01 X20.5746 Y9.4976 
G01 X20.5283 Y9.4708 
G01 X20.4767 Y9.4570 
G01 X20.0710 Y9.4570 
G01 X20.0710 Y9.6090 
G01 X20.4711 Y9.6090 
G01 X20.5010 Y9.6389 
G01 X20.5010 Y9.9890 
G01 X20.6530 Y9.9890 
G01 X20.6530 Y9.6333 
G00 Z2.5400 
G00 X19.1470 Y10.6867 
G01 Z-0.1000 F254.00 
G01 X19.1608 Y10.7383 F300.00 
G01 X19.1876 Y10.7846 
G01 X19.2254 Y10.8224 
G01 X19.2716 Y10.8492 
G01 X19.3233 Y10.8630 
G01 X19.7290 Y10.8630 
G01 X19.7290 Y10.7110 
G01 X19.3289 Y10.7110 
G01 X19.2990 Y10.6811 
G01 X19.2990 Y10.3310 
G01 X19.1470 Y10.3310 
G01 X19.1470 Y10.6867 
G00 Z2.5400 
G00 X8.3092 Y15.0316 
G01 Z-0.1000 F254.00 
G01 X8.2824 Y14.9854 F300.00 
G01 X8.2446 Y14.9476 
G01 X8.1983 Y14.9208 
G01 X8.1467 Y14.9070 
G01 X7.7910 Y14.9070 
G01 X7.7910 Y15.0590 
G01 X8.1411 Y15.0590 
G01 X8.1710 Y15.0889 
G01 X8.1710 Y15.4890 
G01 X8.3230 Y15.4890 
G01 X8.3230 Y15.0833 
G01 X8.3092 Y15.0316 
G00 Z2.5400 
G00 X7.0933 Y14.9070 
G01 Z-0.1000 F254.00 
G01 X7.0416 Y14.9208 F300.00 
G01 X6.9954 Y14.9476 
G01 X6.9576 Y14.9854 
G01 X6.9308 Y15.0316 
G01 X6.9170 Y15.0833 
G01 X6.9170 Y15.4890 
G01 X7.0690 Y15.4890 
G01 X7.0690 Y15.0889 
G01 X7.0989 Y15.0590 
G01 X7.4490 Y15.0590 
G01 X7.4490 Y14.9070 
G01 X7.0933 Y14.9070 
G00 Z2.5400 
G00 X8.1467 Y16.4130 
G01 Z-0.1000 F254.00 
G01 X8.1983 Y16.3992 F300.00 
G01 X8.2446 Y16.3724 
G01 X8.2824 Y16.3346 
G01 X8.3092 Y16.2883 
G01 X8.3230 Y16.2367 
G01 X8.3230 Y15.8310 
G01 X8.1710 Y15.8310 
G01 X8.1710 Y16.2311 
G01 X8.1411 Y16.2610 
G01 X7.7910 Y16.2610 
G01 X7.7910 Y16.4130 
G01 X8.1467 Y16.4130 
G00 Z2.5400 
G00 X13.4581 Y38.5150 
G01 Z-0.1000 F254.00 
G01 X13.4100 Y38.4669 F300.00 
G01 X13.3840 Y38.4040 
G01 X13.3840 Y36.9560 
G01 X13.4100 Y36.8931 
G01 X13.4581 Y36.8450 
G01 X13.5040 Y36.8260 
G01 X13.5040 Y36.6693 
G01 X13.4303 Y36.6890 
G01 X13.3567 Y36.7315 
G01 X13.3365 Y36.7517 
G01 X13.2957 Y36.7686 
G01 X12.8193 Y36.7686 
G01 X12.7785 Y36.7517 
G01 X12.7473 Y36.7205 
G01 X12.7304 Y36.6797 
G01 X12.7304 Y36.0561 
G01 X12.7473 Y36.0153 
G01 X12.7785 Y35.9841 
G01 X12.8303 Y35.9323 
G01 X12.8711 Y35.9154 
G01 X14.8534 Y35.9154 
G01 X14.8942 Y35.9323 
G01 X14.9254 Y35.9635 
G01 X14.9524 Y35.9905 
G01 X15.1390 Y36.0678 
G01 X17.1415 Y36.0678 
G01 X17.1531 Y36.0726 
G01 X17.1823 Y36.0847 
G01 X17.2135 Y36.1159 
G01 X17.2275 Y36.1498 
G01 X17.5204 Y36.4427 
G01 X17.9031 Y36.6012 
G01 X20.1969 Y36.6012 
G01 X20.5796 Y36.4427 
G01 X20.8725 Y36.1498 
G01 X20.8865 Y36.1159 
G01 X20.9177 Y36.0847 
G01 X20.9462 Y36.0729 
G01 X20.9585 Y36.0678 
G01 X21.6910 Y36.0678 
G01 X21.8776 Y35.9905 
G01 X23.1476 Y34.7205 
G01 X23.2905 Y34.5776 
G01 X23.3678 Y34.3910 
G01 X23.3678 Y8.7890 
G01 X23.2905 Y8.6024 
G01 X23.1164 Y8.4283 
G01 X22.0205 Y7.3324 
G01 X21.8776 Y7.1895 
G01 X21.6910 Y7.1122 
G01 X18.4783 Y7.1122 
G01 X18.4375 Y7.0953 
G01 X18.4063 Y7.0641 
G01 X18.3894 Y7.0233 
G01 X18.3894 Y6.2288 
G01 X18.2966 Y6.0048 
G01 X18.2920 Y6.0002 
G01 X18.2838 Y5.9803 
G01 X18.2751 Y5.9594 
G01 X18.2751 Y5.9375 
G01 X18.2751 Y5.9153 
G01 X18.2751 Y5.8545 
G01 X18.2920 Y5.8137 
G01 X18.3232 Y5.7825 
G01 X18.3640 Y5.7656 
G01 X18.6634 Y5.7656 
G01 X18.7042 Y5.7825 
G01 X18.7354 Y5.8137 
G01 X18.7624 Y5.8407 
G01 X18.9490 Y5.9180 
G01 X19.4812 Y5.9180 
G01 X19.6678 Y5.8407 
G01 X19.8107 Y5.6978 
G01 X19.8880 Y5.5112 
G01 X19.8880 Y2.6012 
G01 X19.8880 Y2.5792 
G01 X19.8880 Y2.5583 
G01 X19.8969 Y2.5368 
G01 X19.9049 Y2.5176 
G01 X20.1603 Y1.9388 
G01 X20.1683 Y1.9195 
G01 X20.1847 Y1.9031 
G01 X20.1995 Y1.8883 
G01 X20.2210 Y1.8794 
G01 X20.2403 Y1.8714 
G01 X20.2637 Y1.8714 
G01 X20.4920 Y1.8714 
G01 X20.5514 Y1.8120 
G01 X20.5514 Y0.7280 
G01 X20.4920 Y0.6686 
G01 X19.3080 Y0.6686 
G01 X19.2486 Y0.7280 
G01 X19.2486 Y1.4450 
G01 X19.2486 Y1.4671 
G01 X19.2486 Y1.4879 
G01 X19.2397 Y1.5094 
G01 X19.2317 Y1.5287 
G01 X19.1661 Y1.6765 
G01 X19.1581 Y1.6958 
G01 X19.1417 Y1.7122 
G01 X19.1269 Y1.7270 
G01 X19.1054 Y1.7359 
G01 X19.0861 Y1.7439 
G01 X19.0627 Y1.7439 
G01 X19.0419 Y1.7439 
G01 X19.0204 Y1.7350 
G01 X19.0011 Y1.7270 
G01 X18.9847 Y1.7106 
G01 X18.9699 Y1.6958 
G01 X18.9610 Y1.6743 
G01 X18.9530 Y1.6550 
G01 X18.9530 Y1.6317 
G01 X18.9530 Y1.4410 
G01 X18.8010 Y1.4410 
G01 X18.8010 Y1.7911 
G01 X18.7711 Y1.8210 
G01 X18.3710 Y1.8210 
G01 X18.3710 Y1.9730 
G01 X18.7767 Y1.9730 
G01 X18.8283 Y1.9592 
G01 X18.8395 Y1.9527 
G01 X18.8482 Y1.9516 
G01 X18.8564 Y1.9484 
G01 X18.8699 Y1.9487 
G01 X18.8833 Y1.9469 
G01 X18.8918 Y1.9492 
G01 X18.9005 Y1.9494 
G01 X18.9129 Y1.9548 
G01 X18.9260 Y1.9583 
G01 X18.9329 Y1.9636 
G01 X18.9409 Y1.9672 
G01 X18.9503 Y1.9769 
G01 X18.9610 Y1.9852 
G01 X18.9654 Y1.9927 
G01 X18.9714 Y1.9991 
G01 X18.9763 Y2.0117 
G01 X18.9831 Y2.0234 
G01 X18.9843 Y2.0321 
G01 X18.9874 Y2.0402 
G01 X18.9871 Y2.0538 
G01 X18.9889 Y2.0672 
G01 X18.9866 Y2.0756 
G01 X18.9864 Y2.0844 
G01 X18.9810 Y2.0968 
G01 X18.9775 Y2.1099 
G01 X18.9722 Y2.1168 
G01 X18.9627 Y2.1382 
G01 X18.9547 Y2.1575 
G01 X18.9494 Y2.1634 
G01 X18.9216 Y2.2303 
G01 X18.9132 Y2.2507 
G01 X18.9052 Y2.2699 
G01 X18.8751 Y2.3371 
G01 X18.8751 Y2.3426 
G01 X18.8724 Y2.3501 
G01 X18.8724 Y2.4225 
G01 X18.8724 Y2.4446 
G01 X18.8724 Y2.4654 
G01 X18.8703 Y2.5390 
G01 X18.8724 Y2.5441 
G01 X18.8724 Y2.5674 
G01 X18.8724 Y4.8820 
G01 X18.8656 Y4.8985 
G01 X18.8555 Y4.9228 
G01 X18.8243 Y4.9541 
G01 X18.7835 Y4.9710 
G01 X18.7624 Y4.9797 
G01 X18.7042 Y5.0379 
G01 X18.6634 Y5.0548 
G01 X18.4656 Y5.0548 
G01 X18.4248 Y5.0379 
G01 X18.3936 Y5.0067 
G01 X18.3767 Y4.9659 
G01 X18.3767 Y4.9087 
G01 X18.2247 Y4.9087 
G01 X18.2247 Y4.9868 
G01 X18.1948 Y5.0167 
G01 X16.6540 Y5.0167 
G01 X16.6241 Y4.9868 
G01 X16.6241 Y4.9087 
G01 X16.4721 Y4.9087 
G01 X16.4721 Y4.9924 
G01 X16.4859 Y5.0440 
G01 X16.5127 Y5.0903 
G01 X16.5568 Y5.1345 
G01 X16.5737 Y5.1753 
G01 X16.5737 Y5.6727 
G01 X16.5826 Y5.6943 
G01 X16.5873 Y5.7056 
G01 X16.5873 Y5.7274 
G01 X16.5873 Y5.7498 
G01 X16.5764 Y5.7761 
G01 X16.5737 Y5.7827 
G01 X16.5737 Y6.3031 
G01 X16.6331 Y6.3625 
G01 X17.0817 Y6.3625 
G01 X17.1225 Y6.3794 
G01 X17.1537 Y6.4106 
G01 X17.1706 Y6.4514 
G01 X17.1706 Y9.8612 
G01 X17.2634 Y10.0852 
G01 X17.4660 Y10.2878 
G01 X17.5005 Y10.3223 
G01 X17.5310 Y10.3528 
G01 X17.5414 Y10.3769 
G01 X17.5486 Y10.3943 
G01 X17.5486 Y10.7020 
G01 X17.6080 Y10.7614 
G01 X18.0595 Y10.7614 
G01 X18.0764 Y10.7684 
G01 X18.3212 Y10.7694 
G01 X18.3405 Y10.7614 
G01 X18.7920 Y10.7614 
G01 X18.8514 Y10.7020 
G01 X18.8514 Y9.6180 
G01 X18.7920 Y9.5586 
G01 X18.5285 Y9.5586 
G01 X18.5065 Y9.5586 
G01 X18.4843 Y9.5586 
G01 X18.4684 Y9.5520 
G01 X18.4435 Y9.5417 
G01 X18.4312 Y9.5294 
G01 X18.4123 Y9.5105 
G01 X18.4063 Y9.5045 
G01 X18.3979 Y9.4842 
G01 X18.3894 Y9.4637 
G01 X18.3894 Y9.4414 
G01 X18.3894 Y8.2167 
G01 X18.4063 Y8.1759 
G01 X18.4375 Y8.1447 
G01 X18.4783 Y8.1278 
G01 X21.3558 Y8.1278 
G01 X21.3966 Y8.1447 
G01 X21.4278 Y8.1759 
G01 X22.3353 Y9.0834 
G01 X22.3522 Y9.1242 
G01 X22.3522 Y16.8133 
G01 X22.3353 Y16.8541 
G01 X22.3041 Y16.8853 
G01 X22.2633 Y16.9022 
G01 X8.3103 Y16.9022 
G01 X8.2695 Y16.8853 
G01 X8.2383 Y16.8541 
G01 X8.2214 Y16.8133 
G01 X8.2214 Y16.7680 
G01 X8.1620 Y16.7086 
G01 X7.0780 Y16.7086 
G01 X7.0186 Y16.7680 
G01 X7.0186 Y17.9520 
G01 X7.0780 Y18.0114 
G01 X8.1620 Y18.0114 
G01 X8.1921 Y17.9813 
G01 X8.2233 Y17.9501 
G01 X8.2518 Y17.9383 
G01 X8.2641 Y17.9332 
G01 X8.3083 Y17.9332 
G01 X8.3491 Y17.9501 
G01 X8.3803 Y17.9813 
G01 X8.3921 Y18.0098 
G01 X8.3972 Y18.0221 
G01 X8.3972 Y18.8969 
G01 X8.3803 Y18.9377 
G01 X8.3491 Y18.9689 
G01 X8.1986 Y19.1194 
G01 X8.1986 Y19.6206 
G01 X8.3444 Y19.7664 
G01 X8.5152 Y19.7664 
G01 X8.5371 Y19.7664 
G01 X8.5594 Y19.7664 
G01 X8.5688 Y19.7703 
G01 X8.6002 Y19.7833 
G01 X8.6121 Y19.7952 
G01 X8.6174 Y19.8005 
G01 X8.8040 Y19.8778 
G01 X9.0060 Y19.8778 
G01 X9.1926 Y19.8005 
G01 X9.1975 Y19.7956 
G01 X9.2098 Y19.7833 
G01 X9.2402 Y19.7707 
G01 X9.2506 Y19.7664 
G01 X9.2725 Y19.7664 
G01 X9.2948 Y19.7664 
G01 X9.4656 Y19.7664 
G01 X9.6114 Y19.6206 
G01 X9.6114 Y19.1194 
G01 X9.4297 Y18.9377 
G01 X9.4128 Y18.8969 
G01 X9.4128 Y18.0067 
G01 X9.4297 Y17.9659 
G01 X9.4609 Y17.9347 
G01 X9.5017 Y17.9178 
G01 X22.2558 Y17.9178 
G01 X22.2966 Y17.9347 
G01 X22.3278 Y17.9659 
G01 X22.3353 Y17.9734 
G01 X22.3522 Y18.0142 
G01 X22.3522 Y34.0558 
G01 X22.3353 Y34.0966 
G01 X22.3041 Y34.1278 
G01 X21.3966 Y35.0353 
G01 X21.3558 Y35.0522 
G01 X20.9585 Y35.0522 
G01 X20.9469 Y35.0474 
G01 X20.9177 Y35.0353 
G01 X20.8865 Y35.0041 
G01 X20.8725 Y34.9702 
G01 X20.5796 Y34.6773 
G01 X20.1969 Y34.5188 
G01 X17.9031 Y34.5188 
G01 X17.5204 Y34.6773 
G01 X17.2275 Y34.9702 
G01 X17.2135 Y35.0041 
G01 X17.1823 Y35.0353 
G01 X17.1538 Y35.0471 
G01 X17.1415 Y35.0522 
G01 X15.1390 Y35.0522 
G01 X14.9524 Y35.1295 
G01 X14.8942 Y35.1877 
G01 X14.8534 Y35.2046 
G01 X12.5528 Y35.2046 
G01 X12.2965 Y35.4609 
G01 X12.0196 Y35.7378 
G01 X12.0196 Y36.5505 
G01 X12.0215 Y36.5652 
G01 X12.0196 Y36.5724 
G01 X12.0196 Y36.5798 
G01 X12.0139 Y36.5935 
G01 X12.0101 Y36.6078 
G01 X12.0056 Y36.6137 
G01 X12.0027 Y36.6206 
G01 X11.9922 Y36.6311 
G01 X11.9832 Y36.6429 
G01 X11.9767 Y36.6466 
G01 X11.9715 Y36.6518 
G01 X11.9578 Y36.6575 
G01 X11.9449 Y36.6649 
G01 X11.9375 Y36.6659 
G01 X11.9307 Y36.6687 
G01 X11.9158 Y36.6687 
G01 X11.9012 Y36.6707 
G01 X11.8960 Y36.6693 
G01 X11.8960 Y36.8260 
G01 X11.9419 Y36.8450 
G01 X11.9900 Y36.8931 
G01 X12.0160 Y36.9560 
G01 X12.0160 Y38.4040 
G01 X11.9900 Y38.4669 
G01 X11.9419 Y38.5150 
G01 X11.8960 Y38.5340 
G01 X11.8960 Y38.6907 
G01 X11.9012 Y38.6893 
G01 X11.9159 Y38.6913 
G01 X11.9307 Y38.6913 
G01 X11.9375 Y38.6941 
G01 X11.9449 Y38.6951 
G01 X11.9578 Y38.7025 
G01 X11.9715 Y38.7082 
G01 X11.9767 Y38.7134 
G01 X11.9832 Y38.7171 
G01 X11.9922 Y38.7289 
G01 X12.0027 Y38.7394 
G01 X12.0056 Y38.7463 
G01 X12.0101 Y38.7522 
G01 X12.0139 Y38.7665 
G01 X12.0196 Y38.7802 
G01 X12.0196 Y38.7876 
G01 X12.0215 Y38.7948 
G01 X12.0196 Y38.8095 
G01 X12.0196 Y38.9257 
G01 X12.0027 Y38.9665 
G01 X11.9715 Y38.9977 
G01 X11.9307 Y39.0146 
G01 X11.6011 Y39.0146 
G01 X11.5603 Y38.9977 
G01 X11.5291 Y38.9665 
G01 X11.4414 Y38.8787 
G01 X11.4296 Y38.8697 
G01 X11.4259 Y38.8633 
G01 X11.4206 Y38.8580 
G01 X11.4149 Y38.8443 
G01 X11.4075 Y38.8315 
G01 X11.4066 Y38.8241 
G01 X11.4037 Y38.8172 
G01 X11.4037 Y38.8024 
G01 X11.4018 Y38.7877 
G01 X11.4037 Y38.7805 
G01 X11.4037 Y38.7730 
G01 X11.4094 Y38.7594 
G01 X11.4132 Y38.7450 
G01 X11.4177 Y38.7391 
G01 X11.4206 Y38.7322 
G01 X11.4311 Y38.7218 
G01 X11.4401 Y38.7100 
G01 X11.4465 Y38.7063 
G01 X11.4518 Y38.7010 
G01 X11.4655 Y38.6953 
G01 X11.4783 Y38.6879 
G01 X11.4857 Y38.6870 
G01 X11.4926 Y38.6841 
G01 X11.5074 Y38.6841 
G01 X11.5221 Y38.6822 
G01 X11.5293 Y38.6841 
G01 X11.5368 Y38.6841 
G01 X11.5505 Y38.6898 
G01 X11.5540 Y38.6907 
G01 X11.5540 Y38.5340 
G01 X11.5081 Y38.5150 
G01 X11.4600 Y38.4669 
G01 X11.4340 Y38.4040 
G01 X11.4340 Y37.8510 
G01 X11.2820 Y37.8510 
G01 X11.2820 Y38.4125 
G01 X11.2852 Y38.4245 
G01 X11.2909 Y38.4382 
G01 X11.2909 Y38.4457 
G01 X11.2928 Y38.4529 
G01 X11.2909 Y38.4676 
G01 X11.2909 Y38.4824 
G01 X11.2880 Y38.4893 
G01 X11.2871 Y38.4967 
G01 X11.2797 Y38.5095 
G01 X11.2740 Y38.5232 
G01 X11.2687 Y38.5285 
G01 X11.2650 Y38.5349 
G01 X11.2532 Y38.5439 
G01 X11.2428 Y38.5544 
G01 X11.2359 Y38.5573 
G01 X11.2299 Y38.5618 
G01 X11.2156 Y38.5656 
G01 X11.2020 Y38.5713 
G01 X11.1945 Y38.5713 
G01 X11.1873 Y38.5732 
G01 X11.1726 Y38.5713 
G01 X11.1578 Y38.5713 
G01 X11.1509 Y38.5684 
G01 X11.1435 Y38.5675 
G01 X11.1307 Y38.5601 
G01 X11.1170 Y38.5544 
G01 X11.1117 Y38.5491 
G01 X11.1053 Y38.5454 
G01 X11.0962 Y38.5336 
G01 X10.9191 Y38.3565 
G01 X10.9164 Y38.3500 
G01 X10.9022 Y38.3157 
G01 X10.9022 Y38.2716 
G01 X10.9114 Y38.2495 
G01 X10.9114 Y37.9505 
G01 X10.7970 Y37.6744 
G01 X10.6847 Y37.5621 
G01 X10.6678 Y37.5213 
G01 X10.6678 Y37.1195 
G01 X10.6726 Y37.1079 
G01 X10.6847 Y37.0787 
G01 X10.7159 Y37.0475 
G01 X10.7614 Y37.0020 
G01 X10.7614 Y35.8180 
G01 X10.7020 Y35.7586 
G01 X9.6180 Y35.7586 
G01 X9.5586 Y35.8180 
G01 X9.5586 Y37.0020 
G01 X9.6041 Y37.0475 
G01 X9.6353 Y37.0787 
G01 X9.6471 Y37.1072 
G01 X9.6522 Y37.1195 
G01 X9.6522 Y37.5213 
G01 X9.6353 Y37.5621 
G01 X9.6041 Y37.5933 
G01 X9.5230 Y37.6744 
G01 X9.4086 Y37.9505 
G01 X9.4086 Y38.2495 
G01 X9.5230 Y38.5256 
G01 X9.7344 Y38.7370 
G01 X10.0105 Y38.8514 
G01 X10.3095 Y38.8514 
G01 X10.3148 Y38.8492 
G01 X10.3316 Y38.8422 
G01 X10.3757 Y38.8422 
G01 X10.4090 Y38.8560 
G01 X10.4165 Y38.8591 
G01 X11.2828 Y39.7254 
G01 X12.5807 Y39.7254 
G01 X12.6215 Y39.7423 
G01 X12.6527 Y39.7735 
G01 X12.6696 Y39.8143 
G01 X12.6696 Y39.9417 
G01 X12.6527 Y39.9825 
G01 X12.6215 Y40.0137 
G01 X12.5807 Y40.0306 
G01 X10.4363 Y40.0306 
G01 X10.3955 Y40.0137 
G01 X10.3643 Y39.9825 
G01 X8.2463 Y37.8645 
G01 X8.2294 Y37.8237 
G01 X8.2294 Y36.7088 
G01 X8.2214 Y36.6895 
G01 X8.2214 Y36.5505 
G01 X8.2284 Y36.5335 
G01 X8.2294 Y36.2888 
G01 X8.2214 Y36.2695 
G01 X8.2214 Y35.8180 
G01 X8.1620 Y35.7586 
G01 X7.0780 Y35.7586 
G01 X7.0529 Y35.7837 
G01 X7.0121 Y35.8006 
G01 X5.6879 Y35.8006 
G01 X5.6471 Y35.7837 
G01 X5.6220 Y35.7586 
G01 X4.5380 Y35.7586 
G01 X4.4786 Y35.8180 
G01 X4.4786 Y36.2695 
G01 X4.4716 Y36.2864 
G01 X4.4706 Y36.5312 
G01 X4.4786 Y36.5505 
G01 X4.4786 Y37.0020 
G01 X4.5380 Y37.0614 
G01 X5.6220 Y37.0614 
G01 X5.6471 Y37.0363 
G01 X5.6879 Y37.0194 
G01 X6.9217 Y37.0194 
G01 X6.9625 Y37.0363 
G01 X6.9937 Y37.0675 
G01 X7.0106 Y37.1083 
G01 X7.0106 Y38.2212 
G01 X7.1034 Y38.4452 
G01 X7.3060 Y38.6478 
G01 X9.8148 Y41.1566 
G01 X10.0388 Y41.2494 
G01 X10.8333 Y41.2494 
G01 X10.8741 Y41.2663 
G01 X10.9053 Y41.2975 
G01 X10.9222 Y41.3383 
G01 X10.9222 Y42.8610 
G01 X10.9995 Y43.0476 
G01 X11.1424 Y43.1905 
G01 X11.1817 Y43.2298 
G01 X11.1986 Y43.2706 
G01 X11.1986 Y43.7220 
G01 X11.2580 Y43.7814 
G01 X12.4420 Y43.7814 
G01 X12.5014 Y43.7220 
G01 X12.5014 Y42.6380 
G01 X12.4420 Y42.5786 
G01 X12.0267 Y42.5786 
G01 X11.9859 Y42.5617 
G01 X11.9547 Y42.5305 
G01 X11.9378 Y42.4897 
G01 X11.9378 Y41.3383 
G01 X11.9547 Y41.2975 
G01 X11.9859 Y41.2663 
G01 X12.0267 Y41.2494 
G01 X12.8212 Y41.2494 
G01 X13.0452 Y41.1566 
G01 X13.2166 Y40.9852 
G01 X13.3094 Y40.7612 
G01 X13.3094 Y40.5571 
G01 X13.3263 Y40.5163 
G01 X13.3575 Y40.4851 
G01 X13.3804 Y40.4622 
G01 X13.3804 Y38.8095 
G01 X13.3785 Y38.7948 
G01 X13.3804 Y38.7876 
G01 X13.3804 Y38.7802 
G01 X13.3861 Y38.7665 
G01 X13.3899 Y38.7522 
G01 X13.3944 Y38.7463 
G01 X13.3973 Y38.7394 
G01 X13.4078 Y38.7289 
G01 X13.4168 Y38.7171 
G01 X13.4233 Y38.7134 
G01 X13.4285 Y38.7082 
G01 X13.4422 Y38.7025 
G01 X13.4551 Y38.6951 
G01 X13.4624 Y38.6941 
G01 X13.4693 Y38.6913 
G01 X13.4841 Y38.6913 
G01 X13.4988 Y38.6893 
G01 X13.5040 Y38.6907 
G01 X13.5040 Y38.5340 
G01 X13.4581 Y38.5150 
G00 Z2.5400 
G00 X9.3624 Y17.8674 
G01 Z-0.1000 F254.00 
G01 X9.3624 Y19.0240 F300.00 
G01 X9.4020 Y19.0240 
G01 X9.4749 Y19.0542 
G01 X9.5308 Y19.1101 
G01 X9.5610 Y19.1830 
G01 X9.5610 Y19.5570 
G01 X9.5308 Y19.6299 
G01 X9.4749 Y19.6858 
G01 X9.4020 Y19.7160 
G01 X9.2059 Y19.7160 
G01 X9.1858 Y19.7360 
G01 X9.0816 Y19.7962 
G01 X8.9652 Y19.8274 
G01 X8.8448 Y19.8274 
G01 X8.7284 Y19.7962 
G01 X8.6242 Y19.7360 
G01 X8.6041 Y19.7160 
G01 X8.4080 Y19.7160 
G01 X8.3351 Y19.6858 
G01 X8.2792 Y19.6299 
G01 X8.2490 Y19.5570 
G01 X8.2490 Y19.1830 
G01 X8.2792 Y19.1101 
G01 X8.3351 Y19.0542 
G01 X8.4080 Y19.0240 
G01 X8.4476 Y19.0240 
G01 X8.4476 Y17.8674 
G01 X8.1710 Y17.8674 
G01 X8.1710 Y17.9311 
G01 X8.1411 Y17.9610 
G01 X7.0989 Y17.9610 
G01 X7.0690 Y17.9311 
G01 X7.0690 Y16.7889 
G01 X7.0989 Y16.7590 
G01 X8.1411 Y16.7590 
G01 X8.1710 Y16.7889 
G01 X8.1710 Y16.9526 
G01 X22.4026 Y16.9526 
G01 X22.4026 Y9.0795 
G01 X21.4005 Y8.0774 
G01 X18.3390 Y8.0774 
G01 X18.3390 Y9.5085 
G01 X18.4395 Y9.6090 
G01 X18.7711 Y9.6090 
G01 X18.8010 Y9.6389 
G01 X18.8010 Y10.6811 
G01 X18.7711 Y10.7110 
G01 X18.3035 Y10.7110 
G01 X18.2736 Y10.7190 
G01 X18.1264 Y10.7190 
G01 X18.0965 Y10.7110 
G01 X17.6289 Y10.7110 
G01 X17.5990 Y10.6811 
G01 X17.5990 Y10.3495 
G01 X17.4368 Y10.1873 
G01 X17.3327 Y10.0832 
G01 X17.2591 Y9.9558 
G01 X17.2210 Y9.8136 
G01 X17.2210 Y6.3121 
G01 X16.6540 Y6.3121 
G01 X16.6241 Y6.2822 
G01 X16.6241 Y5.8082 
G01 X16.6540 Y5.7783 
G01 X18.1948 Y5.7783 
G01 X18.2247 Y5.8082 
G01 X18.2247 Y6.0042 
G01 X18.2273 Y6.0068 
G01 X18.3009 Y6.1342 
G01 X18.3390 Y6.2764 
G01 X18.3390 Y7.1626 
G01 X21.6502 Y7.1626 
G01 X21.7666 Y7.1938 
G01 X21.8708 Y7.2540 
G01 X21.9560 Y7.3392 
G01 X23.1408 Y8.5240 
G01 X23.2260 Y8.6091 
G01 X23.2862 Y8.7134 
G01 X23.3174 Y8.8298 
G01 X23.3174 Y34.3502 
G01 X23.2862 Y34.4666 
G01 X23.2260 Y34.5708 
G01 X23.1408 Y34.6560 
G01 X21.8708 Y35.9260 
G01 X21.7666 Y35.9862 
G01 X21.6502 Y36.0174 
G01 X20.8728 Y36.0174 
G01 X20.8678 Y36.0293 
G01 X20.7594 Y36.1916 
G01 X20.6214 Y36.3296 
G01 X20.4591 Y36.4380 
G01 X20.2788 Y36.5127 
G01 X20.0874 Y36.5508 
G01 X18.0126 Y36.5508 
G01 X17.8212 Y36.5127 
G01 X17.6409 Y36.4380 
G01 X17.4786 Y36.3296 
G01 X17.3406 Y36.1916 
G01 X17.2322 Y36.0293 
G01 X17.2272 Y36.0174 
G01 X15.1798 Y36.0174 
G01 X15.0634 Y35.9862 
G01 X14.9592 Y35.9260 
G01 X14.8981 Y35.8650 
G01 X12.8263 Y35.8650 
G01 X12.6800 Y36.0113 
G01 X12.6800 Y39.4102 
G01 X12.6592 Y39.4877 
G01 X12.6191 Y39.5573 
G01 X12.5623 Y39.6141 
G01 X12.4927 Y39.6542 
G01 X12.4152 Y39.6750 
G01 X11.3898 Y39.6750 
G01 X11.3123 Y39.6542 
G01 X11.2427 Y39.6141 
G01 X10.3915 Y38.7629 
G01 X10.3645 Y38.7741 
G01 X10.2290 Y38.8010 
G01 X10.0910 Y38.8010 
G01 X9.9555 Y38.7741 
G01 X9.8280 Y38.7212 
G01 X9.7131 Y38.6445 
G01 X9.6155 Y38.5469 
G01 X9.5388 Y38.4320 
G01 X9.4859 Y38.3045 
G01 X9.4590 Y38.1690 
G01 X9.4590 Y38.0310 
G01 X9.4859 Y37.8955 
G01 X9.5388 Y37.7679 
G01 X9.6155 Y37.6531 
G01 X9.7026 Y37.5660 
G01 X9.7026 Y37.0110 
G01 X9.6389 Y37.0110 
G01 X9.6090 Y36.9811 
G01 X9.6090 Y35.8389 
G01 X9.6389 Y35.8090 
G01 X10.6811 Y35.8090 
G01 X10.7110 Y35.8389 
G01 X10.7110 Y36.9811 
G01 X10.6811 Y37.0110 
G01 X10.6174 Y37.0110 
G01 X10.6174 Y37.5660 
G01 X10.7045 Y37.6531 
G01 X10.7812 Y37.7679 
G01 X10.8341 Y37.8955 
G01 X10.8610 Y38.0310 
G01 X10.8610 Y38.1690 
G01 X10.8341 Y38.3045 
G01 X10.8229 Y38.3315 
G01 X11.5563 Y39.0650 
G01 X12.0700 Y39.0650 
G01 X12.0700 Y35.8448 
G01 X12.0908 Y35.7673 
G01 X12.1309 Y35.6977 
G01 X12.5127 Y35.3159 
G01 X12.5823 Y35.2758 
G01 X12.6598 Y35.2550 
G01 X14.8981 Y35.2550 
G01 X14.9592 Y35.1940 
G01 X15.0634 Y35.1338 
G01 X15.1798 Y35.1026 
G01 X17.2272 Y35.1026 
G01 X17.2322 Y35.0907 
G01 X17.3406 Y34.9284 
G01 X17.4786 Y34.7904 
G01 X17.6409 Y34.6820 
G01 X17.8212 Y34.6073 
G01 X18.0126 Y34.5692 
G01 X20.0874 Y34.5692 
G01 X20.2788 Y34.6073 
G01 X20.4591 Y34.6820 
G01 X20.6214 Y34.7904 
G01 X20.7594 Y34.9284 
G01 X20.8678 Y35.0907 
G01 X20.8728 Y35.1026 
G01 X21.4005 Y35.1026 
G01 X22.4026 Y34.1005 
G01 X22.4026 Y17.9695 
G01 X22.3005 Y17.8674 
G01 X10.0998 Y17.8674 
G01 X9.3624 Y17.8674 
G00 Z2.5400 
G00 X12.4510 Y42.6589 
G01 Z-0.1000 F254.00 
G01 X12.4510 Y43.7011 F300.00 
G01 X12.4211 Y43.7310 
G01 X11.2789 Y43.7310 
G01 X11.2490 Y43.7011 
G01 X11.2490 Y43.2259 
G01 X11.1492 Y43.1260 
G01 X11.0640 Y43.0408 
G01 X11.0038 Y42.9366 
G01 X10.9726 Y42.8202 
G01 X10.9726 Y41.1990 
G01 X10.0864 Y41.1990 
G01 X9.9442 Y41.1609 
G01 X9.8168 Y41.0873 
G01 X7.2768 Y38.5473 
G01 X7.1727 Y38.4432 
G01 X7.0991 Y38.3158 
G01 X7.0610 Y38.1736 
G01 X7.0610 Y36.9690 
G01 X5.6310 Y36.9690 
G01 X5.6310 Y36.9811 
G01 X5.6011 Y37.0110 
G01 X4.5589 Y37.0110 
G01 X4.5290 Y36.9811 
G01 X4.5290 Y36.5135 
G01 X4.5210 Y36.4836 
G01 X4.5210 Y36.3364 
G01 X4.5290 Y36.3065 
G01 X4.5290 Y35.8389 
G01 X4.5589 Y35.8090 
G01 X5.6011 Y35.8090 
G01 X5.6310 Y35.8389 
G01 X5.6310 Y35.8510 
G01 X7.0690 Y35.8510 
G01 X7.0690 Y35.8389 
G01 X7.0989 Y35.8090 
G01 X8.1411 Y35.8090 
G01 X8.1710 Y35.8389 
G01 X8.1710 Y36.3065 
G01 X8.1790 Y36.3364 
G01 X8.1790 Y36.4836 
G01 X8.1710 Y36.5134 
G01 X8.1710 Y36.7265 
G01 X8.1790 Y36.7564 
G01 X8.1790 Y37.8685 
G01 X10.3915 Y40.0810 
G01 X12.7200 Y40.0810 
G01 X12.7200 Y37.6398 
G01 X12.7340 Y37.5876 
G01 X12.7340 Y36.9560 
G01 X12.7600 Y36.8931 
G01 X12.8081 Y36.8450 
G01 X12.8710 Y36.8190 
G01 X13.1790 Y36.8190 
G01 X13.2419 Y36.8450 
G01 X13.2900 Y36.8931 
G01 X13.3160 Y36.9560 
G01 X13.3160 Y37.5876 
G01 X13.3300 Y37.6398 
G01 X13.3300 Y40.3552 
G01 X13.3092 Y40.4327 
G01 X13.2691 Y40.5023 
G01 X13.2476 Y40.5238 
G01 X13.2590 Y40.5664 
G01 X13.2590 Y40.7136 
G01 X13.2209 Y40.8558 
G01 X13.1473 Y40.9832 
G01 X13.0432 Y41.0873 
G01 X12.9158 Y41.1609 
G01 X12.7736 Y41.1990 
G01 X11.8874 Y41.1990 
G01 X11.8874 Y42.5705 
G01 X11.9459 Y42.6290 
G01 X12.4211 Y42.6290 
G01 X12.4510 Y42.6589 
G00 Z2.5400 
G00 X16.6540 Y5.6771 
G01 Z-0.1000 F254.00 
G01 X16.6241 Y5.6472 F300.00 
G01 X16.6241 Y5.1732 
G01 X16.6540 Y5.1433 
G01 X17.2767 Y5.1433 
G01 X17.3067 Y5.1260 
G01 X17.3842 Y5.1052 
G01 X18.7081 Y5.1052 
G01 X18.7691 Y5.0442 
G01 X18.8734 Y4.9840 
G01 X18.9228 Y4.9708 
G01 X18.9228 Y2.4751 
G01 X18.9190 Y2.4400 
G01 X18.9228 Y2.4151 
G01 X18.9228 Y2.3900 
G01 X18.9319 Y2.3559 
G01 X18.9373 Y2.3209 
G01 X18.9475 Y2.2979 
G01 X18.9540 Y2.2736 
G01 X18.9716 Y2.2430 
G01 X19.2990 Y1.4998 
G01 X19.2990 Y0.7489 
G01 X19.3289 Y0.7190 
G01 X20.4711 Y0.7190 
G01 X20.5010 Y0.7489 
G01 X20.5010 Y1.7911 
G01 X20.4711 Y1.8210 
G01 X20.1571 Y1.8210 
G01 X19.8376 Y2.5465 
G01 X19.8376 Y5.4704 
G01 X19.8064 Y5.5868 
G01 X19.7462 Y5.6910 
G01 X19.6610 Y5.7762 
G01 X19.5568 Y5.8364 
G01 X19.4404 Y5.8676 
G01 X18.9898 Y5.8676 
G01 X18.8734 Y5.8364 
G01 X18.7691 Y5.7762 
G01 X18.7081 Y5.7152 
G01 X17.3842 Y5.7152 
G01 X17.3067 Y5.6944 
G01 X17.2767 Y5.6771 
G01 X16.6540 Y5.6771 
G00 Z2.5400 
G00 X13.8919 Y36.8450 
G01 Z-0.1000 F254.00 
G01 X13.9400 Y36.8931 F300.00 
G01 X13.9660 Y36.9560 
G01 X13.9660 Y37.5090 
G01 X14.1180 Y37.5090 
G01 X14.1180 Y36.9475 
G01 X14.0960 Y36.8653 
G01 X14.0535 Y36.7917 
G01 X13.9933 Y36.7315 
G01 X13.9197 Y36.6890 
G01 X13.8460 Y36.6693 
G01 X13.8460 Y36.8260 
G01 X13.8919 Y36.8450 
G00 Z2.5400 
G00 X17.5990 Y1.7911 
G01 Z-0.1000 F254.00 
G01 X17.5990 Y1.4410 F300.00 
G01 X17.4470 Y1.4410 
G01 X17.4470 Y1.7967 
G01 X17.4608 Y1.8483 
G01 X17.4876 Y1.8946 
G01 X17.5254 Y1.9324 
G01 X17.5716 Y1.9592 
G01 X17.6233 Y1.9730 
G01 X18.0290 Y1.9730 
G01 X18.0290 Y1.8210 
G01 X17.6289 Y1.8210 
G01 X17.5990 Y1.7911 
G00 Z2.5400 
G00 X18.7711 Y0.7190 
G01 Z-0.1000 F254.00 
G01 X18.8010 Y0.7489 F300.00 
G01 X18.8010 Y1.0990 
G01 X18.9530 Y1.0990 
G01 X18.9530 Y0.7433 
G01 X18.9392 Y0.6916 
G01 X18.9124 Y0.6454 
G01 X18.8746 Y0.6076 
G01 X18.8283 Y0.5808 
G01 X18.7767 Y0.5670 
G01 X18.3710 Y0.5670 
G01 X18.3710 Y0.7190 
G01 X18.7711 Y0.7190 
G00 Z2.5400 
G00 X17.5990 Y0.7489 
G01 Z-0.1000 F254.00 
G01 X17.6289 Y0.7190 F300.00 
G01 X18.0290 Y0.7190 
G01 X18.0290 Y0.5670 
G01 X17.6233 Y0.5670 
G01 X17.5717 Y0.5808 
G01 X17.5254 Y0.6076 
G01 X17.4876 Y0.6454 
G01 X17.4608 Y0.6916 
G01 X17.4470 Y0.7433 
G01 X17.4470 Y1.0990 
G01 X17.5990 Y1.0990 
G01 X17.5990 Y0.7489 
G00 Z2.5400 
G00 X8.7333 Y0.5670 
G01 Z-0.1000 F254.00 
G01 X8.6816 Y0.5808 F300.00 
G01 X8.6354 Y0.6076 
G01 X8.5976 Y0.6454 
G01 X8.5708 Y0.6916 
G01 X8.5570 Y0.7433 
G01 X8.5570 Y1.0990 
G01 X8.7090 Y1.0990 
G01 X8.7090 Y0.7489 
G01 X8.7389 Y0.7190 
G01 X9.1390 Y0.7190 
G01 X9.1390 Y0.5670 
G01 X8.7333 Y0.5670 
G00 Z2.5400 
G00 X9.9110 Y0.7489 
G01 Z-0.1000 F254.00 
G01 X9.9110 Y1.0990 F300.00 
G01 X10.0630 Y1.0990 
G01 X10.0630 Y0.7433 
G01 X10.0492 Y0.6916 
G01 X10.0224 Y0.6454 
G01 X9.9846 Y0.6076 
G01 X9.9383 Y0.5808 
G01 X9.8867 Y0.5670 
G01 X9.4810 Y0.5670 
G01 X9.4810 Y0.7190 
G01 X9.8811 Y0.7190 
G01 X9.9110 Y0.7489 
G00 Z2.5400 
G00 X9.9110 Y1.7911 
G01 Z-0.1000 F254.00 
G01 X9.8811 Y1.8210 F300.00 
G01 X9.4810 Y1.8210 
G01 X9.4810 Y1.9730 
G01 X9.8867 Y1.9730 
G01 X9.9383 Y1.9592 
G01 X9.9846 Y1.9324 
G01 X10.0224 Y1.8946 
G01 X10.0492 Y1.8483 
G01 X10.0630 Y1.7967 
G01 X10.0630 Y1.4410 
G01 X9.9110 Y1.4410 
G01 X9.9110 Y1.7911 
G00 Z2.5400 
G00 X8.5570 Y1.7967 
G01 Z-0.1000 F254.00 
G01 X8.5708 Y1.8483 F300.00 
G01 X8.5976 Y1.8946 
G01 X8.6354 Y1.9324 
G01 X8.6816 Y1.9592 
G01 X8.7333 Y1.9730 
G01 X9.1390 Y1.9730 
G01 X9.1390 Y1.8210 
G01 X8.7389 Y1.8210 
G01 X8.7090 Y1.7911 
G01 X8.7090 Y1.4410 
G01 X8.5570 Y1.4410 
G01 X8.5570 Y1.7967 
G00 Z2.5400 
G00 X13.2670 Y25.5567 
G01 Z-0.1000 F254.00 
G01 X13.2808 Y25.6083 F300.00 
G01 X13.3076 Y25.6546 
G01 X13.3454 Y25.6924 
G01 X13.3916 Y25.7192 
G01 X13.4433 Y25.7330 
G01 X13.7990 Y25.7330 
G01 X13.7990 Y25.5810 
G01 X13.4489 Y25.5810 
G01 X13.4190 Y25.5511 
G01 X13.4190 Y25.1510 
G01 X13.2670 Y25.1510 
G01 X13.2670 Y25.5567 
G00 Z2.5400 
G00 X13.4489 Y24.3790 
G01 Z-0.1000 F254.00 
G01 X13.7990 Y24.3790 F300.00 
G01 X13.7990 Y24.2270 
G01 X13.4433 Y24.2270 
G01 X13.3916 Y24.2408 
G01 X13.3454 Y24.2676 
G01 X13.3076 Y24.3054 
G01 X13.2808 Y24.3516 
G01 X13.2670 Y24.4033 
G01 X13.2670 Y24.8090 
G01 X13.4190 Y24.8090 
G01 X13.4190 Y24.4089 
G01 X13.4489 Y24.3790 
G00 Z2.5400 
G00 X14.4911 Y24.3790 
G01 Z-0.1000 F254.00 
G01 X14.5210 Y24.4089 F300.00 
G01 X14.5210 Y24.8090 
G01 X14.6730 Y24.8090 
G01 X14.6730 Y24.4033 
G01 X14.6592 Y24.3516 
G01 X14.6324 Y24.3054 
G01 X14.5946 Y24.2676 
G01 X14.5484 Y24.2408 
G01 X14.4967 Y24.2270 
G01 X14.1410 Y24.2270 
G01 X14.1410 Y24.3790 
G01 X14.4911 Y24.3790 
G00 Z2.5400 
G00 X17.0908 Y28.9883 
G01 Z-0.1000 F254.00 
G01 X17.1176 Y29.0346 F300.00 
G01 X17.1554 Y29.0724 
G01 X17.2016 Y29.0992 
G01 X17.2533 Y29.1130 
G01 X17.6090 Y29.1130 
G01 X17.6090 Y28.9610 
G01 X17.2589 Y28.9610 
G01 X17.2290 Y28.9311 
G01 X17.2290 Y28.5310 
G01 X17.0770 Y28.5310 
G01 X17.0770 Y28.9367 
G01 X17.0908 Y28.9883 
G00 Z2.5400 
G00 X18.3067 Y29.1130 
G01 Z-0.1000 F254.00 
G01 X18.3583 Y29.0992 F300.00 
G01 X18.4046 Y29.0724 
G01 X18.4424 Y29.0346 
G01 X18.4692 Y28.9883 
G01 X18.4830 Y28.9367 
G01 X18.4830 Y28.5310 
G01 X18.3310 Y28.5310 
G01 X18.3310 Y28.9311 
G01 X18.3011 Y28.9610 
G01 X17.9510 Y28.9610 
G01 X17.9510 Y29.1130 
G01 X18.3067 Y29.1130 
G00 Z2.5400 
G00 X14.4967 Y25.7330 
G01 Z-0.1000 F254.00 
G01 X14.5483 Y25.7192 F300.00 
G01 X14.5946 Y25.6924 
G01 X14.6324 Y25.6546 
G01 X14.6592 Y25.6083 
G01 X14.6730 Y25.5567 
G01 X14.6730 Y25.1510 
G01 X14.5210 Y25.1510 
G01 X14.5210 Y25.5511 
G01 X14.4911 Y25.5810 
G01 X14.1410 Y25.5810 
G01 X14.1410 Y25.7330 
G01 X14.4967 Y25.7330 
G00 Z2.5400 
G00 X10.6867 Y35.4630 
G01 Z-0.1000 F254.00 
G01 X10.7383 Y35.4492 F300.00 
G01 X10.7846 Y35.4224 
G01 X10.8224 Y35.3846 
G01 X10.8492 Y35.3383 
G01 X10.8630 Y35.2867 
G01 X10.8630 Y34.8810 
G01 X10.7110 Y34.8810 
G01 X10.7110 Y35.2811 
G01 X10.6811 Y35.3110 
G01 X10.3310 Y35.3110 
G01 X10.3310 Y35.4630 
G01 X10.6867 Y35.4630 
G00 Z2.5400 
G00 X10.6811 Y34.1090 
G01 Z-0.1000 F254.00 
G01 X10.7110 Y34.1389 F300.00 
G01 X10.7110 Y34.5390 
G01 X10.8630 Y34.5390 
G01 X10.8630 Y34.1333 
G01 X10.8492 Y34.0816 
G01 X10.8224 Y34.0354 
G01 X10.7846 Y33.9976 
G01 X10.7383 Y33.9708 
G01 X10.6867 Y33.9570 
G01 X10.3310 Y33.9570 
G01 X10.3310 Y34.1090 
G01 X10.6811 Y34.1090 
G00 Z2.5400 
G00 X9.6389 Y34.1090 
G01 Z-0.1000 F254.00 
G01 X9.9890 Y34.1090 F300.00 
G01 X9.9890 Y33.9570 
G01 X9.6333 Y33.9570 
G01 X9.5816 Y33.9708 
G01 X9.5354 Y33.9976 
G01 X9.4976 Y34.0354 
G01 X9.4708 Y34.0816 
G01 X9.4570 Y34.1333 
G01 X9.4570 Y34.5390 
G01 X9.6090 Y34.5390 
G01 X9.6090 Y34.1389 
G01 X9.6389 Y34.1090 
G00 Z2.5400 
G00 X9.4570 Y35.2867 
G01 Z-0.1000 F254.00 
G01 X9.4708 Y35.3383 F300.00 
G01 X9.4976 Y35.3846 
G01 X9.5354 Y35.4224 
G01 X9.5816 Y35.4492 
G01 X9.6333 Y35.4630 
G01 X9.9890 Y35.4630 
G01 X9.9890 Y35.3110 
G01 X9.6389 Y35.3110 
G01 X9.6090 Y35.2811 
G01 X9.6090 Y34.8810 
G01 X9.4570 Y34.8810 
G01 X9.4570 Y35.2867 
G00 Z2.5400 
G00 X18.4830 Y27.7833 
G01 Z-0.1000 F254.00 
G01 X18.4692 Y27.7316 F300.00 
G01 X18.4424 Y27.6854 
G01 X18.4046 Y27.6476 
G01 X18.3583 Y27.6208 
G01 X18.3067 Y27.6070 
G01 X17.9510 Y27.6070 
G01 X17.9510 Y27.7590 
G01 X18.3011 Y27.7590 
G01 X18.3310 Y27.7889 
G01 X18.3310 Y28.1890 
G01 X18.4830 Y28.1890 
G01 X18.4830 Y27.7833 
G00 Z2.5400 
G00 X17.2533 Y27.6070 
G01 Z-0.1000 F254.00 
G01 X17.2016 Y27.6208 F300.00 
G01 X17.1554 Y27.6476 
G01 X17.1176 Y27.6854 
G01 X17.0908 Y27.7316 
G01 X17.0770 Y27.7833 
G01 X17.0770 Y28.1890 
G01 X17.2290 Y28.1890 
G01 X17.2290 Y27.7889 
G01 X17.2589 Y27.7590 
G01 X17.6090 Y27.7590 
G01 X17.6090 Y27.6070 
G01 X17.2533 Y27.6070 
G00 Z2.5400 
G00 X10.7867 Y16.2130 
G01 Z-0.1000 F254.00 
G01 X10.8383 Y16.1992 F300.00 
G01 X10.8846 Y16.1724 
G01 X10.9224 Y16.1346 
G01 X10.9492 Y16.0883 
G01 X10.9630 Y16.0367 
G01 X10.9630 Y15.7810 
G01 X10.8110 Y15.7810 
G01 X10.8110 Y16.0311 
G01 X10.7811 Y16.0610 
G01 X10.3310 Y16.0610 
G01 X10.3310 Y16.2130 
G01 X10.7867 Y16.2130 
G00 Z2.5400 
G00 X10.7811 Y15.1590 
G01 Z-0.1000 F254.00 
G01 X10.8110 Y15.1889 F300.00 
G01 X10.8110 Y15.4390 
G01 X10.9630 Y15.4390 
G01 X10.9630 Y15.1833 
G01 X10.9492 Y15.1316 
G01 X10.9224 Y15.0854 
G01 X10.8846 Y15.0476 
G01 X10.8383 Y15.0208 
G01 X10.7867 Y15.0070 
G01 X10.3310 Y15.0070 
G01 X10.3310 Y15.1590 
G01 X10.7811 Y15.1590 
G00 Z2.5400 
G00 X9.5389 Y15.1590 
G01 Z-0.1000 F254.00 
G01 X9.9890 Y15.1590 F300.00 
G01 X9.9890 Y15.0070 
G01 X9.5333 Y15.0070 
G01 X9.4816 Y15.0208 
G01 X9.4354 Y15.0476 
G01 X9.3976 Y15.0854 
G01 X9.3708 Y15.1316 
G01 X9.3570 Y15.1833 
G01 X9.3570 Y15.4390 
G01 X9.5090 Y15.4390 
G01 X9.5090 Y15.1889 
G01 X9.5389 Y15.1590 
G00 Z2.5400 
G00 X9.3570 Y16.0367 
G01 Z-0.1000 F254.00 
G01 X9.3708 Y16.0883 F300.00 
G01 X9.3976 Y16.1346 
G01 X9.4354 Y16.1724 
G01 X9.4816 Y16.1992 
G01 X9.5333 Y16.2130 
G01 X9.9890 Y16.2130 
G01 X9.9890 Y16.0610 
G01 X9.5389 Y16.0610 
G01 X9.5090 Y16.0311 
G01 X9.5090 Y15.7810 
G01 X9.3570 Y15.7810 
G01 X9.3570 Y16.0367 
G00 Z2.5400 
G00 X15.7070 Y25.4567 
G01 Z-0.1000 F254.00 
G01 X15.7208 Y25.5083 F300.00 
G01 X15.7476 Y25.5546 
G01 X15.7854 Y25.5924 
G01 X15.8316 Y25.6192 
G01 X15.8833 Y25.6330 
G01 X16.3390 Y25.6330 
G01 X16.3390 Y25.4810 
G01 X15.8889 Y25.4810 
G01 X15.8590 Y25.4511 
G01 X15.8590 Y25.2010 
G01 X15.7070 Y25.2010 
G01 X15.7070 Y25.4567 
G00 Z2.5400 
G00 X15.8889 Y24.5790 
G01 Z-0.1000 F254.00 
G01 X16.3390 Y24.5790 F300.00 
G01 X16.3390 Y24.4270 
G01 X15.8833 Y24.4270 
G01 X15.8316 Y24.4408 
G01 X15.7854 Y24.4676 
G01 X15.7476 Y24.5054 
G01 X15.7208 Y24.5516 
G01 X15.7070 Y24.6033 
G01 X15.7070 Y24.8590 
G01 X15.8590 Y24.8590 
G01 X15.8590 Y24.6089 
G01 X15.8889 Y24.5790 
G00 Z2.5400 
G00 X17.1311 Y24.5790 
G01 Z-0.1000 F254.00 
G01 X17.1610 Y24.6089 F300.00 
G01 X17.1610 Y24.8590 
G01 X17.3130 Y24.8590 
G01 X17.3130 Y24.6033 
G01 X17.2992 Y24.5516 
G01 X17.2724 Y24.5054 
G01 X17.2346 Y24.4676 
G01 X17.1883 Y24.4408 
G01 X17.1367 Y24.4270 
G01 X16.6810 Y24.4270 
G01 X16.6810 Y24.5790 
G01 X17.1311 Y24.5790 
G00 Z2.5400 
G00 X17.1367 Y25.6330 
G01 Z-0.1000 F254.00 
G01 X17.1883 Y25.6192 F300.00 
G01 X17.2346 Y25.5924 
G01 X17.2724 Y25.5546 
G01 X17.2992 Y25.5083 
G01 X17.3130 Y25.4567 
G01 X17.3130 Y25.2010 
G01 X17.1610 Y25.2010 
G01 X17.1610 Y25.4511 
G01 X17.1311 Y25.4810 
G01 X16.6810 Y25.4810 
G01 X16.6810 Y25.6330 
G01 X17.1367 Y25.6330 
G00 Z2.5400 
G00 X9.5144 Y21.6415 
G01 Z-0.1000 F254.00 
G01 X9.5313 Y21.6007 F300.00 
G01 X9.5625 Y21.5695 
G01 X9.6114 Y21.5206 
G01 X9.6114 Y21.0194 
G01 X9.4656 Y20.8736 
G01 X9.3943 Y20.8736 
G01 X9.3827 Y20.8688 
G01 X9.3535 Y20.8567 
G01 X9.3223 Y20.8255 
G01 X9.2502 Y20.7534 
G01 X9.0262 Y20.6606 
G01 X8.7838 Y20.6606 
G01 X8.5598 Y20.7534 
G01 X8.4877 Y20.8255 
G01 X8.4565 Y20.8567 
G01 X8.4280 Y20.8685 
G01 X8.4157 Y20.8736 
G01 X8.3444 Y20.8736 
G01 X8.1986 Y21.0194 
G01 X8.1986 Y21.0949 
G01 X8.1817 Y21.1357 
G01 X8.1505 Y21.1669 
G01 X8.1097 Y21.1838 
G01 X6.8295 Y21.1838 
G01 X6.8179 Y21.1790 
G01 X6.7887 Y21.1669 
G01 X6.7575 Y21.1357 
G01 X6.6952 Y21.0734 
G01 X6.4712 Y20.9806 
G01 X4.3668 Y20.9806 
G01 X4.3260 Y20.9637 
G01 X4.2948 Y20.9325 
G01 X4.0696 Y20.7073 
G01 X3.6869 Y20.5488 
G01 X1.3931 Y20.5488 
G01 X1.0104 Y20.7073 
G01 X0.7175 Y21.0002 
G01 X0.5590 Y21.3829 
G01 X0.5590 Y21.7971 
G01 X0.7175 Y22.1798 
G01 X1.0104 Y22.4727 
G01 X1.3931 Y22.6312 
G01 X3.6869 Y22.6312 
G01 X4.0696 Y22.4727 
G01 X4.3260 Y22.2163 
G01 X4.3668 Y22.1994 
G01 X6.4712 Y22.1994 
G01 X6.6952 Y22.1066 
G01 X6.7575 Y22.0443 
G01 X6.7887 Y22.0131 
G01 X6.8172 Y22.0013 
G01 X6.8295 Y21.9962 
G01 X8.2067 Y21.9962 
G01 X8.2475 Y22.0131 
G01 X8.2787 Y22.0443 
G01 X8.2956 Y22.0851 
G01 X8.2956 Y26.3862 
G01 X8.3884 Y26.6102 
G01 X8.6105 Y26.8323 
G01 X8.6417 Y26.8635 
G01 X8.6584 Y26.9038 
G01 X8.6586 Y27.2120 
G01 X8.7180 Y27.2714 
G01 X9.1695 Y27.2714 
G01 X9.1864 Y27.2784 
G01 X9.4312 Y27.2794 
G01 X9.4505 Y27.2714 
G01 X9.9020 Y27.2714 
G01 X9.9614 Y27.2120 
G01 X9.9614 Y26.1280 
G01 X9.9020 Y26.0686 
G01 X9.6033 Y26.0686 
G01 X9.5625 Y26.0517 
G01 X9.5313 Y26.0205 
G01 X9.5144 Y25.9797 
G01 X9.5144 Y25.9355 
G01 X9.5144 Y21.6415 
G00 Z2.5400 
G00 X9.9110 Y26.1489 
G01 Z-0.1000 F254.00 
G01 X9.9110 Y27.1911 F300.00 
G01 X9.8811 Y27.2210 
G01 X9.4135 Y27.2210 
G01 X9.3836 Y27.2290 
G01 X9.2364 Y27.2290 
G01 X9.2065 Y27.2210 
G01 X8.7389 Y27.2210 
G01 X8.7090 Y27.1911 
G01 X8.7090 Y26.8595 
G01 X8.4577 Y26.6082 
G01 X8.3841 Y26.4808 
G01 X8.3460 Y26.3386 
G01 X8.3460 Y21.9458 
G01 X6.7847 Y21.9458 
G01 X6.6932 Y22.0373 
G01 X6.5658 Y22.1109 
G01 X6.4236 Y22.1490 
G01 X4.2979 Y22.1490 
G01 X4.2494 Y22.2216 
G01 X4.1114 Y22.3596 
G01 X3.9491 Y22.4680 
G01 X3.7688 Y22.5427 
G01 X3.5774 Y22.5808 
G01 X1.5026 Y22.5808 
G01 X1.3112 Y22.5427 
G01 X1.1309 Y22.4680 
G01 X0.9686 Y22.3596 
G01 X0.8306 Y22.2216 
G01 X0.7222 Y22.0593 
G01 X0.6475 Y21.8790 
G01 X0.6094 Y21.6876 
G01 X0.6094 Y21.4924 
G01 X0.6475 Y21.3010 
G01 X0.7222 Y21.1207 
G01 X0.8306 Y20.9584 
G01 X0.9686 Y20.8204 
G01 X1.1309 Y20.7120 
G01 X1.3112 Y20.6373 
G01 X1.5026 Y20.5992 
G01 X3.5774 Y20.5992 
G01 X3.7688 Y20.6373 
G01 X3.9491 Y20.7120 
G01 X4.1114 Y20.8204 
G01 X4.2494 Y20.9584 
G01 X4.2979 Y21.0310 
G01 X6.4236 Y21.0310 
G01 X6.5658 Y21.0691 
G01 X6.6932 Y21.1427 
G01 X6.7847 Y21.2342 
G01 X8.2490 Y21.2342 
G01 X8.2490 Y21.0830 
G01 X8.2792 Y21.0101 
G01 X8.3351 Y20.9542 
G01 X8.4080 Y20.9240 
G01 X8.4605 Y20.9240 
G01 X8.5618 Y20.8227 
G01 X8.6892 Y20.7491 
G01 X8.8314 Y20.7110 
G01 X8.9786 Y20.7110 
G01 X9.1208 Y20.7491 
G01 X9.2482 Y20.8227 
G01 X9.3495 Y20.9240 
G01 X9.4020 Y20.9240 
G01 X9.4749 Y20.9542 
G01 X9.5308 Y21.0101 
G01 X9.5610 Y21.0830 
G01 X9.5610 Y21.4570 
G01 X9.5308 Y21.5299 
G01 X9.4749 Y21.5858 
G01 X9.4640 Y21.5903 
G01 X9.4640 Y26.0335 
G01 X9.5495 Y26.1190 
G01 X9.8811 Y26.1190 
G01 X9.9110 Y26.1489 
G00 Z2.5400 
G00 X15.6656 Y10.7930 
G01 Z-0.1000 F254.00 
G01 X15.3895 Y10.6786 F300.00 
G01 X15.0905 Y10.6786 
G01 X14.8144 Y10.7930 
G01 X14.8037 Y10.8037 
G01 X14.7812 Y10.8130 
G01 X14.7629 Y10.8206 
G01 X14.7410 Y10.8206 
G01 X14.7187 Y10.8206 
G01 X12.9988 Y10.8206 
G01 X12.7748 Y10.9134 
G01 X12.5065 Y11.1817 
G01 X12.4657 Y11.1986 
G01 X12.1580 Y11.1986 
G01 X12.0953 Y11.2613 
G01 X12.0817 Y11.2941 
G01 X12.0505 Y11.3253 
G01 X12.0097 Y11.3422 
G01 X10.8503 Y11.3422 
G01 X10.8095 Y11.3253 
G01 X10.7783 Y11.2941 
G01 X10.7647 Y11.2613 
G01 X10.7159 Y11.2125 
G01 X10.6847 Y11.1813 
G01 X10.6729 Y11.1528 
G01 X10.6678 Y11.1405 
G01 X10.6678 Y7.7106 
G01 X10.6847 Y7.6698 
G01 X10.7159 Y7.6385 
G01 X11.5814 Y6.7731 
G01 X11.6222 Y6.7562 
G01 X12.8682 Y6.7562 
G01 X13.1062 Y6.5183 
G01 X13.1062 Y6.4514 
G01 X13.1231 Y6.4106 
G01 X13.1543 Y6.3794 
G01 X13.1951 Y6.3625 
G01 X13.8469 Y6.3625 
G01 X13.9063 Y6.3031 
G01 X13.9063 Y5.7827 
G01 X13.8974 Y5.7611 
G01 X13.8927 Y5.7498 
G01 X13.8927 Y5.7279 
G01 X13.8927 Y5.7056 
G01 X13.9036 Y5.6793 
G01 X13.9063 Y5.6727 
G01 X13.9063 Y5.1753 
G01 X13.9232 Y5.1345 
G01 X13.9544 Y5.1033 
G01 X13.9673 Y5.0903 
G01 X13.9941 Y5.0440 
G01 X14.0079 Y4.9924 
G01 X14.0079 Y4.9087 
G01 X13.8559 Y4.9087 
G01 X13.8559 Y4.9868 
G01 X13.8260 Y5.0167 
G01 X12.2852 Y5.0167 
G01 X12.2553 Y4.9868 
G01 X12.2553 Y4.9087 
G01 X12.1033 Y4.9087 
G01 X12.1033 Y4.9659 
G01 X12.0864 Y5.0067 
G01 X12.0552 Y5.0379 
G01 X12.0144 Y5.0548 
G01 X8.4126 Y5.0548 
G01 X7.6421 Y5.8253 
G01 X7.6013 Y5.8422 
G01 X7.5190 Y5.8422 
G01 X7.3324 Y5.9195 
G01 X7.1895 Y6.0624 
G01 X7.1122 Y6.2490 
G01 X7.1122 Y12.8010 
G01 X7.1895 Y12.9876 
G01 X7.3636 Y13.1617 
G01 X8.0395 Y13.8376 
G01 X8.1824 Y13.9805 
G01 X8.3690 Y14.0578 
G01 X9.4697 Y14.0578 
G01 X9.5105 Y14.0747 
G01 X9.5417 Y14.1059 
G01 X9.5553 Y14.1387 
G01 X9.6180 Y14.2014 
G01 X10.7020 Y14.2014 
G01 X10.7647 Y14.1387 
G01 X10.7783 Y14.1059 
G01 X10.8095 Y14.0747 
G01 X10.8503 Y14.0578 
G01 X12.0097 Y14.0578 
G01 X12.0505 Y14.0747 
G01 X12.0817 Y14.1059 
G01 X12.0953 Y14.1387 
G01 X12.1580 Y14.2014 
G01 X12.8249 Y14.2014 
G01 X12.8657 Y14.2183 
G01 X12.8969 Y14.2495 
G01 X12.9728 Y14.3254 
G01 X16.1897 Y14.3254 
G01 X16.2305 Y14.3423 
G01 X16.2617 Y14.3735 
G01 X16.2786 Y14.4143 
G01 X16.2786 Y14.5120 
G01 X16.3380 Y14.5714 
G01 X17.5220 Y14.5714 
G01 X17.5814 Y14.5120 
G01 X17.5814 Y13.4280 
G01 X17.5220 Y13.3686 
G01 X16.3380 Y13.3686 
G01 X16.2786 Y13.4280 
G01 X16.2786 Y13.5257 
G01 X16.2617 Y13.5665 
G01 X16.2305 Y13.5977 
G01 X16.1897 Y13.6146 
G01 X13.3903 Y13.6146 
G01 X13.3495 Y13.5977 
G01 X13.3183 Y13.5665 
G01 X13.3014 Y13.5257 
G01 X13.3014 Y12.9580 
G01 X13.2420 Y12.8986 
G01 X12.1580 Y12.8986 
G01 X12.0953 Y12.9613 
G01 X12.0817 Y12.9941 
G01 X12.0505 Y13.0253 
G01 X12.0097 Y13.0422 
G01 X10.8503 Y13.0422 
G01 X10.8095 Y13.0253 
G01 X10.7783 Y12.9941 
G01 X10.7647 Y12.9613 
G01 X10.7020 Y12.8986 
G01 X9.6180 Y12.8986 
G01 X9.5553 Y12.9613 
G01 X9.5417 Y12.9941 
G01 X9.5105 Y13.0253 
G01 X9.4697 Y13.0422 
G01 X8.7042 Y13.0422 
G01 X8.6634 Y13.0253 
G01 X8.6322 Y12.9941 
G01 X8.1447 Y12.5066 
G01 X8.1278 Y12.4658 
G01 X8.1278 Y6.3687 
G01 X8.1447 Y6.3279 
G01 X8.1759 Y6.2967 
G01 X8.6901 Y5.7825 
G01 X8.7309 Y5.7656 
G01 X11.1941 Y5.7656 
G01 X11.2348 Y5.7825 
G01 X11.2661 Y5.8137 
G01 X11.2830 Y5.8545 
G01 X11.2830 Y5.8987 
G01 X11.2661 Y5.9395 
G01 X11.2348 Y5.9707 
G01 X10.9757 Y6.2299 
G01 X10.1102 Y7.0953 
G01 X10.0694 Y7.1122 
G01 X10.0590 Y7.1122 
G01 X9.8724 Y7.1895 
G01 X9.7295 Y7.3324 
G01 X9.6522 Y7.5190 
G01 X9.6522 Y11.1405 
G01 X9.6474 Y11.1521 
G01 X9.6353 Y11.1813 
G01 X9.6041 Y11.2125 
G01 X9.5586 Y11.2580 
G01 X9.5586 Y12.4420 
G01 X9.6180 Y12.5014 
G01 X10.7020 Y12.5014 
G01 X10.7647 Y12.4387 
G01 X10.7783 Y12.4059 
G01 X10.8095 Y12.3747 
G01 X10.8503 Y12.3578 
G01 X12.0097 Y12.3578 
G01 X12.0505 Y12.3747 
G01 X12.0817 Y12.4059 
G01 X12.0953 Y12.4387 
G01 X12.1580 Y12.5014 
G01 X13.2420 Y12.5014 
G01 X13.3014 Y12.4420 
G01 X13.3014 Y12.1343 
G01 X13.3183 Y12.0935 
G01 X13.3495 Y12.0623 
G01 X13.3555 Y12.0563 
G01 X13.3963 Y12.0394 
G01 X14.7187 Y12.0394 
G01 X14.7406 Y12.0394 
G01 X14.7629 Y12.0394 
G01 X14.7808 Y12.0468 
G01 X14.8037 Y12.0563 
G01 X14.8140 Y12.0666 
G01 X15.0905 Y12.1814 
G01 X15.3895 Y12.1814 
G01 X15.6656 Y12.0670 
G01 X15.8770 Y11.8556 
G01 X15.9914 Y11.5795 
G01 X15.9914 Y11.2805 
G01 X15.8770 Y11.0044 
G01 X15.6656 Y10.7930 
G00 Z2.5400 
G00 X8.6595 Y13.0926 
G01 Z-0.1000 F254.00 
G01 X9.6090 Y13.0926 F300.00 
G01 X9.6090 Y12.9789 
G01 X9.6389 Y12.9490 
G01 X10.6811 Y12.9490 
G01 X10.7110 Y12.9789 
G01 X10.7110 Y13.0926 
G01 X12.1490 Y13.0926 
G01 X12.1490 Y12.9789 
G01 X12.1789 Y12.9490 
G01 X13.2211 Y12.9490 
G01 X13.2510 Y12.9789 
G01 X13.2510 Y13.6650 
G01 X16.3290 Y13.6650 
G01 X16.3290 Y13.4489 
G01 X16.3589 Y13.4190 
G01 X17.5011 Y13.4190 
G01 X17.5310 Y13.4489 
G01 X17.5310 Y14.4911 
G01 X17.5011 Y14.5210 
G01 X16.3589 Y14.5210 
G01 X16.3290 Y14.4911 
G01 X16.3290 Y14.2750 
G01 X13.0798 Y14.2750 
G01 X13.0023 Y14.2542 
G01 X12.9327 Y14.2141 
G01 X12.8759 Y14.1573 
G01 X12.8697 Y14.1510 
G01 X12.1789 Y14.1510 
G01 X12.1490 Y14.1211 
G01 X12.1490 Y14.0074 
G01 X10.7110 Y14.0074 
G01 X10.7110 Y14.1211 
G01 X10.6811 Y14.1510 
G01 X9.6389 Y14.1510 
G01 X9.6090 Y14.1211 
G01 X9.6090 Y14.0074 
G01 X8.4098 Y14.0074 
G01 X8.2934 Y13.9762 
G01 X8.1891 Y13.9160 
G01 X8.1040 Y13.8308 
G01 X7.3392 Y13.0660 
G01 X7.2540 Y12.9808 
G01 X7.1938 Y12.8765 
G01 X7.1626 Y12.7602 
G01 X7.1626 Y6.2898 
G01 X7.1938 Y6.1734 
G01 X7.2540 Y6.0692 
G01 X7.3392 Y5.9840 
G01 X7.4434 Y5.9238 
G01 X7.5598 Y5.8926 
G01 X7.6461 Y5.8926 
G01 X8.3725 Y5.1661 
G01 X8.4421 Y5.1260 
G01 X8.5196 Y5.1052 
G01 X13.0958 Y5.1052 
G01 X13.1733 Y5.1260 
G01 X13.2033 Y5.1433 
G01 X13.8260 Y5.1433 
G01 X13.8559 Y5.1732 
G01 X13.8559 Y5.6472 
G01 X13.8260 Y5.6771 
G01 X13.2033 Y5.6771 
G01 X13.1733 Y5.6944 
G01 X13.0958 Y5.7152 
G01 X8.6861 Y5.7152 
G01 X8.0774 Y6.3239 
G01 X8.0774 Y12.5105 
G01 X8.6595 Y13.0926 
G00 Z2.5400 
G00 X15.9410 Y11.3610 
G01 Z-0.1000 F254.00 
G01 X15.9410 Y11.4990 F300.00 
G01 X15.9141 Y11.6345 
G01 X15.8612 Y11.7620 
G01 X15.7845 Y11.8769 
G01 X15.6869 Y11.9745 
G01 X15.5720 Y12.0512 
G01 X15.4445 Y12.1041 
G01 X15.3090 Y12.1310 
G01 X15.1710 Y12.1310 
G01 X15.0355 Y12.1041 
G01 X14.9080 Y12.0512 
G01 X14.8148 Y11.9890 
G01 X13.3515 Y11.9890 
G01 X13.2510 Y12.0895 
G01 X13.2510 Y12.4211 
G01 X13.2211 Y12.4510 
G01 X12.1789 Y12.4510 
G01 X12.1490 Y12.4211 
G01 X12.1490 Y12.3074 
G01 X10.7110 Y12.3074 
G01 X10.7110 Y12.4211 
G01 X10.6811 Y12.4510 
G01 X9.6389 Y12.4510 
G01 X9.6090 Y12.4211 
G01 X9.6090 Y11.2789 
G01 X9.6389 Y11.2490 
G01 X9.7026 Y11.2490 
G01 X9.7026 Y7.5598 
G01 X9.7338 Y7.4434 
G01 X9.7940 Y7.3392 
G01 X9.8792 Y7.2540 
G01 X9.9834 Y7.1938 
G01 X10.0998 Y7.1626 
G01 X10.1142 Y7.1626 
G01 X11.1453 Y6.1315 
G01 X11.2115 Y6.0653 
G01 X11.2927 Y6.0184 
G01 X11.3832 Y5.9942 
G01 X12.2553 Y5.9942 
G01 X12.2553 Y5.8082 
G01 X12.2852 Y5.7783 
G01 X13.8260 Y5.7783 
G01 X13.8559 Y5.8082 
G01 X13.8559 Y6.2822 
G01 X13.8260 Y6.3121 
G01 X13.0558 Y6.3121 
G01 X13.0558 Y6.3968 
G01 X13.0316 Y6.4873 
G01 X12.9847 Y6.5685 
G01 X12.9185 Y6.6347 
G01 X12.8373 Y6.6816 
G01 X12.7468 Y6.7058 
G01 X11.5774 Y6.7058 
G01 X10.6174 Y7.6658 
G01 X10.6174 Y11.2490 
G01 X10.6811 Y11.2490 
G01 X10.7110 Y11.2789 
G01 X10.7110 Y11.3926 
G01 X12.1490 Y11.3926 
G01 X12.1490 Y11.2789 
G01 X12.1789 Y11.2490 
G01 X12.5105 Y11.2490 
G01 X12.7768 Y10.9827 
G01 X12.9042 Y10.9091 
G01 X13.0464 Y10.8710 
G01 X14.8148 Y10.8710 
G01 X14.9080 Y10.8088 
G01 X15.0355 Y10.7559 
G01 X15.1710 Y10.7290 
G01 X15.3090 Y10.7290 
G01 X15.4445 Y10.7559 
G01 X15.5720 Y10.8088 
G01 X15.6869 Y10.8855 
G01 X15.7845 Y10.9831 
G01 X15.8612 Y11.0980 
G01 X15.9141 Y11.2255 
G01 X15.9410 Y11.3610 
G00 Z2.5400 
G00 X14.0079 Y4.5072 
G01 Z-0.1000 F254.00 
G01 X13.9941 Y4.4555 F300.00 
G01 X13.9673 Y4.4093 
G01 X13.9232 Y4.3651 
G01 X13.9063 Y4.3243 
G01 X13.9063 Y3.8569 
G01 X13.8469 Y3.7975 
G01 X13.3983 Y3.7975 
G01 X13.3575 Y3.7806 
G01 X13.3263 Y3.7494 
G01 X13.3094 Y3.7086 
G01 X13.3094 Y2.8388 
G01 X13.2166 Y2.6148 
G01 X13.0140 Y2.4122 
G01 X12.5847 Y1.9829 
G01 X12.5535 Y1.9517 
G01 X12.5368 Y1.9114 
G01 X12.5366 Y1.8667 
G01 X12.5535 Y1.8259 
G01 X12.5847 Y1.7947 
G01 X12.6250 Y1.7780 
G01 X13.3913 Y1.7778 
G01 X13.4321 Y1.7947 
G01 X13.4633 Y1.8259 
G01 X13.5444 Y1.9070 
G01 X13.8205 Y2.0214 
G01 X14.1195 Y2.0214 
G01 X14.3956 Y1.9070 
G01 X14.6070 Y1.6956 
G01 X14.7214 Y1.4195 
G01 X14.7214 Y1.1205 
G01 X14.6070 Y0.8444 
G01 X14.3956 Y0.6330 
G01 X14.1195 Y0.5186 
G01 X13.8205 Y0.5186 
G01 X13.5444 Y0.6330 
G01 X13.4321 Y0.7453 
G01 X13.3913 Y0.7622 
G01 X11.7195 Y0.7622 
G01 X11.6787 Y0.7453 
G01 X11.6475 Y0.7141 
G01 X11.6020 Y0.6686 
G01 X11.1505 Y0.6686 
G01 X11.1335 Y0.6616 
G01 X10.8888 Y0.6606 
G01 X10.8695 Y0.6686 
G01 X10.4180 Y0.6686 
G01 X10.3586 Y0.7280 
G01 X10.3586 Y1.8120 
G01 X10.4180 Y1.8714 
G01 X10.7257 Y1.8714 
G01 X10.7665 Y1.8883 
G01 X10.7977 Y1.9195 
G01 X12.0737 Y3.1955 
G01 X12.0906 Y3.2363 
G01 X12.0906 Y3.9312 
G01 X12.1834 Y4.1552 
G01 X12.1880 Y4.1598 
G01 X12.2049 Y4.2006 
G01 X12.2049 Y4.3243 
G01 X12.1951 Y4.3479 
G01 X12.1880 Y4.3651 
G01 X12.1568 Y4.3963 
G01 X12.1439 Y4.4093 
G01 X12.1171 Y4.4555 
G01 X12.1033 Y4.5072 
G01 X12.1033 Y4.5908 
G01 X12.2553 Y4.5908 
G01 X12.2553 Y4.5128 
G01 X12.2852 Y4.4829 
G01 X13.8260 Y4.4829 
G01 X13.8559 Y4.5128 
G01 X13.8559 Y4.5908 
G01 X14.0079 Y4.5908 
G01 X14.0079 Y4.5072 
G00 Z2.5400 
G00 X14.6710 Y1.2010 
G01 Z-0.1000 F254.00 
G01 X14.6710 Y1.3390 F300.00 
G01 X14.6441 Y1.4745 
G01 X14.5912 Y1.6020 
G01 X14.5145 Y1.7169 
G01 X14.4169 Y1.8145 
G01 X14.3020 Y1.8912 
G01 X14.1745 Y1.9441 
G01 X14.0390 Y1.9710 
G01 X13.9010 Y1.9710 
G01 X13.7655 Y1.9441 
G01 X13.6380 Y1.8912 
G01 X13.5231 Y1.8145 
G01 X13.4360 Y1.7274 
G01 X12.2579 Y1.7274 
G01 X13.0432 Y2.5127 
G01 X13.1473 Y2.6168 
G01 X13.2209 Y2.7442 
G01 X13.2590 Y2.8864 
G01 X13.2590 Y3.8479 
G01 X13.8260 Y3.8479 
G01 X13.8559 Y3.8778 
G01 X13.8559 Y4.3518 
G01 X13.8260 Y4.3817 
G01 X12.2852 Y4.3817 
G01 X12.2553 Y4.3518 
G01 X12.2553 Y4.1558 
G01 X12.2527 Y4.1532 
G01 X12.1791 Y4.0258 
G01 X12.1410 Y3.8836 
G01 X12.1410 Y3.1915 
G01 X10.7727 Y1.8232 
G01 X10.4389 Y1.8210 
G01 X10.4090 Y1.7911 
G01 X10.4090 Y0.7489 
G01 X10.4389 Y0.7190 
G01 X10.9065 Y0.7190 
G01 X10.9364 Y0.7110 
G01 X11.0836 Y0.7110 
G01 X11.1135 Y0.7190 
G01 X11.5811 Y0.7190 
G01 X11.6110 Y0.7489 
G01 X11.6110 Y0.8126 
G01 X13.4360 Y0.8126 
G01 X13.5231 Y0.7255 
G01 X13.6380 Y0.6488 
G01 X13.7655 Y0.5959 
G01 X13.9010 Y0.5690 
G01 X14.0390 Y0.5690 
G01 X14.1745 Y0.5959 
G01 X14.3020 Y0.6488 
G01 X14.4169 Y0.7255 
G01 X14.5145 Y0.8231 
G01 X14.5912 Y0.9380 
G01 X14.6441 Y1.0655 
G01 X14.6710 Y1.2010 
G00 Z2.5400 
G00 X18.4487 Y14.5714 
G01 Z-0.1000 F254.00 
G01 X18.4603 Y14.5762 F300.00 
G01 X18.4895 Y14.5883 
G01 X18.5207 Y14.6195 
G01 X18.5376 Y14.6603 
G01 X18.5376 Y14.7045 
G01 X18.5328 Y14.7161 
G01 X18.5207 Y14.7453 
G01 X18.4895 Y14.7765 
G01 X18.4257 Y14.8403 
G01 X18.3136 Y15.1109 
G01 X18.3136 Y15.4039 
G01 X18.4257 Y15.6745 
G01 X18.6329 Y15.8817 
G01 X18.9035 Y15.9938 
G01 X19.6526 Y15.9938 
G01 X19.6941 Y15.9766 
G01 X20.4665 Y15.9764 
G01 X20.7370 Y15.8644 
G01 X20.7583 Y15.8552 
G01 X20.7781 Y15.8470 
G01 X20.9098 Y15.7925 
G01 X21.2027 Y15.4996 
G01 X21.3612 Y15.1169 
G01 X21.3612 Y12.8231 
G01 X21.2027 Y12.4404 
G01 X20.9098 Y12.1475 
G01 X20.5271 Y11.9890 
G01 X20.1129 Y11.9890 
G01 X19.7302 Y12.1475 
G01 X19.4373 Y12.4404 
G01 X19.2788 Y12.8231 
G01 X19.2788 Y13.2797 
G01 X19.2619 Y13.3205 
G01 X19.2307 Y13.3517 
G01 X19.1899 Y13.3686 
G01 X18.0380 Y13.3686 
G01 X17.9786 Y13.4280 
G01 X17.9786 Y14.5120 
G01 X18.0380 Y14.5714 
G01 X18.4487 Y14.5714 
G00 Z2.5400 
G00 X19.3292 Y12.9326 
G01 Z-0.1000 F254.00 
G01 X19.3673 Y12.7412 F300.00 
G01 X19.4420 Y12.5609 
G01 X19.5504 Y12.3986 
G01 X19.6884 Y12.2606 
G01 X19.8507 Y12.1522 
G01 X20.0310 Y12.0775 
G01 X20.2224 Y12.0394 
G01 X20.4176 Y12.0394 
G01 X20.6090 Y12.0775 
G01 X20.7893 Y12.1522 
G01 X20.9516 Y12.2606 
G01 X21.0896 Y12.3986 
G01 X21.1980 Y12.5609 
G01 X21.2727 Y12.7412 
G01 X21.3108 Y12.9326 
G01 X21.3108 Y15.0074 
G01 X21.2727 Y15.1988 
G01 X21.1980 Y15.3791 
G01 X21.0896 Y15.5414 
G01 X20.9516 Y15.6794 
G01 X20.7893 Y15.7878 
G01 X20.6461 Y15.8472 
G01 X20.5201 Y15.8996 
G01 X20.3876 Y15.9260 
G01 X19.6612 Y15.9260 
G01 X19.5737 Y15.9434 
G01 X18.9824 Y15.9434 
G01 X18.8499 Y15.9170 
G01 X18.7251 Y15.8653 
G01 X18.6127 Y15.7903 
G01 X18.5171 Y15.6947 
G01 X18.4421 Y15.5823 
G01 X18.3904 Y15.4575 
G01 X18.3640 Y15.3250 
G01 X18.3640 Y15.1898 
G01 X18.3904 Y15.0573 
G01 X18.4421 Y14.9325 
G01 X18.5171 Y14.8201 
G01 X18.5926 Y14.7446 
G01 X18.5926 Y14.5795 
G01 X18.5341 Y14.5210 
G01 X18.0589 Y14.5210 
G01 X18.0290 Y14.4911 
G01 X18.0290 Y13.4489 
G01 X18.0589 Y13.4190 
G01 X19.2011 Y13.4190 
G01 X19.2310 Y13.4489 
G01 X19.2310 Y13.9241 
G01 X19.3292 Y14.0223 
G01 X19.3292 Y12.9326 
G00 Z2.5400 
G00 X20.8725 Y41.2298 
G01 Z-0.1000 F254.00 
G01 X21.0310 Y40.8471 F300.00 
G01 X21.0310 Y40.4329 
G01 X20.8725 Y40.0502 
G01 X20.5796 Y39.7573 
G01 X20.1969 Y39.5988 
G01 X17.9031 Y39.5988 
G01 X17.5204 Y39.7573 
G01 X17.2275 Y40.0502 
G01 X17.0690 Y40.4329 
G01 X17.0690 Y40.8471 
G01 X17.2275 Y41.2298 
G01 X17.5204 Y41.5227 
G01 X17.9031 Y41.6812 
G01 X20.1969 Y41.6812 
G01 X20.5796 Y41.5227 
G01 X20.8725 Y41.2298 
G00 Z2.5400 
G00 X20.0874 Y41.6308 
G01 Z-0.1000 F254.00 
G01 X18.0126 Y41.6308 F300.00 
G01 X17.8212 Y41.5927 
G01 X17.6409 Y41.5180 
G01 X17.4786 Y41.4096 
G01 X17.3406 Y41.2716 
G01 X17.2322 Y41.1093 
G01 X17.1575 Y40.9290 
G01 X17.1194 Y40.7376 
G01 X17.1194 Y40.5424 
G01 X17.1575 Y40.3510 
G01 X17.2322 Y40.1707 
G01 X17.3406 Y40.0084 
G01 X17.4786 Y39.8704 
G01 X17.6409 Y39.7620 
G01 X17.8212 Y39.6873 
G01 X18.0126 Y39.6492 
G01 X20.0874 Y39.6492 
G01 X20.2788 Y39.6873 
G01 X20.4591 Y39.7620 
G01 X20.6214 Y39.8704 
G01 X20.7594 Y40.0084 
G01 X20.8678 Y40.1707 
G01 X20.9425 Y40.3510 
G01 X20.9806 Y40.5424 
G01 X20.9806 Y40.7376 
G01 X20.9425 Y40.9290 
G01 X20.8678 Y41.1093 
G01 X20.7594 Y41.2716 
G01 X20.6214 Y41.4096 
G01 X20.4591 Y41.5180 
G01 X20.2788 Y41.5927 
G01 X20.0874 Y41.6308 
G00 Z2.5400 
G00 X-0.3050 Y-0.2161 
G01 Z-0.1000 F254.00 
G01 X-0.2881 Y-0.2569 F300.00 
G01 X-0.2569 Y-0.2881 
G01 X-0.2161 Y-0.3050 
G01 X24.0161 Y-0.3050 
G01 X24.0569 Y-0.2881 
G01 X24.0881 Y-0.2569 
G01 X24.1050 Y-0.2161 
G01 X24.1050 Y44.6561 
G01 X24.0881 Y44.6969 
G01 X24.0569 Y44.7281 
G01 X24.0161 Y44.7450 
G01 X-0.2161 Y44.7450 
G01 X-0.2569 Y44.7281 
G01 X-0.2881 Y44.6969 
G01 X-0.3050 Y44.6561 
G01 X-0.3050 Y44.6119 
G01 X-0.3050 Y-0.2161 
G00 Z2.5400 
G00 Z12.7000 
M05
M02
