(.../eduards/EAGLE/pcb-gcode/pcb-gcode.ulp)
(Copyright 2005 - 2012 by John Johnson)
(See readme.txt for licensing terms.)
(This file generated from the board:)
(.../projects/New_Project/AFM_QFM_input.brd)
(Current profile is .../pcb-gcode/profiles/generic.pp  )
(This file generated 3/4/24 11:43 PM)
(Settings from pcb-machine.h)
(  Tool Size)
(0.1000 )
(Z Axis Settings)
(  High     Up        Down     Drill)
(12.7000 	2.5400 	-0.1000 	-0.8128 )
(spindle on time = 3.0000)
(milling depth = -0.1000)
(text depth = -0.1270)
(tool change at 12.7000 15.2400 25.4000 )
(feed rate xy = F300.00 )
(feed rate z  = F254.00 )
(Settings from pcb-defaults.h)
(isolate min = 0.0010)
(isolate max = 2.0000)
(isolate step = 0.1200)
(Generated top outlines, top drill, )
(Unit of measure: mm)
(Metric Mode)
G21
(Absolute Coordinates)
G90
G00 X0.0000 Y0.0000 
M03
G04 P3.000000
G00 Z2.5400 
G00 X13.2762 Y21.2740 
G01 Z-0.1000 F254.00 
G01 X13.2840 Y21.2740 F300.00 
G01 X13.2840 Y21.2536 
G01 X13.2774 Y21.2696 
G01 X13.2762 Y21.2740 
G00 Z2.5400 
G00 X17.0940 Y21.2536 
G01 Z-0.1000 F254.00 
G01 X17.0874 Y21.2696 F300.00 
G01 X17.0862 Y21.2740 
G01 X17.0940 Y21.2740 
G01 X17.0940 Y21.2536 
G00 Z2.5400 
G00 X13.2774 Y11.1096 
G01 Z-0.1000 F254.00 
G01 X13.2762 Y11.1140 F300.00 
G01 X13.2840 Y11.1140 
G01 X13.2840 Y11.0936 
G01 X13.2774 Y11.1096 
G00 Z2.5400 
G00 X14.6560 Y11.1140 
G01 Z-0.1000 F254.00 
G01 X14.6638 Y11.1140 F300.00 
G01 X14.6626 Y11.1096 
G01 X14.6560 Y11.0936 
G01 X14.6560 Y11.1140 
G00 Z2.5400 
G00 X18.4726 Y21.2696 
G01 Z-0.1000 F254.00 
G01 X18.4660 Y21.2536 F300.00 
G01 X18.4660 Y21.2740 
G01 X18.4738 Y21.2740 
G01 X18.4726 Y21.2696 
G00 Z2.5400 
G00 X14.6626 Y21.2696 
G01 Z-0.1000 F254.00 
G01 X14.6560 Y21.2536 F300.00 
G01 X14.6560 Y21.2740 
G01 X14.6638 Y21.2740 
G01 X14.6626 Y21.2696 
G00 Z2.5400 
G00 X32.3308 Y32.8116 
G01 Z-0.1000 F254.00 
G01 X32.3170 Y32.8633 F300.00 
G01 X32.3170 Y33.1350 
G01 X32.3340 Y33.1350 
G01 X32.3340 Y32.8062 
G01 X32.3308 Y32.8116 
G00 Z2.5400 
G00 X33.7230 Y33.1350 
G01 Z-0.1000 F254.00 
G01 X33.7230 Y32.8700 F300.00 
G01 X33.7178 Y32.8439 
G01 X33.7126 Y32.8246 
G01 X33.7060 Y32.8086 
G01 X33.7060 Y33.1350 
G01 X33.7230 Y33.1350 
G00 Z2.5400 
G00 X9.4798 Y5.9627 
G01 Z-0.1000 F254.00 
G01 X9.5232 Y5.9193 F300.00 
G01 X9.6271 Y5.8153 
G01 X9.7197 Y5.7228 
G01 X9.7227 Y5.7198 
G01 X9.7727 Y5.6698 
G01 X9.8936 Y5.3779 
G01 X9.9425 Y5.3142 
G01 X10.0062 Y5.2653 
G01 X10.0804 Y5.2346 
G01 X10.1600 Y5.2241 
G01 X10.2329 Y5.2337 
G01 X10.2396 Y5.2346 
G01 X10.3138 Y5.2653 
G01 X10.3775 Y5.3142 
G01 X10.4264 Y5.3779 
G01 X10.4571 Y5.4521 
G01 X10.5473 Y5.6698 
G01 X10.5973 Y5.7198 
G01 X10.6913 Y5.8138 
G01 X10.8402 Y5.9627 
G01 X11.2229 Y6.1212 
G01 X11.6371 Y6.1212 
G01 X12.0198 Y5.9627 
G01 X12.0572 Y5.9253 
G01 X12.1671 Y5.8153 
G01 X12.2597 Y5.7228 
G01 X12.2627 Y5.7198 
G01 X12.3127 Y5.6698 
G01 X12.4336 Y5.3779 
G01 X12.4825 Y5.3142 
G01 X12.5462 Y5.2653 
G01 X12.6204 Y5.2346 
G01 X12.7000 Y5.2241 
G01 X12.7729 Y5.2337 
G01 X12.7796 Y5.2346 
G01 X12.8538 Y5.2653 
G01 X12.9175 Y5.3142 
G01 X12.9664 Y5.3779 
G01 X12.9971 Y5.4521 
G01 X13.0873 Y5.6698 
G01 X13.1373 Y5.7198 
G01 X13.2314 Y5.8138 
G01 X13.3802 Y5.9627 
G01 X13.7629 Y6.1212 
G01 X14.1771 Y6.1212 
G01 X14.5598 Y5.9627 
G01 X14.5912 Y5.9313 
G01 X14.7071 Y5.8153 
G01 X14.7997 Y5.7228 
G01 X14.8027 Y5.7198 
G01 X14.8527 Y5.6698 
G01 X14.9736 Y5.3779 
G01 X15.0225 Y5.3142 
G01 X15.0862 Y5.2653 
G01 X15.1604 Y5.2346 
G01 X15.2400 Y5.2241 
G01 X15.3129 Y5.2337 
G01 X15.3196 Y5.2346 
G01 X15.3938 Y5.2653 
G01 X15.4575 Y5.3142 
G01 X15.5064 Y5.3779 
G01 X15.5371 Y5.4521 
G01 X15.6273 Y5.6698 
G01 X15.6773 Y5.7198 
G01 X15.7713 Y5.8138 
G01 X15.9202 Y5.9627 
G01 X16.3029 Y6.1212 
G01 X16.7171 Y6.1212 
G01 X17.0998 Y5.9627 
G01 X17.1252 Y5.9372 
G01 X17.2471 Y5.8153 
G01 X17.3397 Y5.7228 
G01 X17.3427 Y5.7198 
G01 X17.3927 Y5.6698 
G01 X17.5136 Y5.3779 
G01 X17.5625 Y5.3142 
G01 X17.6262 Y5.2653 
G01 X17.7004 Y5.2346 
G01 X17.7800 Y5.2241 
G01 X17.8529 Y5.2337 
G01 X17.8596 Y5.2346 
G01 X17.9338 Y5.2653 
G01 X17.9975 Y5.3142 
G01 X18.0464 Y5.3779 
G01 X18.0771 Y5.4521 
G01 X18.1673 Y5.6698 
G01 X18.2173 Y5.7198 
G01 X18.3114 Y5.8138 
G01 X18.4602 Y5.9627 
G01 X18.8429 Y6.1212 
G01 X19.2571 Y6.1212 
G01 X19.6398 Y5.9627 
G01 X19.6593 Y5.9432 
G01 X19.7871 Y5.8153 
G01 X19.8797 Y5.7228 
G01 X19.8827 Y5.7198 
G01 X19.9327 Y5.6698 
G01 X20.0536 Y5.3779 
G01 X20.1025 Y5.3142 
G01 X20.1662 Y5.2653 
G01 X20.2404 Y5.2346 
G01 X20.3200 Y5.2241 
G01 X20.3929 Y5.2337 
G01 X20.3996 Y5.2346 
G01 X20.4738 Y5.2653 
G01 X20.5375 Y5.3142 
G01 X20.5864 Y5.3779 
G01 X20.6171 Y5.4521 
G01 X20.7073 Y5.6698 
G01 X20.7573 Y5.7198 
G01 X20.8513 Y5.8138 
G01 X21.0002 Y5.9627 
G01 X21.3829 Y6.1212 
G01 X21.7971 Y6.1212 
G01 X22.1798 Y5.9627 
G01 X22.3019 Y5.8406 
G01 X22.3271 Y5.8153 
G01 X22.4197 Y5.7228 
G01 X22.4227 Y5.7198 
G01 X22.4727 Y5.6698 
G01 X22.5936 Y5.3779 
G01 X22.6425 Y5.3142 
G01 X22.7062 Y5.2653 
G01 X22.7804 Y5.2346 
G01 X22.8600 Y5.2241 
G01 X22.9329 Y5.2337 
G01 X22.9396 Y5.2346 
G01 X23.0138 Y5.2653 
G01 X23.0775 Y5.3142 
G01 X23.1264 Y5.3779 
G01 X23.1571 Y5.4521 
G01 X23.2473 Y5.6698 
G01 X23.5402 Y5.9627 
G01 X23.7642 Y6.0555 
G01 X23.8452 Y6.0890 
G01 X23.8686 Y6.0987 
G01 X23.9229 Y6.1212 
G01 X24.3371 Y6.1212 
G01 X24.5779 Y6.0215 
G01 X24.6167 Y6.0054 
G01 X24.6331 Y5.9986 
G01 X24.7027 Y5.9698 
G01 X24.7198 Y5.9627 
G01 X25.0127 Y5.6698 
G01 X25.1712 Y5.2871 
G01 X25.1712 Y4.8729 
G01 X25.0127 Y4.4902 
G01 X24.7198 Y4.1973 
G01 X24.3371 Y4.0388 
G01 X23.9229 Y4.0388 
G01 X23.5402 Y4.1973 
G01 X23.2473 Y4.4902 
G01 X23.1571 Y4.7079 
G01 X23.1271 Y4.7805 
G01 X23.0775 Y4.8458 
G01 X23.0138 Y4.8947 
G01 X22.9396 Y4.9254 
G01 X22.8600 Y4.9359 
G01 X22.7871 Y4.9263 
G01 X22.7804 Y4.9254 
G01 X22.7062 Y4.8947 
G01 X22.6425 Y4.8458 
G01 X22.5936 Y4.7821 
G01 X22.5878 Y4.7682 
G01 X22.4727 Y4.4902 
G01 X22.4227 Y4.4402 
G01 X22.3271 Y4.3447 
G01 X22.2476 Y4.2651 
G01 X22.1798 Y4.1973 
G01 X21.7971 Y4.0388 
G01 X21.3829 Y4.0388 
G01 X21.0002 Y4.1973 
G01 X20.7073 Y4.4902 
G01 X20.6171 Y4.7079 
G01 X20.5871 Y4.7805 
G01 X20.5375 Y4.8458 
G01 X20.4738 Y4.8947 
G01 X20.3996 Y4.9254 
G01 X20.3200 Y4.9359 
G01 X20.2471 Y4.9263 
G01 X20.2404 Y4.9254 
G01 X20.1662 Y4.8947 
G01 X20.1025 Y4.8458 
G01 X20.0536 Y4.7821 
G01 X20.0478 Y4.7682 
G01 X19.9327 Y4.4902 
G01 X19.8827 Y4.4402 
G01 X19.7871 Y4.3447 
G01 X19.7016 Y4.2592 
G01 X19.6398 Y4.1973 
G01 X19.2571 Y4.0388 
G01 X18.8429 Y4.0388 
G01 X18.4602 Y4.1973 
G01 X18.2173 Y4.4402 
G01 X18.1673 Y4.4902 
G01 X18.0771 Y4.7079 
G01 X18.0471 Y4.7805 
G01 X17.9975 Y4.8458 
G01 X17.9338 Y4.8947 
G01 X17.8596 Y4.9254 
G01 X17.7800 Y4.9359 
G01 X17.7071 Y4.9263 
G01 X17.7004 Y4.9254 
G01 X17.6262 Y4.8947 
G01 X17.5625 Y4.8458 
G01 X17.5136 Y4.7821 
G01 X17.5078 Y4.7682 
G01 X17.3927 Y4.4902 
G01 X17.3427 Y4.4402 
G01 X17.2471 Y4.3447 
G01 X17.0998 Y4.1973 
G01 X16.7171 Y4.0388 
G01 X16.3029 Y4.0388 
G01 X15.9202 Y4.1973 
G01 X15.6273 Y4.4902 
G01 X15.5371 Y4.7079 
G01 X15.5071 Y4.7805 
G01 X15.4575 Y4.8458 
G01 X15.3938 Y4.8947 
G01 X15.3196 Y4.9254 
G01 X15.2400 Y4.9359 
G01 X15.1671 Y4.9263 
G01 X15.1604 Y4.9254 
G01 X15.0862 Y4.8947 
G01 X15.0225 Y4.8458 
G01 X14.9736 Y4.7821 
G01 X14.9678 Y4.7682 
G01 X14.8527 Y4.4902 
G01 X14.8027 Y4.4402 
G01 X14.7071 Y4.3447 
G01 X14.6093 Y4.2468 
G01 X14.5598 Y4.1973 
G01 X14.1771 Y4.0388 
G01 X13.7629 Y4.0388 
G01 X13.3802 Y4.1973 
G01 X13.0873 Y4.4902 
G01 X12.9971 Y4.7079 
G01 X12.9671 Y4.7805 
G01 X12.9175 Y4.8458 
G01 X12.8538 Y4.8947 
G01 X12.7796 Y4.9254 
G01 X12.7000 Y4.9359 
G01 X12.6271 Y4.9263 
G01 X12.6204 Y4.9254 
G01 X12.5462 Y4.8947 
G01 X12.4825 Y4.8458 
G01 X12.4336 Y4.7821 
G01 X12.4278 Y4.7682 
G01 X12.3127 Y4.4902 
G01 X12.2627 Y4.4402 
G01 X12.1671 Y4.3447 
G01 X12.0633 Y4.2408 
G01 X12.0198 Y4.1973 
G01 X11.6371 Y4.0388 
G01 X11.2229 Y4.0388 
G01 X10.8402 Y4.1973 
G01 X10.5973 Y4.4402 
G01 X10.5473 Y4.4902 
G01 X10.4571 Y4.7079 
G01 X10.4271 Y4.7805 
G01 X10.3775 Y4.8458 
G01 X10.3138 Y4.8947 
G01 X10.2396 Y4.9254 
G01 X10.1600 Y4.9359 
G01 X10.0871 Y4.9263 
G01 X10.0804 Y4.9254 
G01 X10.0062 Y4.8947 
G01 X9.9425 Y4.8458 
G01 X9.8936 Y4.7821 
G01 X9.8878 Y4.7682 
G01 X9.7727 Y4.4902 
G01 X9.7227 Y4.4402 
G01 X9.6271 Y4.3447 
G01 X9.5173 Y4.2348 
G01 X9.4798 Y4.1973 
G01 X9.0971 Y4.0388 
G01 X8.6829 Y4.0388 
G01 X8.3002 Y4.1973 
G01 X8.0573 Y4.4402 
G01 X8.0073 Y4.4902 
G01 X7.9171 Y4.7079 
G01 X7.8871 Y4.7805 
G01 X7.8375 Y4.8458 
G01 X7.7738 Y4.8947 
G01 X7.6996 Y4.9254 
G01 X7.6200 Y4.9359 
G01 X7.5471 Y4.9263 
G01 X7.5404 Y4.9254 
G01 X7.4662 Y4.8947 
G01 X7.4025 Y4.8458 
G01 X7.3536 Y4.7821 
G01 X7.3478 Y4.7682 
G01 X7.2327 Y4.4902 
G01 X7.1827 Y4.4402 
G01 X7.0871 Y4.3447 
G01 X6.9714 Y4.2289 
G01 X6.9398 Y4.1973 
G01 X6.5571 Y4.0388 
G01 X6.1429 Y4.0388 
G01 X5.7602 Y4.1973 
G01 X5.4673 Y4.4902 
G01 X5.3088 Y4.8729 
G01 X5.3088 Y5.2871 
G01 X5.4673 Y5.6698 
G01 X5.7602 Y5.9627 
G01 X6.1429 Y6.1212 
G01 X6.5571 Y6.1212 
G01 X6.9398 Y5.9627 
G01 X7.0801 Y5.8224 
G01 X7.0871 Y5.8153 
G01 X7.1797 Y5.7228 
G01 X7.1827 Y5.7198 
G01 X7.2327 Y5.6698 
G01 X7.3536 Y5.3779 
G01 X7.4025 Y5.3142 
G01 X7.4662 Y5.2653 
G01 X7.5404 Y5.2346 
G01 X7.6200 Y5.2241 
G01 X7.6929 Y5.2337 
G01 X7.6996 Y5.2346 
G01 X7.7738 Y5.2653 
G01 X7.8375 Y5.3142 
G01 X7.8864 Y5.3779 
G01 X7.9171 Y5.4521 
G01 X8.0073 Y5.6698 
G01 X8.3002 Y5.9627 
G01 X8.6829 Y6.1212 
G01 X9.0971 Y6.1212 
G01 X9.4798 Y5.9627 
G00 Z2.5400 
G00 X7.3408 Y4.9824 
G01 Z-0.1000 F254.00 
G01 X7.3408 Y5.1776 F300.00 
G01 X7.3027 Y5.3690 
G01 X7.2280 Y5.5493 
G01 X7.1196 Y5.7116 
G01 X6.9816 Y5.8496 
G01 X6.8193 Y5.9580 
G01 X6.6390 Y6.0327 
G01 X6.4476 Y6.0708 
G01 X6.2524 Y6.0708 
G01 X6.0610 Y6.0327 
G01 X5.8807 Y5.9580 
G01 X5.7184 Y5.8496 
G01 X5.5804 Y5.7116 
G01 X5.4720 Y5.5493 
G01 X5.3973 Y5.3690 
G01 X5.3592 Y5.1776 
G01 X5.3592 Y4.9824 
G01 X5.3973 Y4.7910 
G01 X5.4720 Y4.6107 
G01 X5.5804 Y4.4484 
G01 X5.7184 Y4.3104 
G01 X5.8807 Y4.2020 
G01 X6.0610 Y4.1273 
G01 X6.2524 Y4.0892 
G01 X6.4476 Y4.0892 
G01 X6.6390 Y4.1273 
G01 X6.8193 Y4.2020 
G01 X6.9816 Y4.3104 
G01 X7.1196 Y4.4484 
G01 X7.2280 Y4.6107 
G01 X7.3027 Y4.7910 
G01 X7.3408 Y4.9824 
G00 Z2.5400 
G00 X9.8808 Y4.9824 
G01 Z-0.1000 F254.00 
G01 X9.8808 Y5.1776 F300.00 
G01 X9.8427 Y5.3690 
G01 X9.7680 Y5.5493 
G01 X9.6596 Y5.7116 
G01 X9.5216 Y5.8496 
G01 X9.3593 Y5.9580 
G01 X9.1790 Y6.0327 
G01 X8.9876 Y6.0708 
G01 X8.7924 Y6.0708 
G01 X8.6010 Y6.0327 
G01 X8.4207 Y5.9580 
G01 X8.2584 Y5.8496 
G01 X8.1204 Y5.7116 
G01 X8.0120 Y5.5493 
G01 X7.9373 Y5.3690 
G01 X7.8992 Y5.1776 
G01 X7.8992 Y4.9824 
G01 X7.9373 Y4.7910 
G01 X8.0120 Y4.6107 
G01 X8.1204 Y4.4484 
G01 X8.2584 Y4.3104 
G01 X8.4207 Y4.2020 
G01 X8.6010 Y4.1273 
G01 X8.7924 Y4.0892 
G01 X8.9876 Y4.0892 
G01 X9.1790 Y4.1273 
G01 X9.3593 Y4.2020 
G01 X9.5216 Y4.3104 
G01 X9.6596 Y4.4484 
G01 X9.7680 Y4.6107 
G01 X9.8427 Y4.7910 
G01 X9.8808 Y4.9824 
G00 Z2.5400 
G00 X12.4208 Y4.9824 
G01 Z-0.1000 F254.00 
G01 X12.4208 Y5.1776 F300.00 
G01 X12.3827 Y5.3690 
G01 X12.3080 Y5.5493 
G01 X12.1996 Y5.7116 
G01 X12.0616 Y5.8496 
G01 X11.8993 Y5.9580 
G01 X11.7190 Y6.0327 
G01 X11.5276 Y6.0708 
G01 X11.3324 Y6.0708 
G01 X11.1410 Y6.0327 
G01 X10.9607 Y5.9580 
G01 X10.7984 Y5.8496 
G01 X10.6604 Y5.7116 
G01 X10.5520 Y5.5493 
G01 X10.4773 Y5.3690 
G01 X10.4392 Y5.1776 
G01 X10.4392 Y4.9824 
G01 X10.4773 Y4.7910 
G01 X10.5520 Y4.6107 
G01 X10.6604 Y4.4484 
G01 X10.7984 Y4.3104 
G01 X10.9607 Y4.2020 
G01 X11.1410 Y4.1273 
G01 X11.3324 Y4.0892 
G01 X11.5276 Y4.0892 
G01 X11.7190 Y4.1273 
G01 X11.8993 Y4.2020 
G01 X12.0616 Y4.3104 
G01 X12.1996 Y4.4484 
G01 X12.3080 Y4.6107 
G01 X12.3827 Y4.7910 
G01 X12.4208 Y4.9824 
G00 Z2.5400 
G00 X14.9608 Y4.9824 
G01 Z-0.1000 F254.00 
G01 X14.9608 Y5.1776 F300.00 
G01 X14.9227 Y5.3690 
G01 X14.8480 Y5.5493 
G01 X14.7396 Y5.7116 
G01 X14.6016 Y5.8496 
G01 X14.4393 Y5.9580 
G01 X14.2590 Y6.0327 
G01 X14.0676 Y6.0708 
G01 X13.8724 Y6.0708 
G01 X13.6810 Y6.0327 
G01 X13.5007 Y5.9580 
G01 X13.3384 Y5.8496 
G01 X13.2004 Y5.7116 
G01 X13.0920 Y5.5493 
G01 X13.0173 Y5.3690 
G01 X12.9792 Y5.1776 
G01 X12.9792 Y4.9824 
G01 X13.0173 Y4.7910 
G01 X13.0920 Y4.6107 
G01 X13.2004 Y4.4484 
G01 X13.3384 Y4.3104 
G01 X13.5007 Y4.2020 
G01 X13.6810 Y4.1273 
G01 X13.8724 Y4.0892 
G01 X14.0676 Y4.0892 
G01 X14.2590 Y4.1273 
G01 X14.4393 Y4.2020 
G01 X14.6016 Y4.3104 
G01 X14.7396 Y4.4484 
G01 X14.8480 Y4.6107 
G01 X14.9227 Y4.7910 
G01 X14.9608 Y4.9824 
G00 Z2.5400 
G00 X17.5008 Y4.9824 
G01 Z-0.1000 F254.00 
G01 X17.5008 Y5.1776 F300.00 
G01 X17.4627 Y5.3690 
G01 X17.3880 Y5.5493 
G01 X17.2796 Y5.7116 
G01 X17.1416 Y5.8496 
G01 X16.9793 Y5.9580 
G01 X16.7990 Y6.0327 
G01 X16.6076 Y6.0708 
G01 X16.4124 Y6.0708 
G01 X16.2210 Y6.0327 
G01 X16.0407 Y5.9580 
G01 X15.8784 Y5.8496 
G01 X15.7404 Y5.7116 
G01 X15.6320 Y5.5493 
G01 X15.5573 Y5.3690 
G01 X15.5192 Y5.1776 
G01 X15.5192 Y4.9824 
G01 X15.5573 Y4.7910 
G01 X15.6320 Y4.6107 
G01 X15.7404 Y4.4484 
G01 X15.8784 Y4.3104 
G01 X16.0407 Y4.2020 
G01 X16.2210 Y4.1273 
G01 X16.4124 Y4.0892 
G01 X16.6076 Y4.0892 
G01 X16.7990 Y4.1273 
G01 X16.9793 Y4.2020 
G01 X17.1416 Y4.3104 
G01 X17.2796 Y4.4484 
G01 X17.3880 Y4.6107 
G01 X17.4627 Y4.7910 
G01 X17.5008 Y4.9824 
G00 Z2.5400 
G00 X20.0408 Y4.9824 
G01 Z-0.1000 F254.00 
G01 X20.0408 Y5.1776 F300.00 
G01 X20.0027 Y5.3690 
G01 X19.9280 Y5.5493 
G01 X19.8196 Y5.7116 
G01 X19.6816 Y5.8496 
G01 X19.5193 Y5.9580 
G01 X19.3390 Y6.0327 
G01 X19.1476 Y6.0708 
G01 X18.9524 Y6.0708 
G01 X18.7610 Y6.0327 
G01 X18.5807 Y5.9580 
G01 X18.4184 Y5.8496 
G01 X18.2804 Y5.7116 
G01 X18.1720 Y5.5493 
G01 X18.0973 Y5.3690 
G01 X18.0592 Y5.1776 
G01 X18.0592 Y4.9824 
G01 X18.0973 Y4.7910 
G01 X18.1720 Y4.6107 
G01 X18.2804 Y4.4484 
G01 X18.4184 Y4.3104 
G01 X18.5807 Y4.2020 
G01 X18.7610 Y4.1273 
G01 X18.9524 Y4.0892 
G01 X19.1476 Y4.0892 
G01 X19.3390 Y4.1273 
G01 X19.5193 Y4.2020 
G01 X19.6816 Y4.3104 
G01 X19.8196 Y4.4484 
G01 X19.9280 Y4.6107 
G01 X20.0027 Y4.7910 
G01 X20.0408 Y4.9824 
G00 Z2.5400 
G00 X22.5808 Y4.9824 
G01 Z-0.1000 F254.00 
G01 X22.5808 Y5.1776 F300.00 
G01 X22.5427 Y5.3690 
G01 X22.4680 Y5.5493 
G01 X22.3596 Y5.7116 
G01 X22.2216 Y5.8496 
G01 X22.0593 Y5.9580 
G01 X21.8790 Y6.0327 
G01 X21.6876 Y6.0708 
G01 X21.4924 Y6.0708 
G01 X21.3010 Y6.0327 
G01 X21.1207 Y5.9580 
G01 X20.9584 Y5.8496 
G01 X20.8204 Y5.7116 
G01 X20.7120 Y5.5493 
G01 X20.6373 Y5.3690 
G01 X20.5992 Y5.1776 
G01 X20.5992 Y4.9824 
G01 X20.6373 Y4.7910 
G01 X20.7120 Y4.6107 
G01 X20.8204 Y4.4484 
G01 X20.9584 Y4.3104 
G01 X21.1207 Y4.2020 
G01 X21.3010 Y4.1273 
G01 X21.4924 Y4.0892 
G01 X21.6876 Y4.0892 
G01 X21.8790 Y4.1273 
G01 X22.0593 Y4.2020 
G01 X22.2216 Y4.3104 
G01 X22.3596 Y4.4484 
G01 X22.4680 Y4.6107 
G01 X22.5427 Y4.7910 
G01 X22.5808 Y4.9824 
G00 Z2.5400 
G00 X25.1208 Y4.9824 
G01 Z-0.1000 F254.00 
G01 X25.1208 Y5.1776 F300.00 
G01 X25.0827 Y5.3690 
G01 X25.0080 Y5.5493 
G01 X24.8996 Y5.7116 
G01 X24.7616 Y5.8496 
G01 X24.5993 Y5.9580 
G01 X24.4190 Y6.0327 
G01 X24.2276 Y6.0708 
G01 X24.0324 Y6.0708 
G01 X23.8410 Y6.0327 
G01 X23.6607 Y5.9580 
G01 X23.4984 Y5.8496 
G01 X23.3604 Y5.7116 
G01 X23.2520 Y5.5493 
G01 X23.1773 Y5.3690 
G01 X23.1392 Y5.1776 
G01 X23.1392 Y4.9824 
G01 X23.1773 Y4.7910 
G01 X23.2520 Y4.6107 
G01 X23.3604 Y4.4484 
G01 X23.4984 Y4.3104 
G01 X23.6607 Y4.2020 
G01 X23.8410 Y4.1273 
G01 X24.0324 Y4.0892 
G01 X24.2276 Y4.0892 
G01 X24.4190 Y4.1273 
G01 X24.5993 Y4.2020 
G01 X24.7616 Y4.3104 
G01 X24.8996 Y4.4484 
G01 X25.0080 Y4.6107 
G01 X25.0827 Y4.7910 
G01 X25.1208 Y4.9824 
G00 Z2.5400 
G00 X44.8278 Y38.4249 
G01 Z-0.1000 F254.00 
G01 X44.8330 Y38.4444 F300.00 
G01 X44.8407 Y38.4630 
G01 X44.8434 Y38.4830 
G01 X44.8486 Y38.5025 
G01 X44.8486 Y38.5226 
G01 X44.8512 Y38.5426 
G01 X44.8486 Y38.5626 
G01 X44.8486 Y38.7420 
G01 X44.8873 Y38.7807 
G01 X44.8926 Y38.7860 
G01 X44.9298 Y38.8014 
G01 X45.7702 Y38.8014 
G01 X45.8074 Y38.7860 
G01 X45.8360 Y38.7574 
G01 X45.8514 Y38.7202 
G01 X45.8514 Y38.5466 
G01 X45.8722 Y38.4690 
G01 X45.9123 Y38.3995 
G01 X46.9651 Y37.3467 
G01 X47.1510 Y37.1608 
G01 X47.2438 Y36.9368 
G01 X47.2438 Y36.4997 
G01 X47.2646 Y36.4221 
G01 X47.3047 Y36.3526 
G01 X47.3615 Y36.2958 
G01 X47.4343 Y36.2230 
G01 X47.4343 Y36.0049 
G01 X47.4542 Y35.9307 
G01 X47.4551 Y35.9274 
G01 X47.4952 Y35.8578 
G01 X47.5520 Y35.8010 
G01 X47.6216 Y35.7609 
G01 X47.6991 Y35.7401 
G01 X47.7795 Y35.7401 
G01 X47.8537 Y35.7600 
G01 X47.8570 Y35.7609 
G01 X47.9266 Y35.8010 
G01 X47.9834 Y35.8578 
G01 X48.2711 Y36.1456 
G01 X48.3671 Y36.2415 
G01 X48.3999 Y36.2744 
G01 X48.4050 Y36.2765 
G01 X48.4667 Y36.3020 
G01 X48.5492 Y36.3362 
G01 X48.7066 Y36.3362 
G01 X48.7842 Y36.3570 
G01 X48.8537 Y36.3971 
G01 X48.8880 Y36.4314 
G01 X50.1720 Y36.4314 
G01 X50.2160 Y36.3874 
G01 X50.2314 Y36.3502 
G01 X50.2314 Y35.4880 
G01 X50.1720 Y35.4286 
G01 X48.7892 Y35.4286 
G01 X48.7117 Y35.4078 
G01 X48.6421 Y35.3677 
G01 X48.5853 Y35.3109 
G01 X48.5353 Y35.2609 
G01 X48.4952 Y35.1913 
G01 X48.4744 Y35.1137 
G01 X48.4744 Y35.0334 
G01 X48.4952 Y34.9559 
G01 X48.5353 Y34.8863 
G01 X48.5921 Y34.8295 
G01 X48.6616 Y34.7894 
G01 X48.7392 Y34.7686 
G01 X51.3876 Y34.7686 
G01 X51.4651 Y34.7894 
G01 X51.5347 Y34.8295 
G01 X51.5897 Y34.8846 
G01 X51.6766 Y34.9205 
G01 X51.7390 Y34.9464 
G01 X51.9006 Y34.9464 
G01 X51.9630 Y34.9205 
G01 X52.0499 Y34.8846 
G01 X52.0851 Y34.8493 
G01 X52.1773 Y34.7571 
G01 X52.2469 Y34.7170 
G01 X52.3244 Y34.6962 
G01 X53.2915 Y34.6962 
G01 X53.3691 Y34.7170 
G01 X53.4386 Y34.7571 
G01 X53.4954 Y34.8139 
G01 X53.5308 Y34.8493 
G01 X53.6264 Y34.9449 
G01 X53.6522 Y34.9707 
G01 X53.8388 Y35.0480 
G01 X54.0408 Y35.0480 
G01 X54.2275 Y34.9707 
G01 X54.2549 Y34.9432 
G01 X54.3463 Y34.8518 
G01 X54.3505 Y34.8476 
G01 X54.5525 Y34.6457 
G01 X54.5647 Y34.6297 
G01 X54.5807 Y34.6174 
G01 X54.5950 Y34.6031 
G01 X54.6125 Y34.5931 
G01 X54.6284 Y34.5808 
G01 X54.6471 Y34.5731 
G01 X54.6645 Y34.5630 
G01 X54.6840 Y34.5578 
G01 X54.7026 Y34.5501 
G01 X54.7226 Y34.5474 
G01 X54.7421 Y34.5422 
G01 X54.7623 Y34.5422 
G01 X54.7823 Y34.5396 
G01 X54.8023 Y34.5422 
G01 X54.8224 Y34.5422 
G01 X54.8419 Y34.5474 
G01 X54.8619 Y34.5501 
G01 X54.8805 Y34.5578 
G01 X54.9000 Y34.5630 
G01 X54.9174 Y34.5731 
G01 X54.9694 Y34.5946 
G01 X55.2090 Y34.5946 
G01 X55.2865 Y34.6154 
G01 X55.3561 Y34.6555 
G01 X55.4129 Y34.7123 
G01 X55.4530 Y34.7819 
G01 X55.4738 Y34.8594 
G01 X55.4738 Y35.9460 
G01 X55.4530 Y36.0235 
G01 X55.4129 Y36.0931 
G01 X55.3561 Y36.1499 
G01 X55.3207 Y36.1853 
G01 X55.2251 Y36.2808 
G01 X55.1582 Y36.3477 
G01 X55.0286 Y36.6606 
G01 X55.0286 Y36.9993 
G01 X55.1582 Y37.3123 
G01 X55.3977 Y37.5518 
G01 X55.6773 Y37.6676 
G01 X55.7106 Y37.6814 
G01 X56.0494 Y37.6814 
G01 X56.0828 Y37.6675 
G01 X56.3623 Y37.5518 
G01 X56.6018 Y37.3123 
G01 X56.7314 Y36.9993 
G01 X56.7314 Y36.6606 
G01 X56.6018 Y36.3477 
G01 X56.4393 Y36.1853 
G01 X56.3471 Y36.0931 
G01 X56.3070 Y36.0235 
G01 X56.2862 Y35.9460 
G01 X56.2862 Y34.6926 
G01 X56.3070 Y34.6151 
G01 X56.3471 Y34.5455 
G01 X56.4039 Y34.4887 
G01 X56.4735 Y34.4486 
G01 X56.5510 Y34.4278 
G01 X58.5285 Y34.4278 
G01 X58.5375 Y34.4266 
G01 X58.5570 Y34.4214 
G01 X58.5771 Y34.4214 
G01 X58.5971 Y34.4188 
G01 X58.6171 Y34.4214 
G01 X59.0402 Y34.4214 
G01 X59.0774 Y34.4060 
G01 X59.1060 Y34.3774 
G01 X59.1214 Y34.3402 
G01 X59.1214 Y33.4998 
G01 X59.1060 Y33.4626 
G01 X59.0620 Y33.4186 
G01 X58.6171 Y33.4186 
G01 X58.5971 Y33.4212 
G01 X58.5771 Y33.4186 
G01 X58.5570 Y33.4186 
G01 X58.5375 Y33.4134 
G01 X58.5285 Y33.4122 
G01 X55.4318 Y33.4122 
G01 X55.3997 Y33.4036 
G01 X55.3542 Y33.3914 
G01 X55.3018 Y33.3611 
G01 X55.2846 Y33.3513 
G01 X55.1407 Y33.2073 
G01 X55.1149 Y33.1626 
G01 X55.1005 Y33.1377 
G01 X55.0797 Y33.0601 
G01 X55.0797 Y32.9798 
G01 X55.1005 Y32.9023 
G01 X55.1407 Y32.8327 
G01 X55.1975 Y32.7759 
G01 X55.2114 Y32.7620 
G01 X55.2114 Y31.5998 
G01 X55.1960 Y31.5626 
G01 X55.1811 Y31.5477 
G01 X55.1386 Y31.4758 
G01 X55.1268 Y31.4317 
G01 X55.1178 Y31.3982 
G01 X55.1178 Y30.8318 
G01 X55.1386 Y30.7542 
G01 X55.1787 Y30.6847 
G01 X55.1960 Y30.6674 
G01 X55.2114 Y30.6302 
G01 X55.2114 Y29.4672 
G01 X55.1724 Y29.3996 
G01 X55.1671 Y29.3800 
G01 X55.1516 Y29.3220 
G01 X55.1516 Y29.2417 
G01 X55.1646 Y29.1932 
G01 X55.1724 Y29.1641 
G01 X55.1781 Y29.1542 
G01 X55.2125 Y29.0946 
G01 X55.2611 Y29.0460 
G01 X53.9589 Y29.0460 
G01 X54.0066 Y29.0937 
G01 X54.0409 Y29.1525 
G01 X54.0476 Y29.1641 
G01 X54.0551 Y29.1918 
G01 X54.0684 Y29.2417 
G01 X54.0684 Y29.3220 
G01 X54.0535 Y29.3776 
G01 X54.0476 Y29.3996 
G01 X54.0086 Y29.4672 
G01 X54.0086 Y30.6520 
G01 X54.0413 Y30.6847 
G01 X54.0814 Y30.7542 
G01 X54.1022 Y30.8318 
G01 X54.1022 Y31.1806 
G01 X54.0814 Y31.2581 
G01 X54.0413 Y31.3277 
G01 X53.9845 Y31.3845 
G01 X53.9149 Y31.4246 
G01 X53.8374 Y31.4454 
G01 X53.2794 Y31.4454 
G01 X53.2692 Y31.4496 
G01 X53.1675 Y31.4918 
G01 X52.9375 Y31.7217 
G01 X52.1478 Y32.5115 
G01 X52.0556 Y32.6037 
G01 X51.9860 Y32.6438 
G01 X51.9084 Y32.6646 
G01 X50.3933 Y32.6646 
G01 X50.2626 Y32.7187 
G01 X50.2507 Y32.7307 
G01 X50.2124 Y32.7528 
G01 X50.1811 Y32.7708 
G01 X50.1414 Y32.7815 
G01 X50.1036 Y32.7916 
G01 X50.0639 Y32.7916 
G01 X50.0233 Y32.7916 
G01 X49.9770 Y32.7792 
G01 X49.9457 Y32.7708 
G01 X49.8988 Y32.7438 
G01 X49.8761 Y32.7307 
G01 X49.8482 Y32.7027 
G01 X49.8193 Y32.6739 
G01 X49.7973 Y32.6356 
G01 X49.7792 Y32.6044 
G01 X49.7686 Y32.5647 
G01 X49.7584 Y32.5268 
G01 X49.7584 Y32.4871 
G01 X49.7584 Y32.4465 
G01 X49.7584 Y32.1104 
G01 X49.7792 Y32.0328 
G01 X49.8193 Y31.9633 
G01 X49.8761 Y31.9065 
G01 X50.2413 Y31.5413 
G01 X50.3369 Y31.4457 
G01 X50.9181 Y30.8645 
G01 X51.0103 Y30.7723 
G01 X51.0798 Y30.7322 
G01 X51.1574 Y30.7114 
G01 X51.3202 Y30.7114 
G01 X51.3574 Y30.6960 
G01 X51.3860 Y30.6674 
G01 X51.4014 Y30.6302 
G01 X51.4014 Y29.4672 
G01 X51.3691 Y29.4112 
G01 X51.3624 Y29.3996 
G01 X51.3549 Y29.3719 
G01 X51.3416 Y29.3220 
G01 X51.3416 Y29.2417 
G01 X51.3565 Y29.1861 
G01 X51.3624 Y29.1641 
G01 X51.4025 Y29.0946 
G01 X51.4511 Y29.0460 
G01 X50.7325 Y29.0460 
G01 X50.5999 Y29.0196 
G01 X50.4751 Y28.9679 
G01 X50.4647 Y28.9610 
G01 X50.2789 Y28.9610 
G01 X50.2490 Y28.9311 
G01 X50.2490 Y28.7701 
G01 X50.1921 Y28.6849 
G01 X50.1838 Y28.6650 
G01 X50.0970 Y28.6650 
G01 X50.0970 Y28.9367 
G01 X50.1108 Y28.9884 
G01 X50.1255 Y29.0138 
G01 X50.1371 Y29.0339 
G01 X50.1424 Y29.0392 
G01 X50.1975 Y29.0946 
G01 X50.2376 Y29.1641 
G01 X50.2429 Y29.1837 
G01 X50.2584 Y29.2417 
G01 X50.2584 Y29.3220 
G01 X50.2454 Y29.3705 
G01 X50.2376 Y29.3996 
G01 X50.2319 Y29.4094 
G01 X50.1986 Y29.4672 
G01 X50.1986 Y30.4926 
G01 X50.1778 Y30.5702 
G01 X50.1377 Y30.6397 
G01 X49.2287 Y31.5487 
G01 X49.2098 Y31.5942 
G01 X49.2046 Y31.6137 
G01 X49.1945 Y31.6312 
G01 X49.1868 Y31.6498 
G01 X49.1745 Y31.6658 
G01 X49.1645 Y31.6833 
G01 X49.1502 Y31.6975 
G01 X49.1379 Y31.7135 
G01 X49.1219 Y31.7258 
G01 X49.1077 Y31.7401 
G01 X49.0902 Y31.7502 
G01 X49.0742 Y31.7624 
G01 X49.0556 Y31.7701 
G01 X49.0381 Y31.7802 
G01 X49.0187 Y31.7854 
G01 X49.0000 Y31.7932 
G01 X48.9800 Y31.7958 
G01 X48.9606 Y31.8010 
G01 X48.9404 Y31.8010 
G01 X48.9204 Y31.8036 
G01 X48.9004 Y31.8010 
G01 X48.8802 Y31.8010 
G01 X48.8608 Y31.7958 
G01 X48.8408 Y31.7932 
G01 X48.8222 Y31.7854 
G01 X48.8027 Y31.7802 
G01 X48.7852 Y31.7701 
G01 X48.7666 Y31.7624 
G01 X48.7506 Y31.7502 
G01 X48.7331 Y31.7401 
G01 X48.7189 Y31.7258 
G01 X48.7029 Y31.7135 
G01 X48.6906 Y31.6976 
G01 X48.6763 Y31.6833 
G01 X48.6663 Y31.6658 
G01 X48.6540 Y31.6498 
G01 X48.6463 Y31.6312 
G01 X48.6362 Y31.6137 
G01 X48.6310 Y31.5943 
G01 X48.6232 Y31.5756 
G01 X48.6206 Y31.5556 
G01 X48.6154 Y31.5362 
G01 X48.6154 Y31.5160 
G01 X48.6128 Y31.4960 
G01 X48.6154 Y31.4760 
G01 X48.6154 Y31.0726 
G01 X48.6362 Y30.9950 
G01 X48.6763 Y30.9255 
G01 X48.7331 Y30.8687 
G01 X48.7766 Y30.8252 
G01 X48.8694 Y30.6012 
G01 X48.8694 Y28.6688 
G01 X48.8666 Y28.6484 
G01 X48.8614 Y28.6290 
G01 X48.8614 Y28.6088 
G01 X48.8588 Y28.5888 
G01 X48.8614 Y28.5688 
G01 X48.8614 Y28.1972 
G01 X48.8291 Y28.1412 
G01 X48.8224 Y28.1296 
G01 X48.8149 Y28.1019 
G01 X48.8016 Y28.0520 
G01 X48.8016 Y27.9717 
G01 X48.8165 Y27.9161 
G01 X48.8224 Y27.8941 
G01 X48.8625 Y27.8246 
G01 X48.9111 Y27.7760 
G01 X47.6089 Y27.7760 
G01 X47.6566 Y27.8237 
G01 X47.6909 Y27.8825 
G01 X47.6976 Y27.8941 
G01 X47.7051 Y27.9218 
G01 X47.7184 Y27.9717 
G01 X47.7184 Y28.0520 
G01 X47.7035 Y28.1076 
G01 X47.6976 Y28.1296 
G01 X47.6586 Y28.1972 
G01 X47.6586 Y28.5688 
G01 X47.6612 Y28.5888 
G01 X47.6586 Y28.6088 
G01 X47.6586 Y28.6290 
G01 X47.6534 Y28.6484 
G01 X47.6507 Y28.6684 
G01 X47.6506 Y30.6012 
G01 X47.7434 Y30.8252 
G01 X47.8437 Y30.9255 
G01 X47.8838 Y30.9950 
G01 X47.9046 Y31.0726 
G01 X47.9046 Y31.8207 
G01 X47.9587 Y31.9513 
G01 X47.9707 Y31.9633 
G01 X48.0108 Y32.0328 
G01 X48.0316 Y32.1104 
G01 X48.0316 Y32.1713 
G01 X48.0316 Y32.2105 
G01 X48.0187 Y32.2586 
G01 X48.0108 Y32.2881 
G01 X47.9878 Y32.3280 
G01 X47.9707 Y32.3577 
G01 X47.9469 Y32.3814 
G01 X47.9174 Y32.4109 
G01 X47.8901 Y32.4382 
G01 X47.8416 Y32.4662 
G01 X47.8206 Y32.4784 
G01 X47.7733 Y32.4910 
G01 X47.7430 Y32.4992 
G01 X47.7033 Y32.4992 
G01 X47.6627 Y32.4992 
G01 X47.6165 Y32.4868 
G01 X47.5851 Y32.4784 
G01 X47.5460 Y32.4558 
G01 X47.5156 Y32.4382 
G01 X47.4876 Y32.4103 
G01 X47.4588 Y32.3815 
G01 X47.3749 Y32.2976 
G01 X47.1276 Y32.2976 
G01 X47.0501 Y32.2768 
G01 X46.9805 Y32.2366 
G01 X46.9237 Y32.1798 
G01 X46.8836 Y32.1103 
G01 X46.8628 Y32.0327 
G01 X46.8628 Y31.2998 
G01 X46.6891 Y31.1261 
G01 X46.6378 Y31.0748 
G01 X46.6323 Y31.0693 
G01 X46.5934 Y31.0019 
G01 X46.5714 Y30.9222 
G01 X46.5714 Y30.1273 
G01 X46.5273 Y30.0833 
G01 X46.4317 Y29.9877 
G01 X46.0727 Y29.6286 
G01 X45.3673 Y29.6286 
G01 X44.8686 Y30.1273 
G01 X44.8686 Y30.8327 
G01 X45.3673 Y31.3314 
G01 X46.1412 Y31.3314 
G01 X46.2187 Y31.3522 
G01 X46.2883 Y31.3923 
G01 X46.3451 Y31.4491 
G01 X46.3852 Y31.5187 
G01 X46.4060 Y31.5962 
G01 X46.4060 Y32.0327 
G01 X46.3852 Y32.1103 
G01 X46.3451 Y32.1798 
G01 X46.2883 Y32.2366 
G01 X46.2187 Y32.2768 
G01 X46.1412 Y32.2976 
G01 X45.8939 Y32.2976 
G01 X45.8345 Y32.3570 
G01 X45.8345 Y32.3877 
G01 X45.8240 Y32.4269 
G01 X45.8137 Y32.4653 
G01 X45.7932 Y32.5009 
G01 X45.7736 Y32.5348 
G01 X45.7432 Y32.5651 
G01 X45.7168 Y32.5916 
G01 X45.6827 Y32.6113 
G01 X45.6472 Y32.6317 
G01 X45.6097 Y32.6418 
G01 X45.5697 Y32.6525 
G01 X45.5295 Y32.6525 
G01 X45.4893 Y32.6525 
G01 X45.4781 Y32.6495 
G01 X45.4622 Y32.6479 
G01 X45.4474 Y32.6479 
G01 X45.4405 Y32.6450 
G01 X45.4331 Y32.6441 
G01 X45.4203 Y32.6367 
G01 X45.4066 Y32.6310 
G01 X45.4027 Y32.6271 
G01 X45.3530 Y32.6138 
G01 X45.1360 Y32.6138 
G01 X45.1360 Y32.7658 
G01 X45.3474 Y32.7658 
G01 X45.3773 Y32.7957 
G01 X45.3773 Y35.7843 
G01 X45.3474 Y35.8142 
G01 X45.1360 Y35.8142 
G01 X45.1360 Y35.9662 
G01 X45.3530 Y35.9662 
G01 X45.4027 Y35.9529 
G01 X45.4066 Y35.9490 
G01 X45.4203 Y35.9433 
G01 X45.4331 Y35.9359 
G01 X45.4405 Y35.9350 
G01 X45.4474 Y35.9321 
G01 X45.4622 Y35.9321 
G01 X45.4769 Y35.9302 
G01 X45.4892 Y35.9275 
G01 X45.5293 Y35.9275 
G01 X45.5695 Y35.9274 
G01 X45.6096 Y35.9382 
G01 X45.6471 Y35.9482 
G01 X45.6825 Y35.9686 
G01 X45.7167 Y35.9883 
G01 X45.7431 Y36.0148 
G01 X45.7735 Y36.0451 
G01 X45.7931 Y36.0790 
G01 X45.8137 Y36.1146 
G01 X45.8240 Y36.1530 
G01 X45.8345 Y36.1922 
G01 X45.8345 Y36.2230 
G01 X45.9125 Y36.3011 
G01 X45.9527 Y36.3706 
G01 X45.9677 Y36.4265 
G01 X45.9735 Y36.4482 
G01 X45.9735 Y36.5285 
G01 X45.9527 Y36.6061 
G01 X45.9300 Y36.6453 
G01 X45.9126 Y36.6756 
G01 X45.8558 Y36.7324 
G01 X45.4987 Y37.0895 
G01 X45.4475 Y37.1407 
G01 X45.4031 Y37.1850 
G01 X45.3957 Y37.1924 
G01 X45.2505 Y37.3377 
G01 X45.1810 Y37.3778 
G01 X45.1034 Y37.3986 
G01 X44.9730 Y37.3986 
G01 X44.9298 Y37.3986 
G01 X44.8926 Y37.4140 
G01 X44.8885 Y37.4181 
G01 X44.8486 Y37.4580 
G01 X44.8486 Y37.6374 
G01 X44.8512 Y37.6574 
G01 X44.8486 Y37.6774 
G01 X44.8486 Y37.6975 
G01 X44.8434 Y37.7170 
G01 X44.8407 Y37.7370 
G01 X44.8330 Y37.7556 
G01 X44.8278 Y37.7751 
G01 X44.8177 Y37.7926 
G01 X44.7471 Y37.9630 
G01 X44.7164 Y38.0372 
G01 X44.6956 Y38.0643 
G01 X44.6682 Y38.1000 
G01 X44.6948 Y38.1347 
G01 X44.7164 Y38.1628 
G01 X44.7471 Y38.2370 
G01 X44.8177 Y38.4074 
G01 X44.8278 Y38.4249 
G00 Z2.5400 
G00 X56.6810 Y36.7511 
G01 Z-0.1000 F254.00 
G01 X56.6810 Y36.9089 F300.00 
G01 X56.6502 Y37.0636 
G01 X56.5898 Y37.2094 
G01 X56.5022 Y37.3406 
G01 X56.3906 Y37.4522 
G01 X56.2594 Y37.5398 
G01 X56.1136 Y37.6002 
G01 X55.9589 Y37.6310 
G01 X55.8011 Y37.6310 
G01 X55.6464 Y37.6002 
G01 X55.5006 Y37.5398 
G01 X55.3694 Y37.4522 
G01 X55.2578 Y37.3406 
G01 X55.1702 Y37.2094 
G01 X55.1098 Y37.0636 
G01 X55.0790 Y36.9089 
G01 X55.0790 Y36.7511 
G01 X55.1098 Y36.5964 
G01 X55.1702 Y36.4506 
G01 X55.2578 Y36.3194 
G01 X55.3694 Y36.2078 
G01 X55.5006 Y36.1202 
G01 X55.5242 Y36.1104 
G01 X55.5242 Y34.5442 
G01 X54.9794 Y34.5442 
G01 X54.8860 Y34.5055 
G01 X54.8515 Y34.4710 
G01 X54.6559 Y34.4710 
G01 X54.2207 Y34.9062 
G01 X54.1164 Y34.9664 
G01 X54.0000 Y34.9976 
G01 X53.8796 Y34.9976 
G01 X53.7633 Y34.9664 
G01 X53.6590 Y34.9062 
G01 X53.5738 Y34.8210 
G01 X53.5136 Y34.7167 
G01 X53.4946 Y34.6458 
G01 X52.2174 Y34.6458 
G01 X52.0383 Y34.8249 
G01 X51.9571 Y34.8717 
G01 X51.8666 Y34.8960 
G01 X51.7730 Y34.8960 
G01 X51.6825 Y34.8717 
G01 X51.6013 Y34.8249 
G01 X51.5351 Y34.7587 
G01 X51.5117 Y34.7182 
G01 X47.3667 Y34.7182 
G01 X47.3540 Y34.7309 
G01 X45.9148 Y34.7309 
G01 X45.8849 Y34.7010 
G01 X45.8849 Y34.6317 
G01 X45.8655 Y34.6122 
G01 X45.8461 Y34.5655 
G01 X45.8461 Y34.5149 
G01 X45.8655 Y34.4681 
G01 X45.8849 Y34.4487 
G01 X45.8849 Y34.3794 
G01 X45.9148 Y34.3495 
G01 X47.3540 Y34.3495 
G01 X47.3667 Y34.3622 
G01 X51.5117 Y34.3622 
G01 X51.5351 Y34.3217 
G01 X51.8515 Y34.0053 
G01 X51.9327 Y33.9584 
G01 X52.0232 Y33.9342 
G01 X53.7365 Y33.9342 
G01 X53.8270 Y33.9584 
G01 X53.8572 Y33.9759 
G01 X54.0590 Y33.7741 
G01 X54.0590 Y33.2989 
G01 X54.0889 Y33.2690 
G01 X55.1311 Y33.2690 
G01 X55.1610 Y33.2989 
G01 X55.1610 Y33.4626 
G01 X58.4802 Y33.4626 
G01 X58.5041 Y33.4690 
G01 X59.0411 Y33.4690 
G01 X59.0710 Y33.4989 
G01 X59.0710 Y34.3411 
G01 X59.0411 Y34.3710 
G01 X58.5041 Y34.3710 
G01 X58.4802 Y34.3774 
G01 X56.2358 Y34.3774 
G01 X56.2358 Y36.1104 
G01 X56.2594 Y36.1202 
G01 X56.3906 Y36.2078 
G01 X56.5022 Y36.3194 
G01 X56.5898 Y36.4506 
G01 X56.6502 Y36.5964 
G01 X56.6810 Y36.7511 
G00 Z2.5400 
G00 X46.5210 Y30.1482 
G01 Z-0.1000 F254.00 
G01 X46.5210 Y30.8118 F300.00 
G01 X46.4123 Y30.9205 
G01 X46.7853 Y31.2936 
G01 X46.8124 Y31.3590 
G01 X46.8124 Y32.3480 
G01 X47.3540 Y32.3480 
G01 X47.3839 Y32.3778 
G01 X47.3839 Y32.6995 
G01 X47.3540 Y32.7294 
G01 X45.9148 Y32.7294 
G01 X45.8849 Y32.6995 
G01 X45.8849 Y32.3778 
G01 X45.9148 Y32.3480 
G01 X46.4564 Y32.3480 
G01 X46.4564 Y31.4681 
G01 X46.1605 Y31.1723 
G01 X46.0518 Y31.2810 
G01 X45.3882 Y31.2810 
G01 X44.9190 Y30.8118 
G01 X44.9190 Y30.1482 
G01 X45.3882 Y29.6790 
G01 X46.0518 Y29.6790 
G01 X46.5210 Y30.1482 
G00 Z2.5400 
G00 X53.8445 Y33.0829 
G01 Z-0.1000 F254.00 
G01 X53.7546 Y33.1728 F300.00 
G01 X53.7546 Y33.5409 
G01 X53.7377 Y33.5817 
G01 X53.7065 Y33.6129 
G01 X53.6657 Y33.6298 
G01 X52.5679 Y33.6298 
G01 X52.5563 Y33.6250 
G01 X52.5271 Y33.6129 
G01 X52.4959 Y33.5817 
G01 X52.4790 Y33.5409 
G01 X52.4790 Y33.4967 
G01 X52.4838 Y33.4851 
G01 X52.4959 Y33.4559 
G01 X52.5271 Y33.4247 
G01 X52.5866 Y33.3652 
G01 X52.6205 Y33.2834 
G01 X52.6374 Y33.2426 
G01 X52.6682 Y33.2118 
G01 X53.5545 Y32.3255 
G01 X53.5953 Y32.3086 
G01 X53.6657 Y32.3086 
G01 X53.7065 Y32.3255 
G01 X53.7377 Y32.3567 
G01 X53.7546 Y32.3975 
G01 X53.7546 Y32.8672 
G01 X53.8133 Y32.9259 
G01 X53.8445 Y32.9571 
G01 X53.8563 Y32.9856 
G01 X53.8614 Y32.9979 
G01 X53.8614 Y33.0421 
G01 X53.8445 Y33.0829 
G00 Z2.5400 
G00 X45.8849 Y33.7003 
G01 Z-0.1000 F254.00 
G01 X45.8849 Y33.3786 F300.00 
G01 X45.9148 Y33.3487 
G01 X47.3540 Y33.3487 
G01 X47.3667 Y33.3614 
G01 X48.9368 Y33.3614 
G01 X49.3520 Y32.9463 
G01 X49.3520 Y31.9994 
G01 X49.3427 Y31.9941 
G01 X49.2859 Y31.9373 
G01 X49.2458 Y31.8677 
G01 X49.2250 Y31.7902 
G01 X49.2250 Y31.7098 
G01 X49.2458 Y31.6323 
G01 X49.2859 Y31.5627 
G01 X50.2490 Y30.5997 
G01 X50.2490 Y29.4889 
G01 X50.2789 Y29.4590 
G01 X51.3211 Y29.4590 
G01 X51.3510 Y29.4889 
G01 X51.3510 Y30.6311 
G01 X51.3211 Y30.6610 
G01 X51.0477 Y30.6610 
G01 X51.0441 Y30.6673 
G01 X49.7173 Y31.9941 
G01 X49.7080 Y31.9994 
G01 X49.7080 Y33.0554 
G01 X49.6809 Y33.1208 
G01 X49.6308 Y33.1709 
G01 X49.1114 Y33.6903 
G01 X49.0460 Y33.7174 
G01 X47.3667 Y33.7174 
G01 X47.3540 Y33.7301 
G01 X45.9148 Y33.7301 
G01 X45.8849 Y33.7003 
G00 Z2.5400 
G00 X45.8849 Y34.2006 
G01 Z-0.1000 F254.00 
G01 X45.8849 Y33.8790 F300.00 
G01 X45.9148 Y33.8491 
G01 X47.3540 Y33.8491 
G01 X47.3667 Y33.8618 
G01 X49.1908 Y33.8618 
G01 X49.8063 Y33.2463 
G01 X50.2199 Y32.8327 
G01 X50.2767 Y32.7759 
G01 X50.3462 Y32.7358 
G01 X50.4238 Y32.7150 
G01 X52.0155 Y32.7150 
G01 X53.1245 Y31.6060 
G01 X53.1960 Y31.5345 
G01 X53.2894 Y31.4958 
G01 X54.1526 Y31.4958 
G01 X54.1526 Y30.6610 
G01 X54.0889 Y30.6610 
G01 X54.0590 Y30.6311 
G01 X54.0590 Y29.4889 
G01 X54.0889 Y29.4590 
G01 X55.1311 Y29.4590 
G01 X55.1610 Y29.4889 
G01 X55.1610 Y30.6311 
G01 X55.1311 Y30.6610 
G01 X55.0674 Y30.6610 
G01 X55.0674 Y31.5690 
G01 X55.1311 Y31.5690 
G01 X55.1610 Y31.5989 
G01 X55.1610 Y32.7411 
G01 X55.1311 Y32.7710 
G01 X54.0889 Y32.7710 
G01 X54.0590 Y32.7411 
G01 X54.0590 Y32.0042 
G01 X53.4453 Y32.0042 
G01 X52.3697 Y33.0797 
G01 X52.3542 Y33.1377 
G01 X52.3141 Y33.2073 
G01 X52.2573 Y33.2641 
G01 X52.1877 Y33.3042 
G01 X52.1102 Y33.3250 
G01 X50.5903 Y33.3250 
G01 X50.1842 Y33.7310 
G01 X50.1147 Y33.7712 
G01 X50.0371 Y33.7920 
G01 X49.9568 Y33.7920 
G01 X49.8792 Y33.7712 
G01 X49.8194 Y33.7366 
G01 X49.3654 Y34.1907 
G01 X49.2999 Y34.2178 
G01 X47.3667 Y34.2178 
G01 X47.3540 Y34.2305 
G01 X45.9148 Y34.2305 
G01 X45.8849 Y34.2006 
G00 Z2.5400 
G00 X44.8990 Y38.7211 
G01 Z-0.1000 F254.00 
G01 X44.8990 Y38.4368 F300.00 
G01 X44.8291 Y38.3158 
G01 X44.7910 Y38.1736 
G01 X44.7910 Y38.0264 
G01 X44.8291 Y37.8842 
G01 X44.8990 Y37.7632 
G01 X44.8990 Y37.4789 
G01 X44.9289 Y37.4490 
G01 X45.2105 Y37.4490 
G01 X46.0754 Y36.5841 
G01 X46.0754 Y36.2320 
G01 X45.9148 Y36.2320 
G01 X45.8849 Y36.2022 
G01 X45.8849 Y35.8805 
G01 X45.9148 Y35.8506 
G01 X46.0754 Y35.8506 
G01 X46.0754 Y35.7671 
G01 X46.0849 Y35.7316 
G01 X45.9148 Y35.7316 
G01 X45.8849 Y35.7018 
G01 X45.8849 Y35.3801 
G01 X45.9148 Y35.3503 
G01 X46.3658 Y35.3503 
G01 X46.4186 Y35.3198 
G01 X46.5608 Y35.2817 
G01 X46.7080 Y35.2817 
G01 X46.8502 Y35.3198 
G01 X46.9030 Y35.3503 
G01 X47.3540 Y35.3503 
G01 X47.3839 Y35.3801 
G01 X47.3839 Y35.7018 
G01 X47.3540 Y35.7316 
G01 X47.1839 Y35.7316 
G01 X47.1934 Y35.7671 
G01 X47.1934 Y35.8506 
G01 X47.3540 Y35.8506 
G01 X47.3839 Y35.8805 
G01 X47.3839 Y36.2022 
G01 X47.3540 Y36.2320 
G01 X47.1934 Y36.2320 
G01 X47.1934 Y36.8892 
G01 X47.1553 Y37.0314 
G01 X47.0817 Y37.1588 
G01 X46.9776 Y37.2629 
G01 X45.8010 Y38.4395 
G01 X45.8010 Y38.7211 
G01 X45.7711 Y38.7510 
G01 X44.9289 Y38.7510 
G01 X44.8990 Y38.7211 
G00 Z2.5400 
G00 X50.1511 Y36.3810 
G01 Z-0.1000 F254.00 
G01 X48.9089 Y36.3810 F300.00 
G01 X48.8790 Y36.3511 
G01 X48.8790 Y36.2858 
G01 X48.5832 Y36.2858 
G01 X48.4927 Y36.2615 
G01 X48.4115 Y36.2147 
G01 X48.3453 Y36.1485 
G01 X47.9753 Y35.7785 
G01 X47.9284 Y35.6973 
G01 X47.9042 Y35.6068 
G01 X47.9042 Y35.5132 
G01 X47.9163 Y35.4680 
G01 X47.6668 Y35.2186 
G01 X47.3667 Y35.2186 
G01 X47.3540 Y35.2313 
G01 X45.9148 Y35.2313 
G01 X45.8849 Y35.2014 
G01 X45.8849 Y34.8797 
G01 X45.9148 Y34.8499 
G01 X47.3540 Y34.8499 
G01 X47.3667 Y34.8626 
G01 X47.7760 Y34.8626 
G01 X47.8414 Y34.8897 
G01 X48.1680 Y35.2163 
G01 X48.2132 Y35.2042 
G01 X48.3068 Y35.2042 
G01 X48.3973 Y35.2284 
G01 X48.4785 Y35.2753 
G01 X48.7774 Y35.5742 
G01 X48.8790 Y35.5742 
G01 X48.8790 Y35.5089 
G01 X48.9089 Y35.4790 
G01 X50.1511 Y35.4790 
G01 X50.1810 Y35.5089 
G01 X50.1810 Y36.3511 
G01 X50.1511 Y36.3810 
G00 Z2.5400 
G00 X47.7090 Y28.2189 
G01 Z-0.1000 F254.00 
G01 X47.7389 Y28.1890 F300.00 
G01 X48.7811 Y28.1890 
G01 X48.8110 Y28.2189 
G01 X48.8110 Y28.6866 
G01 X48.8190 Y28.7164 
G01 X48.8190 Y30.5536 
G01 X48.7809 Y30.6958 
G01 X48.7073 Y30.8232 
G01 X48.6032 Y30.9273 
G01 X48.5650 Y30.9494 
G01 X48.5650 Y31.7902 
G01 X48.5442 Y31.8677 
G01 X48.5041 Y31.9373 
G01 X48.4473 Y31.9941 
G01 X48.4380 Y31.9994 
G01 X48.4380 Y32.4268 
G01 X48.4109 Y32.4922 
G01 X48.3608 Y32.5423 
G01 X47.7131 Y33.1900 
G01 X47.6477 Y33.2170 
G01 X47.3667 Y33.2170 
G01 X47.3540 Y33.2297 
G01 X45.9148 Y33.2297 
G01 X45.8849 Y33.1999 
G01 X45.8849 Y32.8782 
G01 X45.9148 Y32.8484 
G01 X47.3540 Y32.8484 
G01 X47.3667 Y32.8610 
G01 X47.5386 Y32.8610 
G01 X48.0820 Y32.3176 
G01 X48.0820 Y31.9994 
G01 X48.0727 Y31.9941 
G01 X48.0159 Y31.9373 
G01 X47.9758 Y31.8677 
G01 X47.9550 Y31.7902 
G01 X47.9550 Y30.9494 
G01 X47.9168 Y30.9273 
G01 X47.8127 Y30.8232 
G01 X47.7391 Y30.6958 
G01 X47.7010 Y30.5536 
G01 X47.7010 Y28.7164 
G01 X47.7090 Y28.6866 
G01 X47.7090 Y28.2189 
G00 Z2.5400 
G00 X48.7424 Y32.5912 
G01 Z-0.1000 F254.00 
G01 X48.7424 Y32.1533 F300.00 
G01 X48.7593 Y32.1125 
G01 X48.7766 Y32.0952 
G01 X48.7840 Y32.0774 
G01 X48.8009 Y32.0366 
G01 X48.8316 Y32.0058 
G01 X48.8487 Y31.9985 
G01 X48.8729 Y31.9885 
G01 X48.9171 Y31.9885 
G01 X48.9579 Y32.0054 
G01 X48.9886 Y32.0361 
G01 X48.9981 Y32.0582 
G01 X49.0060 Y32.0774 
G01 X49.0134 Y32.0952 
G01 X49.0307 Y32.1125 
G01 X49.0476 Y32.1533 
G01 X49.0476 Y32.7963 
G01 X49.0307 Y32.8371 
G01 X48.9995 Y32.8683 
G01 X48.8589 Y33.0089 
G01 X48.8276 Y33.0401 
G01 X48.7869 Y33.0570 
G01 X48.5224 Y33.0570 
G01 X48.4816 Y33.0401 
G01 X48.4504 Y33.0089 
G01 X48.4335 Y32.9681 
G01 X48.4335 Y32.9240 
G01 X48.4504 Y32.8832 
G01 X48.4816 Y32.8519 
G01 X48.7424 Y32.5912 
G00 Z2.5400 
G00 X51.3854 Y34.0409 
G01 Z-0.1000 F254.00 
G01 X51.3446 Y34.0578 F300.00 
G01 X50.5339 Y34.0578 
G01 X50.4931 Y34.0409 
G01 X50.4618 Y34.0097 
G01 X50.4450 Y33.9689 
G01 X50.4450 Y33.9247 
G01 X50.4618 Y33.8839 
G01 X50.4931 Y33.8527 
G01 X50.6682 Y33.6775 
G01 X50.6995 Y33.6463 
G01 X50.7403 Y33.6294 
G01 X51.5510 Y33.6294 
G01 X51.5918 Y33.6463 
G01 X51.6231 Y33.6775 
G01 X51.6400 Y33.7183 
G01 X51.6400 Y33.7625 
G01 X51.6231 Y33.8033 
G01 X51.5918 Y33.8345 
G01 X51.3854 Y34.0409 
G00 Z2.5400 
G00 X39.4407 Y32.6646 
G01 Z-0.1000 F254.00 
G01 X35.4893 Y32.6646 F300.00 
G01 X35.3587 Y32.7187 
G01 X34.9246 Y33.1528 
G01 X34.9140 Y33.1634 
G01 X34.8290 Y33.2484 
G01 X34.2721 Y33.8053 
G01 X34.2342 Y33.8432 
G01 X34.2153 Y33.8621 
G01 X34.1457 Y33.9023 
G01 X34.0682 Y33.9231 
G01 X33.9878 Y33.9231 
G01 X33.9103 Y33.9023 
G01 X33.8407 Y33.8621 
G01 X33.8168 Y33.8382 
G01 X33.8119 Y33.8382 
G01 X33.7711 Y33.8213 
G01 X33.7399 Y33.7901 
G01 X33.7230 Y33.7493 
G01 X33.7230 Y33.7450 
G01 X33.6362 Y33.7450 
G01 X33.6279 Y33.7649 
G01 X33.5710 Y33.8501 
G01 X33.5710 Y34.0111 
G01 X33.5411 Y34.0410 
G01 X33.3553 Y34.0410 
G01 X33.3450 Y34.0479 
G01 X33.2201 Y34.0996 
G01 X33.0876 Y34.1260 
G01 X32.9524 Y34.1260 
G01 X32.8199 Y34.0996 
G01 X32.6950 Y34.0479 
G01 X32.6847 Y34.0410 
G01 X32.4989 Y34.0410 
G01 X32.4690 Y34.0111 
G01 X32.4690 Y33.8501 
G01 X32.4121 Y33.7649 
G01 X32.4038 Y33.7450 
G01 X32.3170 Y33.7450 
G01 X32.3170 Y34.0167 
G01 X32.3308 Y34.0684 
G01 X32.3386 Y34.0818 
G01 X32.3571 Y34.1139 
G01 X32.3624 Y34.1192 
G01 X32.4166 Y34.1737 
G01 X32.4509 Y34.2325 
G01 X32.4576 Y34.2441 
G01 X32.4651 Y34.2718 
G01 X32.4784 Y34.3217 
G01 X32.4784 Y34.4020 
G01 X32.4635 Y34.4576 
G01 X32.4576 Y34.4796 
G01 X32.4186 Y34.5472 
G01 X32.4186 Y35.7320 
G01 X32.4489 Y35.7623 
G01 X32.4914 Y35.8342 
G01 X32.5032 Y35.8783 
G01 X32.5122 Y35.9118 
G01 X32.5122 Y36.4782 
G01 X32.5036 Y36.5103 
G01 X32.4914 Y36.5558 
G01 X32.4513 Y36.6253 
G01 X32.4186 Y36.6580 
G01 X32.4186 Y37.8420 
G01 X32.4325 Y37.8559 
G01 X32.4879 Y37.9113 
G01 X32.5295 Y37.9823 
G01 X32.5445 Y38.0382 
G01 X32.5503 Y38.0598 
G01 X32.5503 Y38.1401 
G01 X32.5295 Y38.2177 
G01 X32.4893 Y38.2873 
G01 X32.4334 Y38.3432 
G01 X32.3674 Y38.4092 
G01 X32.3577 Y38.4261 
G01 X32.3009 Y38.4829 
G01 X32.2313 Y38.5230 
G01 X32.1538 Y38.5438 
G01 X31.7281 Y38.5438 
G01 X31.6505 Y38.5230 
G01 X31.5810 Y38.4829 
G01 X31.5242 Y38.4261 
G01 X30.9471 Y37.8490 
G01 X30.9070 Y37.7795 
G01 X30.8862 Y37.7019 
G01 X30.8862 Y37.3718 
G01 X30.9070 Y37.2942 
G01 X30.9471 Y37.2247 
G01 X30.9966 Y37.1752 
G01 X31.0894 Y36.9512 
G01 X31.0894 Y35.8102 
G01 X31.1102 Y35.7326 
G01 X31.1503 Y35.6631 
G01 X31.1814 Y35.6320 
G01 X31.1814 Y34.7480 
G01 X31.1220 Y34.6886 
G01 X30.9426 Y34.6886 
G01 X30.9226 Y34.6912 
G01 X30.9026 Y34.6886 
G01 X30.8825 Y34.6886 
G01 X30.8630 Y34.6834 
G01 X30.8430 Y34.6807 
G01 X30.8244 Y34.6730 
G01 X30.8049 Y34.6678 
G01 X30.7874 Y34.6577 
G01 X30.6177 Y34.5874 
G01 X30.5982 Y34.5822 
G01 X30.5808 Y34.5721 
G01 X30.5621 Y34.5644 
G01 X30.5461 Y34.5521 
G01 X30.5287 Y34.5421 
G01 X30.5144 Y34.5278 
G01 X30.4984 Y34.5155 
G01 X30.4861 Y34.4995 
G01 X30.4800 Y34.4934 
G01 X30.4738 Y34.4995 
G01 X30.4616 Y34.5155 
G01 X30.4456 Y34.5278 
G01 X30.4313 Y34.5421 
G01 X30.4139 Y34.5521 
G01 X30.3979 Y34.5644 
G01 X30.3792 Y34.5721 
G01 X30.3618 Y34.5822 
G01 X30.3423 Y34.5874 
G01 X30.1726 Y34.6577 
G01 X30.1551 Y34.6678 
G01 X30.1356 Y34.6730 
G01 X30.1170 Y34.6807 
G01 X30.0970 Y34.6834 
G01 X30.0775 Y34.6886 
G01 X30.0574 Y34.6886 
G01 X30.0374 Y34.6912 
G01 X30.0174 Y34.6886 
G01 X29.8380 Y34.6886 
G01 X29.7786 Y34.7480 
G01 X29.7786 Y35.6320 
G01 X29.8097 Y35.6631 
G01 X29.8498 Y35.7326 
G01 X29.8706 Y35.8102 
G01 X29.8706 Y36.9512 
G01 X29.9634 Y37.1752 
G01 X30.0129 Y37.2247 
G01 X30.0530 Y37.2942 
G01 X30.0738 Y37.3718 
G01 X30.0738 Y37.6730 
G01 X30.0764 Y37.6930 
G01 X30.0738 Y37.7130 
G01 X30.0738 Y37.7332 
G01 X30.0686 Y37.7527 
G01 X30.0659 Y37.7727 
G01 X30.0582 Y37.7913 
G01 X30.0530 Y37.8108 
G01 X30.0429 Y37.8282 
G01 X29.9722 Y37.9990 
G01 X29.9722 Y38.2010 
G01 X30.0495 Y38.3876 
G01 X30.8629 Y39.2010 
G01 X30.9030 Y39.2705 
G01 X30.9238 Y39.3481 
G01 X30.9238 Y40.0436 
G01 X30.9030 Y40.1211 
G01 X30.8629 Y40.1907 
G01 X30.8573 Y40.1962 
G01 X30.5510 Y40.5025 
G01 X30.5388 Y40.5185 
G01 X30.5228 Y40.5308 
G01 X30.5085 Y40.5450 
G01 X30.4911 Y40.5551 
G01 X30.4751 Y40.5674 
G01 X30.4564 Y40.5751 
G01 X30.4390 Y40.5852 
G01 X30.4195 Y40.5904 
G01 X30.4009 Y40.5981 
G01 X30.3809 Y40.6007 
G01 X30.3614 Y40.6060 
G01 X30.3412 Y40.6060 
G01 X30.3212 Y40.6086 
G01 X30.3013 Y40.6060 
G01 X30.2811 Y40.6060 
G01 X30.2616 Y40.6007 
G01 X30.2416 Y40.5981 
G01 X30.2230 Y40.5904 
G01 X30.2035 Y40.5852 
G01 X30.1861 Y40.5751 
G01 X30.1674 Y40.5674 
G01 X30.1514 Y40.5551 
G01 X30.1340 Y40.5450 
G01 X30.1197 Y40.5308 
G01 X30.1037 Y40.5185 
G01 X30.0914 Y40.5025 
G01 X30.0772 Y40.4882 
G01 X30.0671 Y40.4708 
G01 X30.0548 Y40.4548 
G01 X30.0471 Y40.4362 
G01 X30.0370 Y40.4187 
G01 X30.0318 Y40.3992 
G01 X29.9318 Y40.1577 
G01 X29.6923 Y39.9182 
G01 X29.3794 Y39.7886 
G01 X29.0406 Y39.7886 
G01 X28.7277 Y39.9182 
G01 X28.4882 Y40.1577 
G01 X28.3586 Y40.4706 
G01 X28.3586 Y40.8094 
G01 X28.4882 Y41.1223 
G01 X28.7238 Y41.3579 
G01 X28.7278 Y41.3590 
G01 X28.7453 Y41.3691 
G01 X28.7639 Y41.3768 
G01 X28.7799 Y41.3890 
G01 X28.7974 Y41.3991 
G01 X28.8116 Y41.4134 
G01 X28.8276 Y41.4256 
G01 X28.8399 Y41.4416 
G01 X28.8541 Y41.4559 
G01 X28.8642 Y41.4734 
G01 X28.8765 Y41.4894 
G01 X28.8842 Y41.5080 
G01 X28.8943 Y41.5255 
G01 X28.8995 Y41.5449 
G01 X28.9072 Y41.5635 
G01 X28.9099 Y41.5835 
G01 X28.9151 Y41.6030 
G01 X28.9151 Y41.6232 
G01 X28.9177 Y41.6432 
G01 X28.9151 Y41.6632 
G01 X28.9151 Y41.6833 
G01 X28.9099 Y41.7028 
G01 X28.9072 Y41.7228 
G01 X28.8995 Y41.7414 
G01 X28.8943 Y41.7609 
G01 X28.8842 Y41.7784 
G01 X28.8765 Y41.7970 
G01 X28.8642 Y41.8130 
G01 X28.8541 Y41.8305 
G01 X28.8399 Y41.8447 
G01 X28.8276 Y41.8607 
G01 X28.8116 Y41.8730 
G01 X28.7086 Y41.9760 
G01 X28.7086 Y42.8600 
G01 X28.8413 Y42.9927 
G01 X28.8815 Y43.0623 
G01 X28.9023 Y43.1398 
G01 X28.9023 Y43.2202 
G01 X28.8969 Y43.2401 
G01 X28.8815 Y43.2977 
G01 X28.8413 Y43.3673 
G01 X28.7845 Y43.4241 
G01 X28.7086 Y43.5000 
G01 X28.7086 Y43.8298 
G01 X28.6878 Y43.9073 
G01 X28.6477 Y43.9769 
G01 X28.5909 Y44.0337 
G01 X28.5213 Y44.0738 
G01 X28.4438 Y44.0946 
G01 X27.6048 Y44.0946 
G01 X27.5273 Y44.0738 
G01 X27.4577 Y44.0337 
G01 X27.4009 Y43.9769 
G01 X27.1523 Y43.7282 
G01 X26.8394 Y43.5986 
G01 X26.5006 Y43.5986 
G01 X26.1877 Y43.7282 
G01 X25.9482 Y43.9677 
G01 X25.8186 Y44.2806 
G01 X25.8186 Y44.6193 
G01 X25.9482 Y44.9323 
G01 X26.1877 Y45.1718 
G01 X26.5006 Y45.3014 
G01 X26.8393 Y45.3014 
G01 X27.1523 Y45.1718 
G01 X27.3655 Y44.9585 
G01 X27.4577 Y44.8663 
G01 X27.5273 Y44.8262 
G01 X27.6048 Y44.8054 
G01 X28.5390 Y44.8054 
G01 X28.6165 Y44.8262 
G01 X28.6861 Y44.8663 
G01 X28.7429 Y44.9231 
G01 X28.7830 Y44.9927 
G01 X28.8038 Y45.0702 
G01 X28.8038 Y45.6046 
G01 X28.7952 Y45.6367 
G01 X28.7830 Y45.6822 
G01 X28.7429 Y45.7517 
G01 X28.7240 Y45.7706 
G01 X28.7152 Y45.7920 
G01 X28.7086 Y45.8078 
G01 X28.7086 Y46.6482 
G01 X28.7195 Y46.6744 
G01 X28.7211 Y46.6825 
G01 X28.7451 Y46.7065 
G01 X28.7768 Y46.7382 
G01 X28.7838 Y46.7503 
G01 X28.8170 Y46.8078 
G01 X28.8335 Y46.8696 
G01 X28.8377 Y46.8853 
G01 X28.8377 Y46.9250 
G01 X28.8377 Y46.9656 
G01 X28.8280 Y47.0021 
G01 X28.8170 Y47.0432 
G01 X28.8038 Y47.0660 
G01 X29.6162 Y47.0660 
G01 X29.6030 Y47.0432 
G01 X29.5924 Y47.0035 
G01 X29.5823 Y46.9657 
G01 X29.5822 Y46.9259 
G01 X29.5822 Y46.8853 
G01 X29.5862 Y46.8706 
G01 X29.6030 Y46.8078 
G01 X29.6344 Y46.7534 
G01 X29.6432 Y46.7382 
G01 X29.6744 Y46.7070 
G01 X29.6989 Y46.6825 
G01 X29.7005 Y46.6744 
G01 X29.7114 Y46.6482 
G01 X29.7114 Y45.8078 
G01 X29.6960 Y45.7706 
G01 X29.6795 Y45.7541 
G01 X29.6370 Y45.6822 
G01 X29.6252 Y45.6381 
G01 X29.6162 Y45.6046 
G01 X29.6162 Y45.1210 
G01 X29.6370 Y45.0435 
G01 X29.6771 Y44.9739 
G01 X29.7339 Y44.9171 
G01 X29.8035 Y44.8770 
G01 X29.8810 Y44.8562 
G01 X32.4416 Y44.8562 
G01 X32.4615 Y44.8615 
G01 X32.5192 Y44.8770 
G01 X32.5887 Y44.9171 
G01 X32.6455 Y44.9739 
G01 X32.6809 Y45.0093 
G01 X32.7076 Y45.0360 
G01 X32.7448 Y45.0514 
G01 X34.0757 Y45.0514 
G01 X34.1004 Y45.0374 
G01 X34.1565 Y45.0223 
G01 X34.1780 Y45.0166 
G01 X34.2177 Y45.0166 
G01 X34.2583 Y45.0166 
G01 X34.3359 Y45.0374 
G01 X34.3930 Y45.0704 
G01 X34.4054 Y45.0775 
G01 X34.4334 Y45.1055 
G01 X34.4404 Y45.1124 
G01 X34.4538 Y45.1202 
G01 X34.4675 Y45.1259 
G01 X34.4728 Y45.1312 
G01 X34.4901 Y45.1387 
G01 X34.4996 Y45.1426 
G01 X34.5040 Y45.1438 
G01 X34.5040 Y43.7562 
G01 X34.4996 Y43.7574 
G01 X34.4901 Y43.7613 
G01 X34.4750 Y43.7675 
G01 X34.4675 Y43.7741 
G01 X34.4538 Y43.7798 
G01 X34.4410 Y43.7872 
G01 X34.4342 Y43.7937 
G01 X34.4054 Y43.8225 
G01 X34.3942 Y43.8290 
G01 X34.3359 Y43.8626 
G01 X34.2583 Y43.8834 
G01 X34.2186 Y43.8834 
G01 X34.1780 Y43.8834 
G01 X34.1579 Y43.8780 
G01 X34.1004 Y43.8626 
G01 X34.0798 Y43.8507 
G01 X34.0761 Y43.8486 
G01 X32.7448 Y43.8486 
G01 X32.7076 Y43.8640 
G01 X32.6810 Y43.8906 
G01 X32.6455 Y43.9261 
G01 X32.5927 Y43.9789 
G01 X32.5887 Y43.9829 
G01 X32.5192 Y44.0230 
G01 X32.4633 Y44.0380 
G01 X32.4416 Y44.0438 
G01 X29.9762 Y44.0438 
G01 X29.8987 Y44.0230 
G01 X29.8291 Y43.9829 
G01 X29.7723 Y43.9261 
G01 X29.7322 Y43.8565 
G01 X29.7114 Y43.7790 
G01 X29.7114 Y43.5218 
G01 X29.7044 Y43.5049 
G01 X29.6960 Y43.4846 
G01 X29.6355 Y43.4241 
G01 X29.5826 Y43.3712 
G01 X29.5787 Y43.3673 
G01 X29.5385 Y43.2977 
G01 X29.5235 Y43.2418 
G01 X29.5177 Y43.2202 
G01 X29.5177 Y43.1398 
G01 X29.5385 Y43.0623 
G01 X29.5778 Y42.9943 
G01 X29.6355 Y42.9359 
G01 X29.6960 Y42.8754 
G01 X29.7044 Y42.8551 
G01 X29.7114 Y42.8382 
G01 X29.7114 Y42.5772 
G01 X29.7322 Y42.4997 
G01 X29.7723 Y42.4301 
G01 X29.8291 Y42.3733 
G01 X30.3146 Y41.8879 
G01 X31.5456 Y40.6569 
G01 X31.6744 Y40.5281 
G01 X31.7362 Y40.3788 
G01 X31.7362 Y39.6210 
G01 X31.7570 Y39.5435 
G01 X31.7971 Y39.4739 
G01 X31.8539 Y39.4171 
G01 X31.9235 Y39.3770 
G01 X32.0010 Y39.3562 
G01 X32.1538 Y39.3562 
G01 X32.2313 Y39.3770 
G01 X32.3009 Y39.4171 
G01 X32.3577 Y39.4739 
G01 X32.3674 Y39.4908 
G01 X32.4780 Y39.6014 
G01 X33.5402 Y39.6014 
G01 X33.5774 Y39.5860 
G01 X33.5879 Y39.5755 
G01 X33.6431 Y39.5203 
G01 X33.7142 Y39.4786 
G01 X33.7701 Y39.4636 
G01 X33.7918 Y39.4578 
G01 X33.9890 Y39.4578 
G01 X34.0573 Y39.4578 
G01 X36.0810 Y39.4578 
G01 X36.2676 Y39.3805 
G01 X36.5548 Y39.0934 
G01 X37.2605 Y38.3876 
G01 X37.3227 Y38.2375 
G01 X37.3348 Y38.2082 
G01 X37.3378 Y38.2010 
G01 X37.3378 Y38.1810 
G01 X37.3586 Y38.1034 
G01 X37.3987 Y38.0339 
G01 X37.4555 Y37.9771 
G01 X37.4616 Y37.9710 
G01 X37.5325 Y37.9001 
G01 X37.5572 Y37.8755 
G01 X37.6103 Y37.8223 
G01 X37.6142 Y37.8128 
G01 X37.6182 Y37.8033 
G01 X37.6199 Y37.7992 
G01 X37.6644 Y37.6917 
G01 X37.6644 Y36.5844 
G01 X37.6852 Y36.5068 
G01 X37.7253 Y36.4373 
G01 X37.7300 Y36.4326 
G01 X37.9695 Y36.1931 
G01 X38.0216 Y36.1410 
G01 X38.0263 Y36.1363 
G01 X38.0938 Y36.0973 
G01 X38.1734 Y36.0753 
G01 X38.2538 Y36.0753 
G01 X38.2571 Y36.0762 
G01 X38.3313 Y36.0961 
G01 X38.3993 Y36.1354 
G01 X38.4577 Y36.1931 
G01 X38.4966 Y36.2605 
G01 X38.5186 Y36.3402 
G01 X38.5186 Y37.1827 
G01 X38.9029 Y37.5669 
G01 X38.9430 Y37.6365 
G01 X38.9638 Y37.7140 
G01 X38.9638 Y38.9738 
G01 X38.9430 Y39.0513 
G01 X38.9029 Y39.1209 
G01 X38.8461 Y39.1777 
G01 X38.7765 Y39.2178 
G01 X38.7386 Y39.2280 
G01 X38.6840 Y39.2826 
G01 X38.6686 Y39.3198 
G01 X38.6686 Y39.4284 
G01 X38.6712 Y39.4484 
G01 X38.6686 Y39.4683 
G01 X38.6686 Y39.4885 
G01 X38.6634 Y39.5080 
G01 X38.6607 Y39.5280 
G01 X38.6530 Y39.5466 
G01 X38.6478 Y39.5661 
G01 X38.6377 Y39.5835 
G01 X38.6336 Y39.5935 
G01 X38.6336 Y39.8865 
G01 X38.6377 Y39.8965 
G01 X38.6478 Y39.9139 
G01 X38.6530 Y39.9334 
G01 X38.6607 Y39.9520 
G01 X38.6634 Y39.9720 
G01 X38.6686 Y39.9915 
G01 X38.6686 Y40.0117 
G01 X38.6712 Y40.0316 
G01 X38.6686 Y40.0516 
G01 X38.6686 Y40.1602 
G01 X38.6840 Y40.1974 
G01 X38.7280 Y40.2414 
G01 X38.7438 Y40.2414 
G01 X38.8214 Y40.2622 
G01 X38.8909 Y40.3023 
G01 X38.9477 Y40.3591 
G01 X38.9529 Y40.3643 
G01 X38.9560 Y40.3656 
G01 X38.9720 Y40.3778 
G01 X38.9895 Y40.3879 
G01 X39.0037 Y40.4022 
G01 X39.0197 Y40.4145 
G01 X39.0320 Y40.4305 
G01 X39.0462 Y40.4447 
G01 X39.0563 Y40.4622 
G01 X39.0686 Y40.4782 
G01 X39.0763 Y40.4968 
G01 X39.0864 Y40.5143 
G01 X39.0916 Y40.5337 
G01 X39.0993 Y40.5524 
G01 X39.1020 Y40.5724 
G01 X39.1072 Y40.5918 
G01 X39.1072 Y40.6120 
G01 X39.1098 Y40.6320 
G01 X39.1072 Y40.6520 
G01 X39.1072 Y40.6722 
G01 X39.1020 Y40.6916 
G01 X39.1008 Y40.7005 
G01 X39.1766 Y40.7319 
G01 X39.2078 Y40.7631 
G01 X39.2247 Y40.8039 
G01 X39.2247 Y40.8481 
G01 X39.2223 Y40.8540 
G01 X39.9578 Y40.8540 
G01 X39.9578 Y40.8487 
G01 X39.9559 Y40.8340 
G01 X39.9578 Y40.8268 
G01 X39.9578 Y40.8193 
G01 X39.9635 Y40.8056 
G01 X39.9673 Y40.7913 
G01 X39.9718 Y40.7854 
G01 X39.9747 Y40.7785 
G01 X39.9852 Y40.7680 
G01 X39.9942 Y40.7563 
G01 X40.0006 Y40.7526 
G01 X40.0059 Y40.7473 
G01 X40.0196 Y40.7416 
G01 X40.0256 Y40.7381 
G01 X40.0413 Y40.6798 
G01 X40.0456 Y40.6637 
G01 X40.0639 Y40.6320 
G01 X40.0857 Y40.5941 
G01 X40.1425 Y40.5373 
G01 X40.1603 Y40.5271 
G01 X40.2121 Y40.4972 
G01 X40.2264 Y40.4933 
G01 X40.2897 Y40.4764 
G01 X41.8888 Y40.4764 
G01 X41.9664 Y40.4972 
G01 X42.0359 Y40.5373 
G01 X42.0927 Y40.5941 
G01 X42.1281 Y40.6295 
G01 X42.2237 Y40.7251 
G01 X50.3263 Y48.8277 
G01 X50.3602 Y48.8575 
G01 X50.3740 Y48.8754 
G01 X50.3900 Y48.8914 
G01 X51.2727 Y49.7741 
G01 X51.3128 Y49.8436 
G01 X51.3336 Y49.9212 
G01 X51.3336 Y50.3079 
G01 X51.3250 Y50.3400 
G01 X51.3128 Y50.3855 
G01 X51.2727 Y50.4551 
G01 X51.2159 Y50.5118 
G01 X51.1873 Y50.5404 
G01 X51.1423 Y50.6491 
G01 X51.1336 Y50.6759 
G01 X51.1270 Y50.6860 
G01 X51.1223 Y50.6973 
G01 X51.1052 Y50.7196 
G01 X51.0898 Y50.7432 
G01 X51.0808 Y50.7513 
G01 X51.0735 Y50.7610 
G01 X51.0511 Y50.7781 
G01 X51.0302 Y50.7970 
G01 X51.0194 Y50.8025 
G01 X51.0097 Y50.8099 
G01 X50.9837 Y50.8206 
G01 X50.9586 Y50.8334 
G01 X50.9468 Y50.8359 
G01 X50.9355 Y50.8406 
G01 X50.9076 Y50.8443 
G01 X50.8801 Y50.8501 
G01 X50.8679 Y50.8495 
G01 X50.8559 Y50.8511 
G01 X50.8280 Y50.8474 
G01 X50.7999 Y50.8459 
G01 X50.7883 Y50.8422 
G01 X50.7763 Y50.8406 
G01 X50.7504 Y50.8298 
G01 X50.7384 Y50.8348 
G01 X50.7339 Y50.8348 
G01 X50.7296 Y50.8362 
G01 X50.7119 Y50.8348 
G01 X50.6942 Y50.8348 
G01 X50.6900 Y50.8331 
G01 X50.6855 Y50.8327 
G01 X50.6698 Y50.8247 
G01 X50.6534 Y50.8179 
G01 X50.6502 Y50.8147 
G01 X50.6462 Y50.8127 
G01 X50.6347 Y50.7992 
G01 X50.6222 Y50.7867 
G01 X50.6205 Y50.7825 
G01 X50.6175 Y50.7791 
G01 X50.6120 Y50.7622 
G01 X50.6053 Y50.7459 
G01 X50.6053 Y50.7414 
G01 X50.5920 Y50.7005 
G01 X50.5895 Y50.6973 
G01 X50.5787 Y50.6712 
G01 X50.5074 Y50.5312 
G01 X50.4017 Y50.3857 
G01 X50.2745 Y50.2585 
G01 X50.2160 Y50.2160 
G01 X50.2160 Y50.4150 
G01 X50.2996 Y50.4986 
G01 X50.4080 Y50.6609 
G01 X50.4827 Y50.8412 
G01 X50.5208 Y51.0326 
G01 X50.5208 Y53.1074 
G01 X50.4827 Y53.2988 
G01 X50.4080 Y53.4791 
G01 X50.2996 Y53.6414 
G01 X50.1616 Y53.7794 
G01 X49.9993 Y53.8878 
G01 X49.8604 Y53.9454 
G01 X49.8604 Y54.1041 
G01 X49.9687 Y54.0689 
G01 X50.1290 Y53.9872 
G01 X50.1851 Y53.9465 
G01 X50.2745 Y53.8815 
G01 X50.4017 Y53.7543 
G01 X50.4666 Y53.6649 
G01 X50.5074 Y53.6088 
G01 X50.5787 Y53.4688 
G01 X50.5895 Y53.4427 
G01 X50.5920 Y53.4395 
G01 X50.6053 Y53.3986 
G01 X50.6053 Y53.3941 
G01 X50.6120 Y53.3778 
G01 X50.6175 Y53.3609 
G01 X50.6205 Y53.3575 
G01 X50.6222 Y53.3533 
G01 X50.6347 Y53.3408 
G01 X50.6462 Y53.3273 
G01 X50.6502 Y53.3253 
G01 X50.6534 Y53.3221 
G01 X50.6698 Y53.3153 
G01 X50.6855 Y53.3073 
G01 X50.6900 Y53.3069 
G01 X50.6942 Y53.3052 
G01 X50.7119 Y53.3052 
G01 X50.7296 Y53.3038 
G01 X50.7339 Y53.3052 
G01 X50.7384 Y53.3052 
G01 X50.7504 Y53.3102 
G01 X50.7763 Y53.2994 
G01 X50.7883 Y53.2978 
G01 X50.7999 Y53.2941 
G01 X50.8280 Y53.2926 
G01 X50.8559 Y53.2889 
G01 X50.8679 Y53.2905 
G01 X50.8801 Y53.2899 
G01 X50.9076 Y53.2957 
G01 X50.9355 Y53.2994 
G01 X50.9468 Y53.3041 
G01 X50.9586 Y53.3066 
G01 X50.9837 Y53.3194 
G01 X51.0097 Y53.3301 
G01 X51.0194 Y53.3375 
G01 X51.0302 Y53.3430 
G01 X51.0511 Y53.3619 
G01 X51.0735 Y53.3790 
G01 X51.0808 Y53.3887 
G01 X51.0898 Y53.3968 
G01 X51.1052 Y53.4204 
G01 X51.1223 Y53.4427 
G01 X51.1270 Y53.4540 
G01 X51.1336 Y53.4641 
G01 X51.1423 Y53.4909 
G01 X51.1873 Y53.5996 
G01 X51.4802 Y53.8925 
G01 X51.8629 Y54.0510 
G01 X52.2771 Y54.0510 
G01 X52.6598 Y53.8925 
G01 X52.9527 Y53.5996 
G01 X53.0429 Y53.3819 
G01 X53.0513 Y53.3616 
G01 X53.0736 Y53.3077 
G01 X53.1225 Y53.2440 
G01 X53.1862 Y53.1951 
G01 X53.2288 Y53.1775 
G01 X53.2604 Y53.1644 
G01 X53.3400 Y53.1539 
G01 X53.4196 Y53.1644 
G01 X53.4495 Y53.1767 
G01 X53.4938 Y53.1951 
G01 X53.5575 Y53.2440 
G01 X53.6064 Y53.3077 
G01 X53.6238 Y53.3496 
G01 X53.6371 Y53.3819 
G01 X53.7273 Y53.5996 
G01 X54.0202 Y53.8925 
G01 X54.4029 Y54.0510 
G01 X54.8171 Y54.0510 
G01 X55.1998 Y53.8925 
G01 X55.3106 Y53.7817 
G01 X55.4061 Y53.6861 
G01 X55.4457 Y53.6466 
G01 X55.4927 Y53.5996 
G01 X55.6512 Y53.2169 
G01 X55.6512 Y50.9231 
G01 X55.4927 Y50.5404 
G01 X55.1998 Y50.2475 
G01 X54.8171 Y50.0890 
G01 X54.4029 Y50.0890 
G01 X54.0202 Y50.2475 
G01 X53.9315 Y50.3362 
G01 X53.7273 Y50.5404 
G01 X53.6371 Y50.7581 
G01 X53.6245 Y50.7886 
G01 X53.6064 Y50.8323 
G01 X53.5575 Y50.8960 
G01 X53.4938 Y50.9449 
G01 X53.4512 Y50.9625 
G01 X53.4196 Y50.9756 
G01 X53.3400 Y50.9861 
G01 X53.2604 Y50.9756 
G01 X53.2305 Y50.9633 
G01 X53.1862 Y50.9449 
G01 X53.1225 Y50.8960 
G01 X53.0736 Y50.8323 
G01 X53.0522 Y50.7806 
G01 X53.0429 Y50.7581 
G01 X52.9527 Y50.5404 
G01 X52.9241 Y50.5118 
G01 X52.8698 Y50.4575 
G01 X52.8272 Y50.3855 
G01 X52.8154 Y50.3414 
G01 X52.8064 Y50.3079 
G01 X52.8064 Y49.3835 
G01 X52.6943 Y49.1129 
G01 X42.8751 Y39.2937 
G01 X42.8349 Y39.2241 
G01 X42.8142 Y39.1466 
G01 X42.8142 Y39.0662 
G01 X42.8349 Y38.9887 
G01 X42.8751 Y38.9191 
G01 X42.9319 Y38.8623 
G01 X43.0014 Y38.8222 
G01 X43.0790 Y38.8014 
G01 X43.9702 Y38.8014 
G01 X44.0074 Y38.7860 
G01 X44.0127 Y38.7807 
G01 X44.0514 Y38.7420 
G01 X44.0514 Y38.5626 
G01 X44.0488 Y38.5426 
G01 X44.0514 Y38.5226 
G01 X44.0514 Y38.5025 
G01 X44.0566 Y38.4830 
G01 X44.0592 Y38.4630 
G01 X44.0670 Y38.4444 
G01 X44.0722 Y38.4249 
G01 X44.0823 Y38.4074 
G01 X44.1529 Y38.2370 
G01 X44.1635 Y38.2113 
G01 X44.1836 Y38.1628 
G01 X44.1956 Y38.1471 
G01 X44.2318 Y38.1000 
G01 X44.1943 Y38.0511 
G01 X44.1836 Y38.0372 
G01 X44.1643 Y37.9906 
G01 X44.1529 Y37.9630 
G01 X44.0823 Y37.7926 
G01 X44.0722 Y37.7751 
G01 X44.0670 Y37.7556 
G01 X44.0592 Y37.7370 
G01 X44.0566 Y37.7170 
G01 X44.0514 Y37.6975 
G01 X44.0514 Y37.6774 
G01 X44.0488 Y37.6574 
G01 X44.0514 Y37.6374 
G01 X44.0514 Y37.4580 
G01 X44.0074 Y37.4140 
G01 X43.9702 Y37.3986 
G01 X43.9270 Y37.3986 
G01 X43.7966 Y37.3986 
G01 X43.7190 Y37.3778 
G01 X43.6495 Y37.3377 
G01 X43.5927 Y37.2809 
G01 X43.4978 Y37.1860 
G01 X43.4541 Y37.1423 
G01 X43.4013 Y37.0895 
G01 X43.0442 Y36.7324 
G01 X42.9883 Y36.6765 
G01 X42.9710 Y36.6471 
G01 X42.9473 Y36.6061 
G01 X42.9265 Y36.5285 
G01 X42.9265 Y36.4482 
G01 X42.9318 Y36.4283 
G01 X42.9473 Y36.3706 
G01 X42.9874 Y36.3011 
G01 X43.0655 Y36.2230 
G01 X43.0655 Y36.1923 
G01 X43.0760 Y36.1531 
G01 X43.0863 Y36.1147 
G01 X43.1068 Y36.0791 
G01 X43.1264 Y36.0452 
G01 X43.1568 Y36.0149 
G01 X43.1832 Y35.9884 
G01 X43.2173 Y35.9687 
G01 X43.2528 Y35.9482 
G01 X43.2903 Y35.9382 
G01 X43.3303 Y35.9275 
G01 X43.3705 Y35.9275 
G01 X43.4107 Y35.9275 
G01 X43.4219 Y35.9305 
G01 X43.4378 Y35.9321 
G01 X43.4526 Y35.9321 
G01 X43.4595 Y35.9350 
G01 X43.4669 Y35.9359 
G01 X43.4797 Y35.9433 
G01 X43.4934 Y35.9490 
G01 X43.4973 Y35.9529 
G01 X43.5470 Y35.9662 
G01 X43.7640 Y35.9662 
G01 X43.7640 Y35.8142 
G01 X43.5526 Y35.8142 
G01 X43.5227 Y35.7843 
G01 X43.5227 Y32.7957 
G01 X43.5526 Y32.7658 
G01 X43.7640 Y32.7658 
G01 X43.7640 Y32.6138 
G01 X43.5470 Y32.6138 
G01 X43.4973 Y32.6271 
G01 X43.4934 Y32.6310 
G01 X43.4797 Y32.6367 
G01 X43.4669 Y32.6441 
G01 X43.4595 Y32.6450 
G01 X43.4526 Y32.6479 
G01 X43.4378 Y32.6479 
G01 X43.4231 Y32.6498 
G01 X43.4108 Y32.6525 
G01 X43.3707 Y32.6525 
G01 X43.3305 Y32.6525 
G01 X43.2904 Y32.6418 
G01 X43.2529 Y32.6318 
G01 X43.2174 Y32.6114 
G01 X43.1833 Y32.5917 
G01 X43.1569 Y32.5652 
G01 X43.1265 Y32.5349 
G01 X43.1069 Y32.5010 
G01 X43.0863 Y32.4654 
G01 X43.0760 Y32.4270 
G01 X43.0655 Y32.3878 
G01 X43.0655 Y32.3570 
G01 X43.0215 Y32.3130 
G01 X42.9843 Y32.2976 
G01 X41.5968 Y32.2976 
G01 X41.5192 Y32.2768 
G01 X41.4496 Y32.2366 
G01 X41.3928 Y32.1798 
G01 X41.2087 Y31.9957 
G01 X41.1686 Y31.9262 
G01 X41.1478 Y31.8486 
G01 X41.1478 Y31.6490 
G01 X41.0705 Y31.4624 
G01 X40.5076 Y30.8995 
G01 X40.4341 Y30.8690 
G01 X40.3210 Y30.8222 
G01 X40.2914 Y30.8222 
G01 X40.2516 Y30.8222 
G01 X40.2111 Y30.8222 
G01 X40.1907 Y30.8167 
G01 X40.1335 Y30.8014 
G01 X40.0639 Y30.7613 
G01 X40.0453 Y30.7426 
G01 X40.0072 Y30.7045 
G01 X40.0046 Y30.7000 
G01 X39.9670 Y30.6349 
G01 X39.9591 Y30.6054 
G01 X39.9462 Y30.5574 
G01 X39.9462 Y30.5176 
G01 X39.9462 Y30.4770 
G01 X39.9517 Y30.4566 
G01 X39.9670 Y30.3995 
G01 X40.0072 Y30.3299 
G01 X40.0211 Y30.3160 
G01 X38.7189 Y30.3160 
G01 X38.7675 Y30.3646 
G01 X38.8076 Y30.4341 
G01 X38.8129 Y30.4537 
G01 X38.8284 Y30.5117 
G01 X38.8284 Y30.5920 
G01 X38.8154 Y30.6405 
G01 X38.8076 Y30.6696 
G01 X38.8019 Y30.6795 
G01 X38.7686 Y30.7372 
G01 X38.7686 Y31.9220 
G01 X38.8280 Y31.9814 
G01 X40.0671 Y31.9814 
G01 X40.1446 Y32.0022 
G01 X40.2142 Y32.0423 
G01 X40.2710 Y32.0991 
G01 X40.3524 Y32.1805 
G01 X40.3926 Y32.1972 
G01 X40.4121 Y32.2024 
G01 X40.4296 Y32.2125 
G01 X40.4482 Y32.2202 
G01 X40.4642 Y32.2325 
G01 X40.4816 Y32.2425 
G01 X40.4959 Y32.2568 
G01 X40.5119 Y32.2691 
G01 X40.5242 Y32.2851 
G01 X40.5384 Y32.2993 
G01 X40.5485 Y32.3168 
G01 X40.5608 Y32.3328 
G01 X40.5685 Y32.3514 
G01 X40.5786 Y32.3689 
G01 X40.5838 Y32.3883 
G01 X40.5915 Y32.4070 
G01 X40.5941 Y32.4270 
G01 X40.5994 Y32.4464 
G01 X40.5994 Y32.4666 
G01 X40.6020 Y32.4866 
G01 X40.5994 Y32.5066 
G01 X40.5994 Y32.5268 
G01 X40.5941 Y32.5462 
G01 X40.5915 Y32.5662 
G01 X40.5838 Y32.5848 
G01 X40.5786 Y32.6043 
G01 X40.5685 Y32.6218 
G01 X40.5608 Y32.6404 
G01 X40.5485 Y32.6564 
G01 X40.5384 Y32.6739 
G01 X40.5242 Y32.6881 
G01 X40.5119 Y32.7041 
G01 X40.4959 Y32.7164 
G01 X40.4816 Y32.7307 
G01 X40.4642 Y32.7407 
G01 X40.4482 Y32.7530 
G01 X40.4296 Y32.7607 
G01 X40.4121 Y32.7708 
G01 X40.3926 Y32.7760 
G01 X40.3740 Y32.7837 
G01 X40.3540 Y32.7864 
G01 X40.3345 Y32.7916 
G01 X40.3144 Y32.7916 
G01 X40.2944 Y32.7942 
G01 X40.2744 Y32.7916 
G01 X39.7304 Y32.7916 
G01 X39.6528 Y32.7708 
G01 X39.5833 Y32.7307 
G01 X39.5713 Y32.7187 
G01 X39.4407 Y32.6646 
G00 Z2.5400 
G00 X36.4945 Y36.1888 
G01 Z-0.1000 F254.00 
G01 X36.5257 Y36.1575 F300.00 
G01 X36.5660 Y36.1408 
G01 X36.6107 Y36.1406 
G01 X36.6515 Y36.1575 
G01 X36.6827 Y36.1888 
G01 X36.6994 Y36.2291 
G01 X36.6996 Y37.2774 
G01 X36.6827 Y37.3182 
G01 X36.6515 Y37.3494 
G01 X36.3985 Y37.4542 
G01 X35.6813 Y38.1713 
G01 X35.6406 Y38.1882 
G01 X33.8803 Y38.1882 
G01 X33.8687 Y38.1834 
G01 X33.8395 Y38.1713 
G01 X33.8083 Y38.1401 
G01 X33.7914 Y38.0993 
G01 X33.7914 Y38.0551 
G01 X33.7962 Y38.0435 
G01 X33.8083 Y38.0143 
G01 X33.8395 Y37.9831 
G01 X33.8754 Y37.9472 
G01 X33.8754 Y36.5528 
G01 X33.8299 Y36.5073 
G01 X33.7987 Y36.4761 
G01 X33.7869 Y36.4476 
G01 X33.7818 Y36.4353 
G01 X33.7818 Y35.9547 
G01 X33.7866 Y35.9431 
G01 X33.7987 Y35.9139 
G01 X33.8299 Y35.8827 
G01 X33.8754 Y35.8372 
G01 X33.8754 Y35.5903 
G01 X33.8923 Y35.5495 
G01 X33.9235 Y35.5183 
G01 X34.2495 Y35.1923 
G01 X34.2807 Y35.1611 
G01 X34.3210 Y35.1444 
G01 X34.3657 Y35.1442 
G01 X34.4065 Y35.1611 
G01 X34.4377 Y35.1923 
G01 X34.4544 Y35.2326 
G01 X34.4546 Y36.0179 
G01 X35.1021 Y36.6654 
G01 X36.0179 Y36.6654 
G01 X36.4945 Y36.1888 
G00 Z2.5400 
G00 X55.6008 Y51.0326 
G01 Z-0.1000 F254.00 
G01 X55.6008 Y53.1074 F300.00 
G01 X55.5627 Y53.2988 
G01 X55.4880 Y53.4791 
G01 X55.3796 Y53.6414 
G01 X55.2416 Y53.7794 
G01 X55.0793 Y53.8878 
G01 X54.8990 Y53.9625 
G01 X54.7076 Y54.0006 
G01 X54.5124 Y54.0006 
G01 X54.3210 Y53.9625 
G01 X54.1407 Y53.8878 
G01 X53.9784 Y53.7794 
G01 X53.8404 Y53.6414 
G01 X53.7320 Y53.4791 
G01 X53.6573 Y53.2988 
G01 X53.6192 Y53.1074 
G01 X53.6192 Y51.0326 
G01 X53.6573 Y50.8412 
G01 X53.7320 Y50.6609 
G01 X53.8404 Y50.4986 
G01 X53.9784 Y50.3606 
G01 X54.1407 Y50.2522 
G01 X54.3210 Y50.1775 
G01 X54.5124 Y50.1394 
G01 X54.7076 Y50.1394 
G01 X54.8990 Y50.1775 
G01 X55.0793 Y50.2522 
G01 X55.2416 Y50.3606 
G01 X55.3796 Y50.4986 
G01 X55.4880 Y50.6609 
G01 X55.5627 Y50.8412 
G01 X55.6008 Y51.0326 
G00 Z2.5400 
G00 X41.5161 Y35.3801 
G01 Z-0.1000 F254.00 
G01 X41.5460 Y35.3503 F300.00 
G01 X41.6414 Y35.3503 
G01 X41.6942 Y35.3198 
G01 X41.8364 Y35.2817 
G01 X41.9836 Y35.2817 
G01 X42.1258 Y35.3198 
G01 X42.1786 Y35.3503 
G01 X42.9852 Y35.3503 
G01 X43.0151 Y35.3801 
G01 X43.0151 Y35.7018 
G01 X42.9852 Y35.7316 
G01 X42.4595 Y35.7316 
G01 X42.4690 Y35.7671 
G01 X42.4690 Y35.8506 
G01 X42.9852 Y35.8506 
G01 X43.0151 Y35.8805 
G01 X43.0151 Y36.2022 
G01 X42.9852 Y36.2320 
G01 X42.4726 Y36.2320 
G01 X43.6895 Y37.4490 
G01 X43.9711 Y37.4490 
G01 X44.0010 Y37.4789 
G01 X44.0010 Y37.7632 
G01 X44.0709 Y37.8842 
G01 X44.1090 Y38.0264 
G01 X44.1090 Y38.1736 
G01 X44.0709 Y38.3158 
G01 X44.0010 Y38.4368 
G01 X44.0010 Y38.7211 
G01 X43.9711 Y38.7510 
G01 X43.1289 Y38.7510 
G01 X43.0990 Y38.7211 
G01 X43.0990 Y38.4395 
G01 X41.5668 Y36.9073 
G01 X41.4627 Y36.8032 
G01 X41.3891 Y36.6758 
G01 X41.3510 Y36.5336 
G01 X41.3510 Y35.7671 
G01 X41.3891 Y35.6249 
G01 X41.4627 Y35.4974 
G01 X41.5161 Y35.4440 
G01 X41.5161 Y35.3801 
G00 Z2.5400 
G00 X41.5460 Y34.3495 
G01 Z-0.1000 F254.00 
G01 X42.9852 Y34.3495 F300.00 
G01 X43.0151 Y34.3794 
G01 X43.0151 Y34.7010 
G01 X42.9852 Y34.7309 
G01 X41.5460 Y34.7309 
G01 X41.5333 Y34.7182 
G01 X39.1935 Y34.7182 
G01 X38.4022 Y35.5095 
G01 X38.4050 Y35.5198 
G01 X38.4050 Y35.6002 
G01 X38.3842 Y35.6777 
G01 X38.3441 Y35.7473 
G01 X38.1737 Y35.9177 
G01 X37.6140 Y36.4773 
G01 X37.6140 Y37.6612 
G01 X37.5932 Y37.7387 
G01 X37.5531 Y37.8083 
G01 X37.4963 Y37.8651 
G01 X37.2874 Y38.0739 
G01 X37.2874 Y38.1602 
G01 X37.2562 Y38.2766 
G01 X37.1960 Y38.3808 
G01 X36.3460 Y39.2308 
G01 X36.2608 Y39.3160 
G01 X36.1566 Y39.3762 
G01 X36.0402 Y39.4074 
G01 X33.5710 Y39.4074 
G01 X33.5710 Y39.5211 
G01 X33.5411 Y39.5510 
G01 X32.4989 Y39.5510 
G01 X32.4690 Y39.5211 
G01 X32.4690 Y39.3058 
G01 X31.6858 Y39.3058 
G01 X31.6858 Y40.3448 
G01 X31.6616 Y40.4353 
G01 X31.6147 Y40.5165 
G01 X31.5485 Y40.5827 
G01 X30.3175 Y41.8137 
G01 X29.6610 Y42.4702 
G01 X29.6610 Y42.8391 
G01 X29.6311 Y42.8690 
G01 X28.7889 Y42.8690 
G01 X28.7590 Y42.8391 
G01 X28.7590 Y41.9969 
G01 X28.7889 Y41.9670 
G01 X29.1578 Y41.9670 
G01 X29.6317 Y41.4931 
G01 X29.5181 Y41.3794 
G01 X29.4436 Y41.4102 
G01 X29.2889 Y41.4410 
G01 X29.1311 Y41.4410 
G01 X28.9764 Y41.4102 
G01 X28.8306 Y41.3498 
G01 X28.6994 Y41.2622 
G01 X28.5878 Y41.1506 
G01 X28.5002 Y41.0194 
G01 X28.4398 Y40.8736 
G01 X28.4090 Y40.7189 
G01 X28.4090 Y40.5611 
G01 X28.4398 Y40.4064 
G01 X28.5002 Y40.2606 
G01 X28.5878 Y40.1294 
G01 X28.6994 Y40.0178 
G01 X28.8306 Y39.9302 
G01 X28.9764 Y39.8698 
G01 X29.1311 Y39.8390 
G01 X29.2889 Y39.8390 
G01 X29.4436 Y39.8698 
G01 X29.5894 Y39.9302 
G01 X29.7206 Y40.0178 
G01 X29.8322 Y40.1294 
G01 X29.9198 Y40.2606 
G01 X29.9802 Y40.4064 
G01 X30.0110 Y40.5611 
G01 X30.0110 Y40.7189 
G01 X29.9802 Y40.8736 
G01 X29.9494 Y40.9481 
G01 X30.0631 Y41.0617 
G01 X30.9742 Y40.1506 
G01 X30.9742 Y39.2411 
G01 X30.1140 Y38.3808 
G01 X30.0538 Y38.2766 
G01 X30.0226 Y38.1602 
G01 X30.0226 Y38.0398 
G01 X30.0538 Y37.9234 
G01 X30.1140 Y37.8192 
G01 X30.1242 Y37.8089 
G01 X30.1242 Y37.2647 
G01 X30.0327 Y37.1732 
G01 X29.9591 Y37.0458 
G01 X29.9210 Y36.9036 
G01 X29.9210 Y35.6410 
G01 X29.8589 Y35.6410 
G01 X29.8290 Y35.6111 
G01 X29.8290 Y34.7689 
G01 X29.8589 Y34.7390 
G01 X30.1432 Y34.7390 
G01 X30.2642 Y34.6691 
G01 X30.4064 Y34.6310 
G01 X30.5536 Y34.6310 
G01 X30.6958 Y34.6691 
G01 X30.8168 Y34.7390 
G01 X31.1011 Y34.7390 
G01 X31.1310 Y34.7689 
G01 X31.1310 Y35.6111 
G01 X31.1011 Y35.6410 
G01 X31.0390 Y35.6410 
G01 X31.0390 Y36.9036 
G01 X31.0009 Y37.0458 
G01 X30.9273 Y37.1732 
G01 X30.8358 Y37.2647 
G01 X30.8358 Y37.8089 
G01 X31.6211 Y38.5942 
G01 X32.4690 Y38.5942 
G01 X32.4690 Y38.3789 
G01 X32.4989 Y38.3490 
G01 X33.5411 Y38.3490 
G01 X33.5710 Y38.3789 
G01 X33.5710 Y38.4926 
G01 X35.7905 Y38.4926 
G01 X36.5492 Y37.7340 
G01 X36.6534 Y37.6738 
G01 X36.7698 Y37.6426 
G01 X36.8561 Y37.6426 
G01 X37.0040 Y37.4947 
G01 X37.0040 Y36.3108 
G01 X37.0248 Y36.2333 
G01 X37.0649 Y36.1637 
G01 X37.1217 Y36.1069 
G01 X37.7423 Y35.4863 
G01 X37.9127 Y35.3159 
G01 X37.9823 Y35.2758 
G01 X38.0598 Y35.2550 
G01 X38.1402 Y35.2550 
G01 X38.1505 Y35.2578 
G01 X39.0190 Y34.3893 
G01 X39.0844 Y34.3622 
G01 X41.5333 Y34.3622 
G01 X41.5460 Y34.3495 
G00 Z2.5400 
G00 X41.5460 Y33.8491 
G01 Z-0.1000 F254.00 
G01 X42.9852 Y33.8491 F300.00 
G01 X43.0151 Y33.8790 
G01 X43.0151 Y34.2006 
G01 X42.9852 Y34.2305 
G01 X41.5460 Y34.2305 
G01 X41.5333 Y34.2178 
G01 X39.5886 Y34.2178 
G01 X39.5231 Y34.1907 
G01 X39.5172 Y34.1848 
G01 X37.1869 Y34.1848 
G01 X37.0809 Y34.2909 
G01 X37.0934 Y34.3096 
G01 X37.1451 Y34.4344 
G01 X37.1715 Y34.5670 
G01 X37.1715 Y34.7021 
G01 X37.1451 Y34.8346 
G01 X37.0934 Y34.9595 
G01 X37.0183 Y35.0718 
G01 X36.3610 Y35.7292 
G01 X36.3610 Y35.8918 
G01 X35.8918 Y36.3610 
G01 X35.2282 Y36.3610 
G01 X34.7590 Y35.8918 
G01 X34.7590 Y35.2282 
G01 X35.2282 Y34.7590 
G01 X35.3908 Y34.7590 
G01 X36.0482 Y34.1017 
G01 X36.1605 Y34.0266 
G01 X36.2854 Y33.9749 
G01 X36.4179 Y33.9485 
G01 X36.5530 Y33.9485 
G01 X36.6856 Y33.9749 
G01 X36.8104 Y34.0266 
G01 X36.8291 Y34.0391 
G01 X36.9623 Y33.9060 
G01 X37.0124 Y33.8559 
G01 X37.0778 Y33.8288 
G01 X39.6264 Y33.8288 
G01 X39.6918 Y33.8559 
G01 X39.6977 Y33.8618 
G01 X41.5333 Y33.8618 
G01 X41.5460 Y33.8491 
G00 Z2.5400 
G00 X41.5161 Y33.7003 
G01 Z-0.1000 F254.00 
G01 X41.5161 Y33.3786 F300.00 
G01 X41.5460 Y33.3487 
G01 X42.9852 Y33.3487 
G01 X43.0151 Y33.3786 
G01 X43.0151 Y33.7003 
G01 X42.9852 Y33.7301 
G01 X41.5460 Y33.7301 
G01 X41.5161 Y33.7003 
G00 Z2.5400 
G00 X41.5161 Y33.1999 
G01 Z-0.1000 F254.00 
G01 X41.5161 Y33.1980 F300.00 
G01 X39.6194 Y33.1980 
G01 X39.6141 Y33.2073 
G01 X39.5573 Y33.2641 
G01 X39.4877 Y33.3042 
G01 X39.4102 Y33.3250 
G01 X35.6863 Y33.3250 
G01 X33.5710 Y35.4403 
G01 X33.5710 Y35.7111 
G01 X33.5411 Y35.7410 
G01 X33.4774 Y35.7410 
G01 X33.4774 Y36.6490 
G01 X33.5411 Y36.6490 
G01 X33.5710 Y36.6789 
G01 X33.5710 Y37.8211 
G01 X33.5411 Y37.8510 
G01 X32.4989 Y37.8510 
G01 X32.4690 Y37.8211 
G01 X32.4690 Y36.6789 
G01 X32.4989 Y36.6490 
G01 X32.5626 Y36.6490 
G01 X32.5626 Y35.7410 
G01 X32.4989 Y35.7410 
G01 X32.4690 Y35.7111 
G01 X32.4690 Y34.5689 
G01 X32.4989 Y34.5390 
G01 X33.5411 Y34.5390 
G01 X33.5710 Y34.5689 
G01 X33.5710 Y34.5777 
G01 X35.3727 Y32.7759 
G01 X35.4423 Y32.7358 
G01 X35.5198 Y32.7150 
G01 X39.4102 Y32.7150 
G01 X39.4877 Y32.7358 
G01 X39.5573 Y32.7759 
G01 X39.6141 Y32.8327 
G01 X39.6194 Y32.8420 
G01 X41.9454 Y32.8420 
G01 X41.9607 Y32.8484 
G01 X42.9852 Y32.8484 
G01 X43.0151 Y32.8782 
G01 X43.0151 Y33.1999 
G01 X42.9852 Y33.2297 
G01 X41.5460 Y33.2297 
G01 X41.5161 Y33.1999 
G00 Z2.5400 
G00 X38.7489 Y39.2890 
G01 Z-0.1000 F254.00 
G01 X38.8508 Y39.2890 F300.00 
G01 X38.9327 Y39.2071 
G01 X39.0142 Y39.1527 
G01 X39.0142 Y37.6070 
G01 X38.5690 Y37.1618 
G01 X38.5690 Y36.4982 
G01 X39.0382 Y36.0290 
G01 X39.5241 Y36.0290 
G01 X40.3591 Y35.1940 
G01 X40.4634 Y35.1338 
G01 X40.5798 Y35.1026 
G01 X40.7002 Y35.1026 
G01 X40.7866 Y35.1257 
G01 X41.0569 Y34.8554 
G01 X41.1317 Y34.8245 
G01 X42.2871 Y34.8245 
G01 X42.3485 Y34.8499 
G01 X42.9852 Y34.8499 
G01 X43.0151 Y34.8797 
G01 X43.0151 Y35.2014 
G01 X42.9852 Y35.2313 
G01 X42.3367 Y35.2313 
G01 X42.3061 Y35.2440 
G01 X42.2189 Y35.2440 
G01 X42.1883 Y35.2313 
G01 X41.2564 Y35.2313 
G01 X41.0742 Y35.4134 
G01 X41.0974 Y35.4998 
G01 X41.0974 Y35.6202 
G01 X41.0662 Y35.7366 
G01 X41.0060 Y35.8408 
G01 X40.1710 Y36.6759 
G01 X40.1710 Y37.1618 
G01 X39.7258 Y37.6070 
G01 X39.7258 Y39.0540 
G01 X42.3476 Y39.0540 
G01 X42.4801 Y39.0804 
G01 X42.6049 Y39.1321 
G01 X42.7173 Y39.2071 
G01 X52.6029 Y49.0927 
G01 X52.6779 Y49.2051 
G01 X52.7296 Y49.3299 
G01 X52.7560 Y49.4624 
G01 X52.7560 Y50.4150 
G01 X52.8396 Y50.4986 
G01 X52.9480 Y50.6609 
G01 X53.0227 Y50.8412 
G01 X53.0608 Y51.0326 
G01 X53.0608 Y53.1074 
G01 X53.0227 Y53.2988 
G01 X52.9480 Y53.4791 
G01 X52.8396 Y53.6414 
G01 X52.7016 Y53.7794 
G01 X52.5393 Y53.8878 
G01 X52.3590 Y53.9625 
G01 X52.1676 Y54.0006 
G01 X51.9724 Y54.0006 
G01 X51.7810 Y53.9625 
G01 X51.6007 Y53.8878 
G01 X51.4384 Y53.7794 
G01 X51.3004 Y53.6414 
G01 X51.1920 Y53.4791 
G01 X51.1173 Y53.2988 
G01 X51.0792 Y53.1074 
G01 X51.0792 Y51.0326 
G01 X51.1173 Y50.8412 
G01 X51.1920 Y50.6609 
G01 X51.3004 Y50.4986 
G01 X51.3840 Y50.4150 
G01 X51.3840 Y49.8142 
G01 X41.9958 Y40.4260 
G01 X39.3024 Y40.4260 
G01 X39.1699 Y40.3996 
G01 X39.0451 Y40.3479 
G01 X38.9327 Y40.2729 
G01 X38.8508 Y40.1910 
G01 X38.7489 Y40.1910 
G01 X38.7190 Y40.1611 
G01 X38.7190 Y39.9610 
G01 X38.7104 Y39.9401 
G01 X38.6840 Y39.8076 
G01 X38.6840 Y39.6724 
G01 X38.7104 Y39.5399 
G01 X38.7190 Y39.5190 
G01 X38.7190 Y39.3189 
G01 X38.7489 Y39.2890 
G00 Z2.5400 
G00 X38.8489 Y30.7290 
G01 Z-0.1000 F254.00 
G01 X39.8911 Y30.7290 F300.00 
G01 X39.9210 Y30.7589 
G01 X39.9210 Y30.8726 
G01 X40.2802 Y30.8726 
G01 X40.3966 Y30.9038 
G01 X40.5008 Y30.9640 
G01 X40.5860 Y31.0492 
G01 X41.0060 Y31.4692 
G01 X41.0662 Y31.5734 
G01 X41.0974 Y31.6898 
G01 X41.0974 Y31.8102 
G01 X41.0667 Y31.9249 
G01 X41.5024 Y32.3607 
G01 X41.5333 Y32.3607 
G01 X41.5460 Y32.3480 
G01 X42.9852 Y32.3480 
G01 X43.0151 Y32.3778 
G01 X43.0151 Y32.6995 
G01 X42.9852 Y32.7294 
G01 X41.5460 Y32.7294 
G01 X41.5333 Y32.7167 
G01 X41.3933 Y32.7167 
G01 X41.3278 Y32.6896 
G01 X40.8149 Y32.1767 
G01 X40.7002 Y32.2074 
G01 X40.5798 Y32.2074 
G01 X40.4634 Y32.1762 
G01 X40.3591 Y32.1160 
G01 X40.0305 Y31.7874 
G01 X39.9210 Y31.7874 
G01 X39.9210 Y31.9011 
G01 X39.8911 Y31.9310 
G01 X38.8489 Y31.9310 
G01 X38.8190 Y31.9011 
G01 X38.8190 Y30.7589 
G01 X38.8489 Y30.7290 
G00 Z2.5400 
G00 X38.0441 Y34.9337 
G01 Z-0.1000 F254.00 
G01 X38.0033 Y34.9506 F300.00 
G01 X37.9788 Y34.9506 
G01 X37.7548 Y35.0434 
G01 X37.5390 Y35.2591 
G01 X37.5078 Y35.2904 
G01 X37.4675 Y35.3071 
G01 X37.4228 Y35.3073 
G01 X37.3820 Y35.2904 
G01 X37.3508 Y35.2592 
G01 X37.3341 Y35.2188 
G01 X37.3339 Y35.1742 
G01 X37.3508 Y35.1334 
G01 X37.4759 Y34.8315 
G01 X37.4759 Y34.5781 
G01 X37.4928 Y34.5373 
G01 X37.5240 Y34.5061 
G01 X37.5648 Y34.4892 
G01 X38.2427 Y34.4892 
G01 X38.2835 Y34.5061 
G01 X38.3147 Y34.5373 
G01 X38.3316 Y34.5781 
G01 X38.3316 Y34.6223 
G01 X38.3147 Y34.6631 
G01 X38.2835 Y34.6943 
G01 X38.0441 Y34.9337 
G00 Z2.5400 
G00 X39.3027 Y35.0395 
G01 Z-0.1000 F254.00 
G01 X39.3435 Y35.0226 F300.00 
G01 X39.8542 Y35.0226 
G01 X39.8950 Y35.0395 
G01 X39.9262 Y35.0707 
G01 X39.9431 Y35.1115 
G01 X39.9431 Y35.1557 
G01 X39.9262 Y35.1965 
G01 X39.8950 Y35.2277 
G01 X39.4462 Y35.6765 
G01 X39.4149 Y35.7077 
G01 X39.3742 Y35.7246 
G01 X38.8635 Y35.7246 
G01 X38.8227 Y35.7077 
G01 X38.7915 Y35.6765 
G01 X38.7746 Y35.6357 
G01 X38.7746 Y35.5915 
G01 X38.7915 Y35.5507 
G01 X38.8227 Y35.5195 
G01 X39.3027 Y35.0395 
G00 Z2.5400 
G00 X40.4754 Y36.8258 
G01 Z-0.1000 F254.00 
G01 X40.4923 Y36.7850 F300.00 
G01 X40.5235 Y36.7538 
G01 X40.8415 Y36.4358 
G01 X40.8727 Y36.4046 
G01 X40.9130 Y36.3879 
G01 X40.9577 Y36.3877 
G01 X40.9985 Y36.4046 
G01 X41.0297 Y36.4358 
G01 X41.0464 Y36.4762 
G01 X41.0466 Y36.6317 
G01 X41.1780 Y36.9491 
G01 X41.4521 Y37.2232 
G01 X42.7777 Y38.5487 
G01 X42.7946 Y38.5895 
G01 X42.7946 Y38.7371 
G01 X42.7777 Y38.7779 
G01 X42.7465 Y38.8091 
G01 X42.7057 Y38.8260 
G01 X42.6615 Y38.8260 
G01 X42.6207 Y38.8091 
G01 X42.4770 Y38.7496 
G01 X40.1191 Y38.7496 
G01 X40.0783 Y38.7327 
G01 X40.0471 Y38.7015 
G01 X40.0302 Y38.6607 
G01 X40.0302 Y37.7570 
G01 X40.0471 Y37.7162 
G01 X40.0783 Y37.6849 
G01 X40.4754 Y37.2879 
G01 X40.4754 Y36.8258 
G00 Z2.5400 
G00 X27.3798 Y44.8294 
G01 Z-0.1000 F254.00 
G01 X27.2922 Y44.9606 F300.00 
G01 X27.1806 Y45.0722 
G01 X27.0494 Y45.1598 
G01 X26.9036 Y45.2202 
G01 X26.7489 Y45.2510 
G01 X26.5911 Y45.2510 
G01 X26.4364 Y45.2202 
G01 X26.2906 Y45.1598 
G01 X26.1594 Y45.0722 
G01 X26.0478 Y44.9606 
G01 X25.9602 Y44.8294 
G01 X25.8998 Y44.6836 
G01 X25.8690 Y44.5289 
G01 X25.8690 Y44.3711 
G01 X25.8998 Y44.2164 
G01 X25.9602 Y44.0706 
G01 X26.0478 Y43.9394 
G01 X26.1594 Y43.8278 
G01 X26.2906 Y43.7402 
G01 X26.4364 Y43.6798 
G01 X26.5911 Y43.6490 
G01 X26.7489 Y43.6490 
G01 X26.9036 Y43.6798 
G01 X27.0494 Y43.7402 
G01 X27.1806 Y43.8278 
G01 X27.2922 Y43.9394 
G01 X27.3798 Y44.0706 
G01 X27.4107 Y44.1450 
G01 X28.7590 Y44.1450 
G01 X28.7590 Y43.5209 
G01 X28.7889 Y43.4910 
G01 X29.6311 Y43.4910 
G01 X29.6610 Y43.5209 
G01 X29.6610 Y43.8898 
G01 X29.8654 Y44.0942 
G01 X32.7140 Y44.0942 
G01 X32.7140 Y43.9289 
G01 X32.7439 Y43.8990 
G01 X34.0361 Y43.8990 
G01 X34.0660 Y43.9289 
G01 X34.0660 Y44.9711 
G01 X34.0361 Y45.0010 
G01 X32.7439 Y45.0010 
G01 X32.7140 Y44.9711 
G01 X32.7140 Y44.8058 
G01 X29.6712 Y44.8058 
G01 X29.5807 Y44.7816 
G01 X29.5658 Y44.7730 
G01 X29.5658 Y45.7770 
G01 X29.6311 Y45.7770 
G01 X29.6610 Y45.8069 
G01 X29.6610 Y46.6491 
G01 X29.6311 Y46.6790 
G01 X28.7889 Y46.6790 
G01 X28.7590 Y46.6491 
G01 X28.7590 Y45.8069 
G01 X28.7889 Y45.7770 
G01 X28.8542 Y45.7770 
G01 X28.8542 Y44.7550 
G01 X27.4107 Y44.7550 
G01 X27.3798 Y44.8294 
G00 Z2.5400 
G00 X35.8804 Y45.1426 
G01 Z-0.1000 F254.00 
G01 X35.8964 Y45.1360 F300.00 
G01 X35.8760 Y45.1360 
G01 X35.8760 Y45.1438 
G01 X35.8804 Y45.1426 
G00 Z2.5400 
G00 X35.8760 Y43.7562 
G01 Z-0.1000 F254.00 
G01 X35.8760 Y43.7640 F300.00 
G01 X35.8964 Y43.7640 
G01 X35.8804 Y43.7574 
G01 X35.8760 Y43.7562 
G00 Z2.5400 
G00 X17.0862 Y11.1140 
G01 Z-0.1000 F254.00 
G01 X17.0940 Y11.1140 F300.00 
G01 X17.0940 Y11.0936 
G01 X17.0874 Y11.1096 
G01 X17.0862 Y11.1140 
G00 Z2.5400 
G00 X18.4660 Y11.1140 
G01 Z-0.1000 F254.00 
G01 X18.4738 Y11.1140 F300.00 
G01 X18.4726 Y11.1096 
G01 X18.4660 Y11.0936 
G01 X18.4660 Y11.1140 
G00 Z2.5400 
G00 X33.5974 Y26.9904 
G01 Z-0.1000 F254.00 
G01 X33.6040 Y27.0064 F300.00 
G01 X33.6040 Y26.9860 
G01 X33.5962 Y26.9860 
G01 X33.5974 Y26.9904 
G00 Z2.5400 
G00 X34.9826 Y26.9904 
G01 Z-0.1000 F254.00 
G01 X34.9838 Y26.9860 F300.00 
G01 X34.9760 Y26.9860 
G01 X34.9760 Y27.0064 
G01 X34.9826 Y26.9904 
G00 Z2.5400 
G00 X31.1738 Y26.9860 
G01 Z-0.1000 F254.00 
G01 X31.1660 Y26.9860 F300.00 
G01 X31.1660 Y27.0064 
G01 X31.1726 Y26.9904 
G01 X31.1738 Y26.9860 
G00 Z2.5400 
G00 X29.9026 Y11.1096 
G01 Z-0.1000 F254.00 
G01 X29.8960 Y11.0936 F300.00 
G01 X29.8960 Y11.1140 
G01 X29.9038 Y11.1140 
G01 X29.9026 Y11.1096 
G00 Z2.5400 
G00 X28.5162 Y11.1140 
G01 Z-0.1000 F254.00 
G01 X28.5240 Y11.1140 F300.00 
G01 X28.5240 Y11.0936 
G01 X28.5174 Y11.1096 
G01 X28.5162 Y11.1140 
G00 Z2.5400 
G00 X32.3262 Y11.1140 
G01 Z-0.1000 F254.00 
G01 X32.3340 Y11.1140 F300.00 
G01 X32.3340 Y11.0936 
G01 X32.3274 Y11.1096 
G01 X32.3262 Y11.1140 
G00 Z2.5400 
G00 X33.7126 Y11.1096 
G01 Z-0.1000 F254.00 
G01 X33.7060 Y11.0936 F300.00 
G01 X33.7060 Y11.1140 
G01 X33.7138 Y11.1140 
G01 X33.7126 Y11.1096 
G00 Z2.5400 
G00 X29.9290 Y25.6539 
G01 Z-0.1000 F254.00 
G01 X29.9589 Y25.6240 F300.00 
G01 X30.3621 Y25.6240 
G01 X30.4125 Y25.6140 
G01 X31.1738 Y25.6140 
G01 X31.1692 Y25.5966 
G01 X31.1612 Y25.5828 
G01 X31.1559 Y25.5775 
G01 X31.1502 Y25.5638 
G01 X31.1428 Y25.5510 
G01 X31.1363 Y25.5443 
G01 X31.1075 Y25.5154 
G01 X31.1010 Y25.5042 
G01 X31.0674 Y25.4459 
G01 X31.0466 Y25.3683 
G01 X31.0466 Y25.3286 
G01 X31.0466 Y25.2880 
G01 X31.0520 Y25.2679 
G01 X31.0674 Y25.2104 
G01 X31.0793 Y25.1898 
G01 X31.0814 Y25.1861 
G01 X31.0814 Y25.1202 
G01 X31.1022 Y25.0427 
G01 X31.1423 Y24.9731 
G01 X31.1991 Y24.9163 
G01 X31.2687 Y24.8762 
G01 X31.3462 Y24.8554 
G01 X31.8636 Y24.8554 
G01 X31.9274 Y24.8554 
G01 X32.8426 Y24.8554 
G01 X32.9049 Y24.8554 
G01 X33.4238 Y24.8554 
G01 X33.5013 Y24.8762 
G01 X33.5709 Y24.9163 
G01 X33.6277 Y24.9731 
G01 X33.6678 Y25.0427 
G01 X33.6886 Y25.1202 
G01 X33.6886 Y25.1861 
G01 X33.7026 Y25.2104 
G01 X33.7177 Y25.2665 
G01 X33.7234 Y25.2880 
G01 X33.7234 Y25.3277 
G01 X33.7234 Y25.3683 
G01 X33.7026 Y25.4459 
G01 X33.6696 Y25.5030 
G01 X33.6625 Y25.5154 
G01 X33.6345 Y25.5434 
G01 X33.6276 Y25.5504 
G01 X33.6198 Y25.5638 
G01 X33.6141 Y25.5775 
G01 X33.6088 Y25.5828 
G01 X33.6008 Y25.5966 
G01 X33.5962 Y25.6140 
G01 X34.9838 Y25.6140 
G01 X34.9826 Y25.6096 
G01 X34.9787 Y25.6001 
G01 X34.9725 Y25.5850 
G01 X34.9659 Y25.5775 
G01 X34.9602 Y25.5638 
G01 X34.9528 Y25.5510 
G01 X34.9463 Y25.5443 
G01 X34.9175 Y25.5154 
G01 X34.9110 Y25.5042 
G01 X34.8774 Y25.4459 
G01 X34.8566 Y25.3683 
G01 X34.8566 Y25.3286 
G01 X34.8566 Y25.2880 
G01 X34.8620 Y25.2679 
G01 X34.8774 Y25.2104 
G01 X34.8893 Y25.1898 
G01 X34.8914 Y25.1861 
G01 X34.8914 Y23.8548 
G01 X34.8760 Y23.8176 
G01 X34.8474 Y23.7890 
G01 X34.8102 Y23.7736 
G01 X33.7698 Y23.7736 
G01 X33.7326 Y23.7890 
G01 X33.6886 Y23.8330 
G01 X33.6886 Y23.8798 
G01 X33.6678 Y23.9573 
G01 X33.6277 Y24.0269 
G01 X33.5709 Y24.0837 
G01 X33.5013 Y24.1238 
G01 X33.4238 Y24.1446 
G01 X31.3462 Y24.1446 
G01 X31.2687 Y24.1238 
G01 X31.1991 Y24.0837 
G01 X31.1423 Y24.0269 
G01 X31.1022 Y23.9573 
G01 X31.0814 Y23.8798 
G01 X31.0814 Y23.8330 
G01 X30.9719 Y23.7235 
G01 X30.9531 Y23.7127 
G01 X30.8963 Y23.6559 
G01 X30.8562 Y23.5863 
G01 X30.8354 Y23.5088 
G01 X30.8354 Y20.9402 
G01 X30.8562 Y20.8627 
G01 X30.8963 Y20.7931 
G01 X30.9531 Y20.7363 
G01 X31.0227 Y20.6962 
G01 X31.1002 Y20.6754 
G01 X31.5838 Y20.6754 
G01 X31.6037 Y20.6807 
G01 X31.6614 Y20.6962 
G01 X31.7309 Y20.7363 
G01 X31.7877 Y20.7931 
G01 X31.8006 Y20.8060 
G01 X31.8378 Y20.8214 
G01 X32.6782 Y20.8214 
G01 X32.6951 Y20.8144 
G01 X32.7154 Y20.8060 
G01 X32.7759 Y20.7455 
G01 X32.8288 Y20.6926 
G01 X32.8327 Y20.6887 
G01 X32.9023 Y20.6485 
G01 X32.9582 Y20.6335 
G01 X32.9798 Y20.6277 
G01 X33.0602 Y20.6277 
G01 X33.1377 Y20.6485 
G01 X33.2057 Y20.6878 
G01 X33.2641 Y20.7455 
G01 X33.3246 Y20.8060 
G01 X33.3618 Y20.8214 
G01 X34.2022 Y20.8214 
G01 X34.2394 Y20.8060 
G01 X34.2676 Y20.7778 
G01 X34.3031 Y20.7423 
G01 X34.3559 Y20.6895 
G01 X34.3599 Y20.6855 
G01 X34.4294 Y20.6454 
G01 X34.4853 Y20.6304 
G01 X34.5070 Y20.6246 
G01 X41.9706 Y20.6246 
G01 X42.0730 Y20.5822 
G01 X42.0825 Y20.5782 
G01 X42.3125 Y20.3483 
G01 X43.5329 Y19.1279 
G01 X44.7648 Y17.8959 
G01 X44.8604 Y17.8004 
G01 X45.1203 Y17.5404 
G01 X45.1771 Y17.4836 
G01 X45.2467 Y17.4435 
G01 X45.3242 Y17.4227 
G01 X45.4046 Y17.4227 
G01 X45.4821 Y17.4435 
G01 X45.5517 Y17.4836 
G01 X45.6085 Y17.5404 
G01 X45.6486 Y17.6100 
G01 X45.6694 Y17.6875 
G01 X45.6694 Y17.7348 
G01 X45.7134 Y17.7788 
G01 X45.7506 Y17.7942 
G01 X46.5298 Y17.7942 
G01 X46.6074 Y17.8150 
G01 X46.6769 Y17.8551 
G01 X46.7337 Y17.9119 
G01 X46.8300 Y18.0082 
G01 X46.8647 Y18.0429 
G01 X48.2391 Y19.4173 
G01 X48.2950 Y19.4732 
G01 X48.3064 Y19.4922 
G01 X48.3361 Y19.5437 
G01 X48.3569 Y19.6212 
G01 X48.3569 Y19.7016 
G01 X48.3483 Y19.7336 
G01 X48.3361 Y19.7791 
G01 X48.3058 Y19.8316 
G01 X48.2959 Y19.8487 
G01 X48.2666 Y19.8780 
G01 X48.2666 Y20.7402 
G01 X48.2820 Y20.7774 
G01 X48.3106 Y20.8060 
G01 X48.3478 Y20.8214 
G01 X49.1882 Y20.8214 
G01 X49.2254 Y20.8060 
G01 X49.3427 Y20.6887 
G01 X49.4123 Y20.6485 
G01 X49.4898 Y20.6277 
G01 X49.5702 Y20.6277 
G01 X49.5901 Y20.6331 
G01 X49.6477 Y20.6485 
G01 X49.7173 Y20.6887 
G01 X49.7741 Y20.7455 
G01 X49.8346 Y20.8060 
G01 X49.8549 Y20.8144 
G01 X49.8718 Y20.8214 
G01 X50.7340 Y20.8214 
G01 X50.7934 Y20.7620 
G01 X50.7934 Y20.4074 
G01 X50.8142 Y20.3298 
G01 X50.8543 Y20.2603 
G01 X50.9111 Y20.2035 
G01 X51.1715 Y19.9431 
G01 X51.2411 Y19.9029 
G01 X51.3186 Y19.8821 
G01 X51.3990 Y19.8821 
G01 X51.4765 Y19.9029 
G01 X51.5461 Y19.9431 
G01 X51.6029 Y19.9999 
G01 X51.6430 Y20.0694 
G01 X51.6638 Y20.1470 
G01 X51.6638 Y20.7060 
G01 X51.6430 Y20.7835 
G01 X51.6029 Y20.8531 
G01 X51.5461 Y20.9099 
G01 X51.3482 Y21.1077 
G01 X51.2186 Y21.4206 
G01 X51.2186 Y21.7594 
G01 X51.3482 Y22.0723 
G01 X51.5877 Y22.3118 
G01 X51.9006 Y22.4414 
G01 X52.2394 Y22.4414 
G01 X52.5523 Y22.3118 
G01 X52.7918 Y22.0723 
G01 X52.9214 Y21.7594 
G01 X52.9214 Y21.4206 
G01 X52.7918 Y21.1077 
G01 X52.6293 Y20.9453 
G01 X52.5371 Y20.8531 
G01 X52.4970 Y20.7835 
G01 X52.4762 Y20.7060 
G01 X52.4762 Y18.7957 
G01 X52.4736 Y18.7757 
G01 X52.4762 Y18.7557 
G01 X52.4762 Y18.7355 
G01 X52.4814 Y18.7160 
G01 X52.4840 Y18.6960 
G01 X52.4918 Y18.6774 
G01 X52.4970 Y18.6579 
G01 X52.5071 Y18.6405 
G01 X52.5414 Y18.5576 
G01 X52.5414 Y18.3960 
G01 X52.5215 Y18.3479 
G01 X52.5114 Y18.3304 
G01 X52.5062 Y18.3109 
G01 X52.4984 Y18.2923 
G01 X52.4958 Y18.2723 
G01 X52.4906 Y18.2528 
G01 X52.4906 Y18.2327 
G01 X52.4880 Y18.2127 
G01 X52.4906 Y18.1927 
G01 X52.4906 Y18.0590 
G01 X52.5114 Y17.9815 
G01 X52.5515 Y17.9119 
G01 X52.6083 Y17.8551 
G01 X52.6779 Y17.8150 
G01 X52.7554 Y17.7942 
G01 X53.3094 Y17.7942 
G01 X53.3466 Y17.7788 
G01 X53.3752 Y17.7502 
G01 X53.3906 Y17.7130 
G01 X53.3906 Y17.3582 
G01 X53.4114 Y17.2807 
G01 X53.4515 Y17.2111 
G01 X53.5083 Y17.1543 
G01 X53.5779 Y17.1142 
G01 X53.6554 Y17.0934 
G01 X54.6554 Y17.0934 
G01 X54.7394 Y17.0586 
G01 X54.8036 Y16.9944 
G01 X54.8384 Y16.9104 
G01 X54.8384 Y14.2196 
G01 X54.8036 Y14.1356 
G01 X54.0894 Y13.4214 
G01 X54.0054 Y13.3866 
G01 X53.6554 Y13.3866 
G01 X53.5779 Y13.3658 
G01 X53.5083 Y13.3257 
G01 X53.4515 Y13.2689 
G01 X53.4114 Y13.1993 
G01 X53.3906 Y13.1218 
G01 X53.3906 Y12.7670 
G01 X53.3752 Y12.7298 
G01 X53.3466 Y12.7012 
G01 X53.3094 Y12.6858 
G01 X52.8426 Y12.6858 
G01 X52.7651 Y12.6650 
G01 X52.6955 Y12.6249 
G01 X52.6387 Y12.5681 
G01 X52.5986 Y12.4985 
G01 X52.5778 Y12.4210 
G01 X52.5778 Y10.9424 
G01 X52.5986 Y10.8649 
G01 X52.6387 Y10.7953 
G01 X52.6955 Y10.7385 
G01 X52.7309 Y10.7031 
G01 X52.7918 Y10.6423 
G01 X52.9214 Y10.3293 
G01 X52.9214 Y9.9906 
G01 X52.7918 Y9.6777 
G01 X52.5523 Y9.4382 
G01 X52.2394 Y9.3086 
G01 X51.9006 Y9.3086 
G01 X51.5877 Y9.4382 
G01 X51.3482 Y9.6777 
G01 X51.2186 Y9.9906 
G01 X51.2186 Y10.3293 
G01 X51.3482 Y10.6423 
G01 X51.4091 Y10.7031 
G01 X51.5013 Y10.7953 
G01 X51.5414 Y10.8649 
G01 X51.5622 Y10.9424 
G01 X51.5622 Y12.2411 
G01 X51.5622 Y12.3011 
G01 X51.5622 Y12.5066 
G01 X51.5569 Y12.5265 
G01 X51.5414 Y12.5842 
G01 X51.5013 Y12.6537 
G01 X51.4445 Y12.7105 
G01 X51.4252 Y12.7298 
G01 X51.4098 Y12.7670 
G01 X51.4098 Y14.4848 
G01 X51.5350 Y14.6100 
G01 X53.5543 Y14.6100 
G01 X53.6099 Y14.5543 
G01 X53.6795 Y14.5142 
G01 X53.7570 Y14.4934 
G01 X54.1168 Y14.4934 
G01 X54.1943 Y14.5142 
G01 X54.2639 Y14.5543 
G01 X54.3207 Y14.6111 
G01 X54.3608 Y14.6807 
G01 X54.3816 Y14.7582 
G01 X54.3816 Y16.3718 
G01 X54.3608 Y16.4493 
G01 X54.3207 Y16.5189 
G01 X54.2639 Y16.5757 
G01 X54.1943 Y16.6158 
G01 X54.1168 Y16.6366 
G01 X53.7570 Y16.6366 
G01 X53.6795 Y16.6158 
G01 X53.6099 Y16.5757 
G01 X53.5543 Y16.5200 
G01 X51.3503 Y16.5200 
G01 X51.3890 Y16.5871 
G01 X51.4098 Y16.6647 
G01 X51.4098 Y17.2868 
G01 X51.3890 Y17.3643 
G01 X51.3489 Y17.4339 
G01 X51.2921 Y17.4907 
G01 X51.2225 Y17.5308 
G01 X51.1450 Y17.5516 
G01 X50.9808 Y17.5516 
G01 X50.9032 Y17.5308 
G01 X50.8337 Y17.4907 
G01 X50.7769 Y17.4339 
G01 X48.0296 Y14.6866 
G01 X47.9150 Y14.6866 
G01 X47.8375 Y14.6658 
G01 X47.7679 Y14.6257 
G01 X47.7111 Y14.5689 
G01 X47.6710 Y14.4993 
G01 X47.6502 Y14.4218 
G01 X47.6502 Y12.7325 
G01 X47.6274 Y12.6930 
G01 X47.6128 Y12.6385 
G01 X47.6066 Y12.6155 
G01 X47.6066 Y12.5351 
G01 X47.6274 Y12.4576 
G01 X47.6676 Y12.3880 
G01 X48.6720 Y11.3835 
G01 X48.6763 Y11.3792 
G01 X48.7322 Y11.3234 
G01 X48.7910 Y11.2890 
G01 X48.8027 Y11.2823 
G01 X48.8304 Y11.2749 
G01 X48.8802 Y11.2615 
G01 X48.9606 Y11.2615 
G01 X49.0161 Y11.2764 
G01 X49.0381 Y11.2823 
G01 X49.1077 Y11.3224 
G01 X49.1636 Y11.3783 
G01 X49.1979 Y11.4371 
G01 X49.2046 Y11.4488 
G01 X49.2120 Y11.4765 
G01 X49.2254 Y11.5263 
G01 X49.2254 Y14.0306 
G01 X49.2718 Y14.1425 
G01 X49.4287 Y14.2995 
G01 X50.9524 Y15.8232 
G01 X51.0644 Y15.8696 
G01 X53.3058 Y15.8696 
G01 X53.3906 Y15.7848 
G01 X53.3906 Y15.7653 
G01 X53.3906 Y15.3647 
G01 X53.3906 Y15.3452 
G01 X53.3058 Y15.2604 
G01 X51.7203 Y15.2604 
G01 X51.6548 Y15.2333 
G01 X51.6416 Y15.2200 
G01 X51.3444 Y15.2200 
G01 X51.3115 Y15.2216 
G01 X51.3043 Y15.2200 
G01 X51.2970 Y15.2200 
G01 X51.2652 Y15.2115 
G01 X51.2330 Y15.2045 
G01 X51.2265 Y15.2011 
G01 X51.2194 Y15.1992 
G01 X51.1909 Y15.1828 
G01 X51.1617 Y15.1677 
G01 X51.1562 Y15.1628 
G01 X51.1498 Y15.1591 
G01 X51.1266 Y15.1358 
G01 X51.1022 Y15.1137 
G01 X51.0982 Y15.1075 
G01 X51.0930 Y15.1023 
G01 X51.0766 Y15.0738 
G01 X51.0588 Y15.0461 
G01 X51.0566 Y15.0391 
G01 X51.0529 Y15.0327 
G01 X51.0443 Y15.0009 
G01 X51.0343 Y14.9696 
G01 X51.0340 Y14.9622 
G01 X51.0321 Y14.9551 
G01 X51.0321 Y14.9222 
G01 X51.0313 Y14.9050 
G01 X50.9819 Y14.9050 
G01 X50.9204 Y14.8885 
G01 X50.9043 Y14.8842 
G01 X50.8726 Y14.8659 
G01 X50.8348 Y14.8440 
G01 X50.7780 Y14.7872 
G01 X50.2865 Y14.2957 
G01 X50.1909 Y14.2002 
G01 X50.0833 Y14.0925 
G01 X49.9877 Y13.9970 
G01 X49.8955 Y13.9048 
G01 X49.8554 Y13.8352 
G01 X49.8346 Y13.7576 
G01 X49.8346 Y6.8163 
G01 X49.8554 Y6.7388 
G01 X49.8955 Y6.6692 
G01 X49.9523 Y6.6124 
G01 X49.9877 Y6.5770 
G01 X50.0833 Y6.4815 
G01 X50.2904 Y6.2743 
G01 X50.4035 Y6.1613 
G01 X50.4157 Y6.1453 
G01 X50.4317 Y6.1330 
G01 X50.4460 Y6.1188 
G01 X50.4635 Y6.1087 
G01 X50.4794 Y6.0964 
G01 X50.4981 Y6.0887 
G01 X50.5155 Y6.0786 
G01 X50.5350 Y6.0734 
G01 X50.5536 Y6.0657 
G01 X50.5736 Y6.0631 
G01 X50.5931 Y6.0578 
G01 X50.6133 Y6.0578 
G01 X50.6333 Y6.0552 
G01 X50.6533 Y6.0578 
G01 X50.6734 Y6.0578 
G01 X50.6929 Y6.0631 
G01 X50.7129 Y6.0657 
G01 X50.7315 Y6.0734 
G01 X50.7510 Y6.0786 
G01 X50.7685 Y6.0887 
G01 X50.8469 Y6.1212 
G01 X51.2611 Y6.1212 
G01 X51.6438 Y5.9627 
G01 X51.9367 Y5.6698 
G01 X52.0952 Y5.2871 
G01 X52.0952 Y4.8729 
G01 X51.9367 Y4.4902 
G01 X51.6438 Y4.1973 
G01 X51.2611 Y4.0388 
G01 X50.8469 Y4.0388 
G01 X50.4642 Y4.1973 
G01 X50.1713 Y4.4902 
G01 X50.0811 Y4.7079 
G01 X50.0727 Y4.7282 
G01 X50.0504 Y4.7821 
G01 X50.0015 Y4.8458 
G01 X49.9378 Y4.8947 
G01 X49.8952 Y4.9123 
G01 X49.8636 Y4.9254 
G01 X49.7840 Y4.9359 
G01 X49.7044 Y4.9254 
G01 X49.6745 Y4.9131 
G01 X49.6302 Y4.8947 
G01 X49.5665 Y4.8458 
G01 X49.5176 Y4.7821 
G01 X49.5002 Y4.7402 
G01 X49.4868 Y4.7079 
G01 X49.3967 Y4.4902 
G01 X49.3467 Y4.4402 
G01 X49.2511 Y4.3447 
G01 X49.1654 Y4.2589 
G01 X49.1038 Y4.1973 
G01 X48.7211 Y4.0388 
G01 X48.3069 Y4.0388 
G01 X47.9242 Y4.1973 
G01 X47.6313 Y4.4902 
G01 X47.5411 Y4.7079 
G01 X47.5327 Y4.7282 
G01 X47.5104 Y4.7821 
G01 X47.4615 Y4.8458 
G01 X47.3978 Y4.8947 
G01 X47.3552 Y4.9123 
G01 X47.3236 Y4.9254 
G01 X47.2440 Y4.9359 
G01 X47.1644 Y4.9254 
G01 X47.1345 Y4.9131 
G01 X47.0902 Y4.8947 
G01 X47.0265 Y4.8458 
G01 X46.9776 Y4.7821 
G01 X46.9602 Y4.7402 
G01 X46.9468 Y4.7079 
G01 X46.8567 Y4.4902 
G01 X46.8067 Y4.4402 
G01 X46.7111 Y4.3447 
G01 X46.6195 Y4.2530 
G01 X46.5638 Y4.1973 
G01 X46.1811 Y4.0388 
G01 X45.7669 Y4.0388 
G01 X45.3842 Y4.1973 
G01 X45.3087 Y4.2728 
G01 X45.2876 Y4.2939 
G01 X45.2131 Y4.3684 
G01 X45.0913 Y4.4902 
G01 X45.0463 Y4.5989 
G01 X45.0376 Y4.6257 
G01 X45.0310 Y4.6358 
G01 X45.0263 Y4.6471 
G01 X45.0092 Y4.6694 
G01 X44.9938 Y4.6930 
G01 X44.9848 Y4.7011 
G01 X44.9775 Y4.7108 
G01 X44.9551 Y4.7279 
G01 X44.9342 Y4.7468 
G01 X44.9234 Y4.7523 
G01 X44.9137 Y4.7597 
G01 X44.8877 Y4.7704 
G01 X44.8626 Y4.7832 
G01 X44.8508 Y4.7857 
G01 X44.8395 Y4.7904 
G01 X44.8116 Y4.7941 
G01 X44.7841 Y4.7999 
G01 X44.7719 Y4.7993 
G01 X44.7599 Y4.8009 
G01 X44.7320 Y4.7972 
G01 X44.7039 Y4.7957 
G01 X44.6923 Y4.7920 
G01 X44.6803 Y4.7904 
G01 X44.6544 Y4.7796 
G01 X44.6424 Y4.7846 
G01 X44.6379 Y4.7846 
G01 X44.6336 Y4.7860 
G01 X44.6159 Y4.7846 
G01 X44.5982 Y4.7846 
G01 X44.5940 Y4.7829 
G01 X44.5896 Y4.7825 
G01 X44.5738 Y4.7745 
G01 X44.5574 Y4.7677 
G01 X44.5542 Y4.7645 
G01 X44.5502 Y4.7625 
G01 X44.5387 Y4.7490 
G01 X44.5262 Y4.7365 
G01 X44.5245 Y4.7323 
G01 X44.5215 Y4.7289 
G01 X44.5160 Y4.7120 
G01 X44.5093 Y4.6957 
G01 X44.5093 Y4.6912 
G01 X44.4960 Y4.6503 
G01 X44.4935 Y4.6471 
G01 X44.4827 Y4.6210 
G01 X44.4114 Y4.4810 
G01 X44.3833 Y4.4423 
G01 X44.3057 Y4.3355 
G01 X44.2667 Y4.2965 
G01 X44.2151 Y4.2450 
G01 X44.1895 Y4.2193 
G01 X44.1529 Y4.1949 
G01 X44.1369 Y4.1789 
G01 X44.1200 Y4.1659 
G01 X44.1200 Y4.3648 
G01 X44.2036 Y4.4484 
G01 X44.3120 Y4.6107 
G01 X44.3867 Y4.7910 
G01 X44.4248 Y4.9824 
G01 X44.4248 Y5.1776 
G01 X44.3867 Y5.3690 
G01 X44.3120 Y5.5493 
G01 X44.2036 Y5.7116 
G01 X44.1200 Y5.7952 
G01 X44.1200 Y5.9941 
G01 X44.1369 Y5.9811 
G01 X44.1529 Y5.9651 
G01 X44.1895 Y5.9407 
G01 X44.2135 Y5.9167 
G01 X44.2667 Y5.8635 
G01 X44.3057 Y5.8245 
G01 X44.4114 Y5.6790 
G01 X44.4827 Y5.5390 
G01 X44.4935 Y5.5129 
G01 X44.4960 Y5.5097 
G01 X44.5093 Y5.4688 
G01 X44.5093 Y5.4643 
G01 X44.5160 Y5.4480 
G01 X44.5215 Y5.4311 
G01 X44.5245 Y5.4277 
G01 X44.5262 Y5.4235 
G01 X44.5387 Y5.4110 
G01 X44.5502 Y5.3975 
G01 X44.5542 Y5.3955 
G01 X44.5574 Y5.3923 
G01 X44.5738 Y5.3855 
G01 X44.5896 Y5.3775 
G01 X44.5940 Y5.3771 
G01 X44.5982 Y5.3754 
G01 X44.6159 Y5.3754 
G01 X44.6336 Y5.3740 
G01 X44.6379 Y5.3754 
G01 X44.6424 Y5.3754 
G01 X44.6544 Y5.3804 
G01 X44.6803 Y5.3696 
G01 X44.6923 Y5.3680 
G01 X44.7039 Y5.3643 
G01 X44.7320 Y5.3628 
G01 X44.7599 Y5.3591 
G01 X44.7719 Y5.3607 
G01 X44.7841 Y5.3601 
G01 X44.8116 Y5.3659 
G01 X44.8395 Y5.3696 
G01 X44.8508 Y5.3743 
G01 X44.8626 Y5.3768 
G01 X44.8877 Y5.3896 
G01 X44.9137 Y5.4003 
G01 X44.9234 Y5.4077 
G01 X44.9342 Y5.4132 
G01 X44.9551 Y5.4321 
G01 X44.9775 Y5.4492 
G01 X44.9848 Y5.4589 
G01 X44.9938 Y5.4670 
G01 X45.0092 Y5.4906 
G01 X45.0263 Y5.5129 
G01 X45.0310 Y5.5242 
G01 X45.0376 Y5.5343 
G01 X45.0463 Y5.5611 
G01 X45.0913 Y5.6698 
G01 X45.2131 Y5.7916 
G01 X45.2853 Y5.8638 
G01 X45.3087 Y5.8872 
G01 X45.3842 Y5.9627 
G01 X45.7669 Y6.1212 
G01 X46.1811 Y6.1212 
G01 X46.5638 Y5.9627 
G01 X46.6107 Y5.9158 
G01 X46.8067 Y5.7198 
G01 X46.8567 Y5.6698 
G01 X46.9468 Y5.4521 
G01 X46.9595 Y5.4216 
G01 X46.9776 Y5.3779 
G01 X47.0265 Y5.3142 
G01 X47.0902 Y5.2653 
G01 X47.1328 Y5.2477 
G01 X47.1644 Y5.2346 
G01 X47.2440 Y5.2241 
G01 X47.3236 Y5.2346 
G01 X47.3535 Y5.2469 
G01 X47.3978 Y5.2653 
G01 X47.4615 Y5.3142 
G01 X47.5104 Y5.3779 
G01 X47.5318 Y5.4296 
G01 X47.5411 Y5.4521 
G01 X47.6313 Y5.6698 
G01 X47.7712 Y5.8097 
G01 X47.7768 Y5.8153 
G01 X47.8606 Y5.8991 
G01 X47.9242 Y5.9627 
G01 X48.0026 Y5.9952 
G01 X48.0221 Y6.0004 
G01 X48.0396 Y6.0105 
G01 X48.0582 Y6.0182 
G01 X48.0742 Y6.0305 
G01 X48.0917 Y6.0405 
G01 X48.1059 Y6.0548 
G01 X48.1219 Y6.0671 
G01 X48.1342 Y6.0831 
G01 X48.1485 Y6.0973 
G01 X48.1585 Y6.1148 
G01 X48.1708 Y6.1308 
G01 X48.1785 Y6.1494 
G01 X48.1886 Y6.1669 
G01 X48.1938 Y6.1864 
G01 X48.2015 Y6.2050 
G01 X48.2042 Y6.2250 
G01 X48.2094 Y6.2445 
G01 X48.2094 Y6.2646 
G01 X48.2120 Y6.2846 
G01 X48.2094 Y6.3046 
G01 X48.2094 Y10.8984 
G01 X48.1886 Y10.9760 
G01 X48.1485 Y11.0456 
G01 X48.0917 Y11.1024 
G01 X48.0563 Y11.1378 
G01 X47.9607 Y11.2333 
G01 X46.6614 Y12.5327 
G01 X46.5692 Y12.6249 
G01 X46.4996 Y12.6650 
G01 X46.4220 Y12.6858 
G01 X45.7506 Y12.6858 
G01 X45.7134 Y12.7012 
G01 X45.6848 Y12.7298 
G01 X45.6694 Y12.7670 
G01 X45.6694 Y13.0456 
G01 X45.6486 Y13.1231 
G01 X45.6085 Y13.1927 
G01 X45.5517 Y13.2495 
G01 X45.4821 Y13.2896 
G01 X45.4046 Y13.3104 
G01 X44.3073 Y13.3104 
G01 X44.2298 Y13.2896 
G01 X44.1602 Y13.2495 
G01 X44.1034 Y13.1927 
G01 X38.3727 Y7.4620 
G01 X38.2725 Y7.3618 
G01 X38.1606 Y7.3154 
G01 X24.0694 Y7.3154 
G01 X23.9700 Y7.3566 
G01 X23.9575 Y7.3618 
G01 X20.1620 Y11.1573 
G01 X20.0618 Y11.2575 
G01 X20.0154 Y11.3694 
G01 X20.0154 Y15.0276 
G01 X19.9946 Y15.1052 
G01 X19.9545 Y15.1748 
G01 X19.8977 Y15.2316 
G01 X19.8622 Y15.2670 
G01 X19.2738 Y15.8555 
G01 X19.1816 Y15.9477 
G01 X19.1120 Y15.9878 
G01 X19.0344 Y16.0086 
G01 X18.1000 Y16.0086 
G01 X18.0749 Y16.0337 
G01 X18.0196 Y16.0890 
G01 X17.9485 Y16.1307 
G01 X17.8926 Y16.1457 
G01 X17.8710 Y16.1515 
G01 X17.7906 Y16.1515 
G01 X17.7131 Y16.1307 
G01 X17.6435 Y16.0905 
G01 X17.5876 Y16.0346 
G01 X17.5466 Y15.9642 
G01 X17.5316 Y15.9083 
G01 X17.5258 Y15.8866 
G01 X17.5258 Y14.6585 
G01 X17.5466 Y14.5809 
G01 X17.5867 Y14.5114 
G01 X17.6435 Y14.4546 
G01 X17.7108 Y14.3873 
G01 X17.7803 Y14.3472 
G01 X17.8579 Y14.3264 
G01 X18.3002 Y14.3264 
G01 X18.3374 Y14.3110 
G01 X18.3660 Y14.2824 
G01 X18.3814 Y14.2452 
G01 X18.3814 Y12.9143 
G01 X18.3674 Y12.8896 
G01 X18.3523 Y12.8335 
G01 X18.3466 Y12.8120 
G01 X18.3466 Y12.7723 
G01 X18.3466 Y12.7317 
G01 X18.3674 Y12.6541 
G01 X18.4004 Y12.5970 
G01 X18.4075 Y12.5846 
G01 X18.4355 Y12.5566 
G01 X18.4424 Y12.5496 
G01 X18.4502 Y12.5362 
G01 X18.4559 Y12.5225 
G01 X18.4611 Y12.5172 
G01 X18.4687 Y12.4999 
G01 X18.4726 Y12.4904 
G01 X18.4738 Y12.4860 
G01 X17.0862 Y12.4860 
G01 X17.0874 Y12.4904 
G01 X17.0913 Y12.4999 
G01 X17.0975 Y12.5150 
G01 X17.1041 Y12.5225 
G01 X17.1098 Y12.5362 
G01 X17.1172 Y12.5490 
G01 X17.1237 Y12.5557 
G01 X17.1525 Y12.5846 
G01 X17.1590 Y12.5958 
G01 X17.1926 Y12.6541 
G01 X17.2134 Y12.7317 
G01 X17.2134 Y12.7714 
G01 X17.2134 Y12.8120 
G01 X17.2080 Y12.8321 
G01 X17.1926 Y12.8896 
G01 X17.1807 Y12.9102 
G01 X17.1786 Y12.9139 
G01 X17.1786 Y13.3971 
G01 X17.1578 Y13.4747 
G01 X17.1177 Y13.5442 
G01 X17.0609 Y13.6010 
G01 X17.0254 Y13.6364 
G01 X16.9299 Y13.7320 
G01 X16.7791 Y13.8828 
G01 X16.5875 Y14.0743 
G01 X16.5623 Y14.1351 
G01 X16.5372 Y14.1959 
G01 X16.5102 Y14.2610 
G01 X16.5102 Y15.7374 
G01 X16.4894 Y15.8149 
G01 X16.4493 Y15.8845 
G01 X16.3925 Y15.9413 
G01 X16.3229 Y15.9814 
G01 X16.2454 Y16.0022 
G01 X16.0126 Y16.0022 
G01 X15.9351 Y15.9814 
G01 X15.8655 Y15.9413 
G01 X15.8087 Y15.8845 
G01 X15.7686 Y15.8149 
G01 X15.7478 Y15.7374 
G01 X15.7478 Y14.7690 
G01 X15.6705 Y14.5823 
G01 X15.4919 Y14.4038 
G01 X15.4385 Y14.3504 
G01 X15.3964 Y14.3083 
G01 X14.7245 Y13.6364 
G01 X14.6323 Y13.5442 
G01 X14.5922 Y13.4747 
G01 X14.5714 Y13.3971 
G01 X14.5714 Y12.9143 
G01 X14.5574 Y12.8896 
G01 X14.5423 Y12.8335 
G01 X14.5366 Y12.8120 
G01 X14.5366 Y12.7723 
G01 X14.5366 Y12.7317 
G01 X14.5574 Y12.6541 
G01 X14.5904 Y12.5970 
G01 X14.5975 Y12.5846 
G01 X14.6255 Y12.5566 
G01 X14.6324 Y12.5496 
G01 X14.6402 Y12.5362 
G01 X14.6459 Y12.5225 
G01 X14.6512 Y12.5172 
G01 X14.6587 Y12.4999 
G01 X14.6626 Y12.4904 
G01 X14.6638 Y12.4860 
G01 X13.2762 Y12.4860 
G01 X13.2774 Y12.4904 
G01 X13.2813 Y12.4999 
G01 X13.2875 Y12.5150 
G01 X13.2941 Y12.5225 
G01 X13.2998 Y12.5362 
G01 X13.3072 Y12.5490 
G01 X13.3137 Y12.5557 
G01 X13.3425 Y12.5846 
G01 X13.3490 Y12.5958 
G01 X13.3826 Y12.6541 
G01 X13.4034 Y12.7317 
G01 X13.4034 Y12.7714 
G01 X13.4034 Y12.8120 
G01 X13.3980 Y12.8321 
G01 X13.3826 Y12.8896 
G01 X13.3707 Y12.9102 
G01 X13.3686 Y12.9139 
G01 X13.3686 Y14.2452 
G01 X13.3840 Y14.2824 
G01 X13.4126 Y14.3110 
G01 X13.4498 Y14.3264 
G01 X13.8921 Y14.3264 
G01 X13.9697 Y14.3472 
G01 X14.0392 Y14.3873 
G01 X14.0960 Y14.4441 
G01 X14.1314 Y14.4795 
G01 X14.2270 Y14.5751 
G01 X14.5791 Y14.9272 
G01 X14.6713 Y15.0194 
G01 X14.7114 Y15.0889 
G01 X14.7322 Y15.1665 
G01 X14.7322 Y15.7438 
G01 X14.7114 Y15.8213 
G01 X14.6713 Y15.8909 
G01 X14.6145 Y15.9477 
G01 X14.5449 Y15.9878 
G01 X14.4674 Y16.0086 
G01 X14.3118 Y16.0086 
G01 X14.2949 Y16.0156 
G01 X14.2746 Y16.0240 
G01 X14.1573 Y16.1413 
G01 X14.0877 Y16.1815 
G01 X14.0102 Y16.2023 
G01 X13.9298 Y16.2023 
G01 X13.9099 Y16.1969 
G01 X13.8523 Y16.1815 
G01 X13.7827 Y16.1413 
G01 X13.7259 Y16.0845 
G01 X13.6654 Y16.0240 
G01 X13.6451 Y16.0156 
G01 X13.6282 Y16.0086 
G01 X13.4051 Y16.0086 
G01 X13.3851 Y16.0112 
G01 X13.3651 Y16.0086 
G01 X13.3450 Y16.0086 
G01 X13.3255 Y16.0034 
G01 X13.3165 Y16.0022 
G01 X13.0995 Y16.0022 
G01 X13.0905 Y16.0034 
G01 X13.0710 Y16.0086 
G01 X13.0509 Y16.0086 
G01 X13.0309 Y16.0112 
G01 X13.0109 Y16.0086 
G01 X12.7878 Y16.0086 
G01 X12.7506 Y16.0240 
G01 X12.7220 Y16.0526 
G01 X12.7066 Y16.0898 
G01 X12.7066 Y16.2071 
G01 X12.6858 Y16.2846 
G01 X12.6457 Y16.3542 
G01 X12.5889 Y16.4110 
G01 X12.3086 Y16.6912 
G01 X12.3049 Y16.6949 
G01 X12.2718 Y16.7281 
G01 X12.2094 Y16.7905 
G01 X12.0913 Y16.9086 
G01 X12.0790 Y16.9246 
G01 X12.0630 Y16.9368 
G01 X12.0488 Y16.9511 
G01 X12.0313 Y16.9612 
G01 X12.0153 Y16.9735 
G01 X11.9967 Y16.9812 
G01 X11.9792 Y16.9913 
G01 X11.9597 Y16.9965 
G01 X11.9411 Y17.0042 
G01 X11.9211 Y17.0068 
G01 X11.9016 Y17.0120 
G01 X11.8815 Y17.0120 
G01 X11.8615 Y17.0147 
G01 X11.8415 Y17.0120 
G01 X11.8213 Y17.0120 
G01 X11.8018 Y17.0068 
G01 X11.7819 Y17.0042 
G01 X11.7632 Y16.9965 
G01 X11.7438 Y16.9913 
G01 X11.7263 Y16.9812 
G01 X11.5994 Y16.9286 
G01 X11.2606 Y16.9286 
G01 X11.2575 Y16.9299 
G01 X10.9477 Y17.0582 
G01 X10.7082 Y17.2977 
G01 X10.5786 Y17.6106 
G01 X10.5786 Y17.9494 
G01 X10.7082 Y18.2623 
G01 X10.9477 Y18.5018 
G01 X11.2606 Y18.6314 
G01 X11.5994 Y18.6314 
G01 X11.9123 Y18.5018 
G01 X12.1309 Y18.2831 
G01 X12.1432 Y18.2671 
G01 X12.1592 Y18.2549 
G01 X12.1735 Y18.2406 
G01 X12.1909 Y18.2305 
G01 X12.2069 Y18.2182 
G01 X12.2255 Y18.2105 
G01 X12.5128 Y17.9234 
G01 X13.2716 Y17.1645 
G01 X13.3638 Y17.0723 
G01 X13.4333 Y17.0322 
G01 X13.5109 Y17.0114 
G01 X13.6282 Y17.0114 
G01 X13.6451 Y17.0044 
G01 X13.6654 Y16.9960 
G01 X13.7259 Y16.9355 
G01 X13.7788 Y16.8826 
G01 X13.7827 Y16.8787 
G01 X13.8523 Y16.8385 
G01 X13.9082 Y16.8235 
G01 X13.9298 Y16.8177 
G01 X14.0102 Y16.8177 
G01 X14.0877 Y16.8385 
G01 X14.1557 Y16.8778 
G01 X14.2141 Y16.9355 
G01 X14.2746 Y16.9960 
G01 X14.3118 Y17.0114 
G01 X15.0429 Y17.0114 
G01 X15.0629 Y17.0088 
G01 X15.0829 Y17.0114 
G01 X15.1030 Y17.0114 
G01 X15.1225 Y17.0166 
G01 X15.1315 Y17.0178 
G01 X17.1265 Y17.0178 
G01 X17.1355 Y17.0166 
G01 X17.1550 Y17.0114 
G01 X17.1751 Y17.0114 
G01 X17.1951 Y17.0088 
G01 X17.2151 Y17.0114 
G01 X17.4382 Y17.0114 
G01 X17.4550 Y17.0044 
G01 X17.4754 Y16.9960 
G01 X17.5359 Y16.9355 
G01 X17.5888 Y16.8826 
G01 X17.5927 Y16.8787 
G01 X17.6623 Y16.8385 
G01 X17.7182 Y16.8235 
G01 X17.7398 Y16.8177 
G01 X17.8202 Y16.8177 
G01 X17.8977 Y16.8385 
G01 X17.9657 Y16.8778 
G01 X18.0241 Y16.9355 
G01 X18.0846 Y16.9960 
G01 X18.1218 Y17.0114 
G01 X18.9622 Y17.0114 
