(.../eduards/EAGLE/pcb-gcode/pcb-gcode.ulp)
(Copyright 2005 - 2012 by John Johnson)
(See readme.txt for licensing terms.)
(This file generated from the board:)
(.../New_Project/AFM_Power_board.brd)
(Current profile is .../pcb-gcode/profiles/generic.pp  )
(This file generated 12/14/23 4:16 PM)
(Settings from pcb-machine.h)
(  Tool Size)
(0.1200 )
(Z Axis Settings)
(  High     Up        Down     Drill)
(12.7000 	2.5400 	-0.1000 	-0.8128 )
(spindle on time = 3.0000)
(milling depth = -0.1000)
(text depth = -0.1270)
(tool change at 12.7000 15.2400 25.4000 )
(feed rate xy = F300.00 )
(feed rate z  = F254.00 )
(Settings from pcb-defaults.h)
(isolate min = 0.0254)
(isolate max = 0.1200)
(isolate step = 0.1200)
(Generated top outlines, top drill, )
(Unit of measure: mm)
(Metric Mode)
G21
(Absolute Coordinates)
G90
G00 X0.0000 Y0.0000 
M03
G04 P3.000000
G00 Z2.5400 
G00 X13.0394 Y28.7752 
G01 Z-0.1000 F254.00 
G01 X13.0623 Y28.9199 F300.00 
G01 X13.1076 Y29.0592 
G01 X13.1741 Y29.1897 
G01 X13.2602 Y29.3082 
G01 X13.3638 Y29.4118 
G01 X13.4823 Y29.4979 
G01 X13.6128 Y29.5644 
G01 X13.7521 Y29.6097 
G01 X13.7646 Y29.6117 
G01 X13.7646 Y29.5251 
G01 X13.7228 Y29.5168 
G01 X13.5686 Y29.4530 
G01 X13.4298 Y29.3602 
G01 X13.3118 Y29.2422 
G01 X13.2190 Y29.1034 
G01 X13.1552 Y28.9492 
G01 X13.1226 Y28.7855 
G01 X13.1226 Y28.1454 
G01 X13.0394 Y28.1454 
G01 X13.0394 Y28.7752 
G00 Z2.5400 
G00 X14.9006 Y27.1048 
G01 Z-0.1000 F254.00 
G01 X14.8777 Y26.9601 F300.00 
G01 X14.8324 Y26.8208 
G01 X14.7659 Y26.6903 
G01 X14.6798 Y26.5718 
G01 X14.5762 Y26.4682 
G01 X14.4577 Y26.3821 
G01 X14.3272 Y26.3156 
G01 X14.1879 Y26.2703 
G01 X14.1754 Y26.2683 
G01 X14.1754 Y26.3549 
G01 X14.2172 Y26.3632 
G01 X14.3714 Y26.4270 
G01 X14.5102 Y26.5198 
G01 X14.6282 Y26.6378 
G01 X14.7210 Y26.7766 
G01 X14.7848 Y26.9308 
G01 X14.8174 Y27.0945 
G01 X14.8174 Y27.7346 
G01 X14.9006 Y27.7346 
G01 X14.9006 Y27.1048 
G00 Z2.5400 
G00 X14.4577 Y29.4979 
G01 Z-0.1000 F254.00 
G01 X14.5762 Y29.4118 F300.00 
G01 X14.6798 Y29.3082 
G01 X14.7659 Y29.1897 
G01 X14.8324 Y29.0592 
G01 X14.8777 Y28.9199 
G01 X14.9006 Y28.7752 
G01 X14.9006 Y28.1454 
G01 X14.8174 Y28.1454 
G01 X14.8174 Y28.7855 
G01 X14.7848 Y28.9492 
G01 X14.7210 Y29.1034 
G01 X14.6282 Y29.2422 
G01 X14.5102 Y29.3602 
G01 X14.3714 Y29.4530 
G01 X14.2172 Y29.5168 
G01 X14.1754 Y29.5251 
G01 X14.1754 Y29.6117 
G01 X14.1879 Y29.6097 
G01 X14.3272 Y29.5644 
G01 X14.4577 Y29.4979 
G00 Z2.5400 
G00 X13.7521 Y26.2703 
G01 Z-0.1000 F254.00 
G01 X13.6128 Y26.3156 F300.00 
G01 X13.4823 Y26.3821 
G01 X13.3638 Y26.4682 
G01 X13.2602 Y26.5718 
G01 X13.1741 Y26.6903 
G01 X13.1076 Y26.8208 
G01 X13.0623 Y26.9601 
G01 X13.0394 Y27.1048 
G01 X13.0394 Y27.7346 
G01 X13.1226 Y27.7346 
G01 X13.1226 Y27.0945 
G01 X13.1552 Y26.9308 
G01 X13.2190 Y26.7766 
G01 X13.3118 Y26.6378 
G01 X13.4298 Y26.5198 
G01 X13.5686 Y26.4270 
G01 X13.7228 Y26.3632 
G01 X13.7646 Y26.3549 
G01 X13.7646 Y26.2683 
G01 X13.7521 Y26.2703 
G00 Z2.5400 
G00 X19.7642 Y51.0011 
G01 Z-0.1000 F254.00 
G01 X19.3008 Y50.8092 F300.00 
G01 X18.7992 Y50.8092 
G01 X18.3358 Y51.0011 
G01 X17.9811 Y51.3558 
G01 X17.9254 Y51.4904 
G01 X17.9044 Y51.5411 
G01 X17.9033 Y51.5438 
G01 X17.8624 Y51.5847 
G01 X17.8096 Y51.6066 
G01 X17.7511 Y51.6069 
G01 X17.6992 Y51.5854 
G01 X17.6567 Y51.5438 
G01 X17.5788 Y51.3558 
G01 X17.2242 Y51.0011 
G01 X16.7608 Y50.8092 
G01 X16.2592 Y50.8092 
G01 X15.7958 Y51.0011 
G01 X15.4411 Y51.3558 
G01 X15.3854 Y51.4904 
G01 X15.3644 Y51.5411 
G01 X15.3633 Y51.5438 
G01 X15.3224 Y51.5847 
G01 X15.2696 Y51.6066 
G01 X15.2111 Y51.6069 
G01 X15.1592 Y51.5854 
G01 X15.1167 Y51.5438 
G01 X15.0389 Y51.3558 
G01 X14.6842 Y51.0011 
G01 X14.2208 Y50.8092 
G01 X13.7192 Y50.8092 
G01 X13.2558 Y51.0011 
G01 X12.9011 Y51.3558 
G01 X12.8454 Y51.4904 
G01 X12.8244 Y51.5411 
G01 X12.8233 Y51.5438 
G01 X12.7824 Y51.5847 
G01 X12.7296 Y51.6066 
G01 X12.6711 Y51.6069 
G01 X12.6192 Y51.5854 
G01 X12.5767 Y51.5438 
G01 X12.4989 Y51.3558 
G01 X12.1442 Y51.0011 
G01 X11.6808 Y50.8092 
G01 X11.1792 Y50.8092 
G01 X10.7158 Y51.0011 
G01 X10.3611 Y51.3558 
G01 X10.3054 Y51.4904 
G01 X10.2844 Y51.5411 
G01 X10.2833 Y51.5438 
G01 X10.2424 Y51.5847 
G01 X10.1896 Y51.6066 
G01 X10.1311 Y51.6069 
G01 X10.0792 Y51.5854 
G01 X10.0367 Y51.5438 
G01 X9.9588 Y51.3558 
G01 X9.6042 Y51.0011 
G01 X9.1408 Y50.8092 
G01 X8.6392 Y50.8092 
G01 X8.1758 Y51.0011 
G01 X7.8211 Y51.3558 
G01 X7.7654 Y51.4904 
G01 X7.7444 Y51.5411 
G01 X7.7433 Y51.5438 
G01 X7.7024 Y51.5847 
G01 X7.6496 Y51.6066 
G01 X7.5911 Y51.6069 
G01 X7.5392 Y51.5854 
G01 X7.4967 Y51.5438 
G01 X7.4188 Y51.3558 
G01 X7.0642 Y51.0011 
G01 X6.6008 Y50.8092 
G01 X6.0992 Y50.8092 
G01 X5.6358 Y51.0011 
G01 X5.2811 Y51.3558 
G01 X5.0892 Y51.8192 
G01 X5.0892 Y52.3208 
G01 X5.2811 Y52.7842 
G01 X5.6358 Y53.1389 
G01 X6.0992 Y53.3308 
G01 X6.6008 Y53.3308 
G01 X7.0642 Y53.1389 
G01 X7.4188 Y52.7842 
G01 X7.4967 Y52.5962 
G01 X7.5376 Y52.5553 
G01 X7.5911 Y52.5331 
G01 X7.6489 Y52.5331 
G01 X7.7024 Y52.5553 
G01 X7.7433 Y52.5962 
G01 X7.7654 Y52.6496 
G01 X7.8211 Y52.7842 
G01 X8.1758 Y53.1389 
G01 X8.6392 Y53.3308 
G01 X9.1408 Y53.3308 
G01 X9.6042 Y53.1389 
G01 X9.9588 Y52.7842 
G01 X10.0367 Y52.5962 
G01 X10.0776 Y52.5553 
G01 X10.1311 Y52.5331 
G01 X10.1889 Y52.5331 
G01 X10.2424 Y52.5553 
G01 X10.2833 Y52.5962 
G01 X10.3054 Y52.6496 
G01 X10.3611 Y52.7842 
G01 X10.7158 Y53.1389 
G01 X11.1792 Y53.3308 
G01 X11.6808 Y53.3308 
G01 X12.1442 Y53.1389 
G01 X12.4989 Y52.7842 
G01 X12.5767 Y52.5962 
G01 X12.6176 Y52.5553 
G01 X12.6711 Y52.5331 
G01 X12.7289 Y52.5331 
G01 X12.7824 Y52.5553 
G01 X12.8233 Y52.5962 
G01 X12.8454 Y52.6496 
G01 X12.9011 Y52.7842 
G01 X13.2558 Y53.1389 
G01 X13.7192 Y53.3308 
G01 X14.2208 Y53.3308 
G01 X14.6842 Y53.1389 
G01 X15.0389 Y52.7842 
G01 X15.1167 Y52.5962 
G01 X15.1576 Y52.5553 
G01 X15.2111 Y52.5331 
G01 X15.2689 Y52.5331 
G01 X15.3224 Y52.5553 
G01 X15.3633 Y52.5962 
G01 X15.3854 Y52.6496 
G01 X15.4411 Y52.7842 
G01 X15.7958 Y53.1389 
G01 X16.2592 Y53.3308 
G01 X16.7608 Y53.3308 
G01 X17.2242 Y53.1389 
G01 X17.5788 Y52.7842 
G01 X17.6567 Y52.5962 
G01 X17.6976 Y52.5553 
G01 X17.7511 Y52.5331 
G01 X17.8089 Y52.5331 
G01 X17.8624 Y52.5553 
G01 X17.9033 Y52.5962 
G01 X17.9254 Y52.6496 
G01 X17.9811 Y52.7842 
G01 X18.3358 Y53.1389 
G01 X18.7992 Y53.3308 
G01 X19.3008 Y53.3308 
G01 X19.7642 Y53.1389 
G01 X20.1189 Y52.7842 
G01 X20.3108 Y52.3208 
G01 X20.3108 Y51.8192 
G01 X20.1189 Y51.3558 
G01 X19.7642 Y51.0011 
G00 Z2.5400 
G00 X7.3752 Y51.9690 
G01 Z-0.1000 F254.00 
G01 X7.3752 Y52.1710 F300.00 
G01 X7.3358 Y52.3690 
G01 X7.2585 Y52.5556 
G01 X7.1463 Y52.7235 
G01 X7.0035 Y52.8663 
G01 X6.8356 Y52.9785 
G01 X6.6490 Y53.0558 
G01 X6.4510 Y53.0952 
G01 X6.2490 Y53.0952 
G01 X6.0510 Y53.0558 
G01 X5.8644 Y52.9785 
G01 X5.6965 Y52.8663 
G01 X5.5537 Y52.7235 
G01 X5.4415 Y52.5556 
G01 X5.3642 Y52.3690 
G01 X5.3248 Y52.1710 
G01 X5.3248 Y51.9690 
G01 X5.3642 Y51.7710 
G01 X5.4415 Y51.5844 
G01 X5.5537 Y51.4165 
G01 X5.6965 Y51.2737 
G01 X5.8644 Y51.1615 
G01 X6.0510 Y51.0842 
G01 X6.2490 Y51.0448 
G01 X6.4510 Y51.0448 
G01 X6.6490 Y51.0842 
G01 X6.8356 Y51.1615 
G01 X7.0035 Y51.2737 
G01 X7.1463 Y51.4165 
G01 X7.2585 Y51.5844 
G01 X7.3358 Y51.7710 
G01 X7.3752 Y51.9690 
G00 Z2.5400 
G00 X9.9152 Y51.9690 
G01 Z-0.1000 F254.00 
G01 X9.9152 Y52.1710 F300.00 
G01 X9.8758 Y52.3690 
G01 X9.7985 Y52.5556 
G01 X9.6863 Y52.7235 
G01 X9.5435 Y52.8663 
G01 X9.3756 Y52.9785 
G01 X9.1890 Y53.0558 
G01 X8.9910 Y53.0952 
G01 X8.7890 Y53.0952 
G01 X8.5910 Y53.0558 
G01 X8.4044 Y52.9785 
G01 X8.2365 Y52.8663 
G01 X8.0937 Y52.7235 
G01 X7.9815 Y52.5556 
G01 X7.9042 Y52.3690 
G01 X7.8648 Y52.1710 
G01 X7.8648 Y51.9690 
G01 X7.9042 Y51.7710 
G01 X7.9815 Y51.5844 
G01 X8.0937 Y51.4165 
G01 X8.2365 Y51.2737 
G01 X8.4044 Y51.1615 
G01 X8.5910 Y51.0842 
G01 X8.7890 Y51.0448 
G01 X8.9910 Y51.0448 
G01 X9.1890 Y51.0842 
G01 X9.3756 Y51.1615 
G01 X9.5435 Y51.2737 
G01 X9.6863 Y51.4165 
G01 X9.7985 Y51.5844 
G01 X9.8758 Y51.7710 
G01 X9.9152 Y51.9690 
G00 Z2.5400 
G00 X12.4552 Y51.9690 
G01 Z-0.1000 F254.00 
G01 X12.4552 Y52.1710 F300.00 
G01 X12.4158 Y52.3690 
G01 X12.3385 Y52.5556 
G01 X12.2263 Y52.7235 
G01 X12.0835 Y52.8663 
G01 X11.9156 Y52.9785 
G01 X11.7290 Y53.0558 
G01 X11.5310 Y53.0952 
G01 X11.3290 Y53.0952 
G01 X11.1310 Y53.0558 
G01 X10.9444 Y52.9785 
G01 X10.7765 Y52.8663 
G01 X10.6337 Y52.7235 
G01 X10.5215 Y52.5556 
G01 X10.4442 Y52.3690 
G01 X10.4048 Y52.1710 
G01 X10.4048 Y51.9690 
G01 X10.4442 Y51.7710 
G01 X10.5215 Y51.5844 
G01 X10.6337 Y51.4165 
G01 X10.7765 Y51.2737 
G01 X10.9444 Y51.1615 
G01 X11.1310 Y51.0842 
G01 X11.3290 Y51.0448 
G01 X11.5310 Y51.0448 
G01 X11.7290 Y51.0842 
G01 X11.9156 Y51.1615 
G01 X12.0835 Y51.2737 
G01 X12.2263 Y51.4165 
G01 X12.3385 Y51.5844 
G01 X12.4158 Y51.7710 
G01 X12.4552 Y51.9690 
G00 Z2.5400 
G00 X14.9952 Y51.9690 
G01 Z-0.1000 F254.00 
G01 X14.9952 Y52.1710 F300.00 
G01 X14.9558 Y52.3690 
G01 X14.8785 Y52.5556 
G01 X14.7663 Y52.7235 
G01 X14.6235 Y52.8663 
G01 X14.4556 Y52.9785 
G01 X14.2690 Y53.0558 
G01 X14.0710 Y53.0952 
G01 X13.8690 Y53.0952 
G01 X13.6710 Y53.0558 
G01 X13.4844 Y52.9785 
G01 X13.3165 Y52.8663 
G01 X13.1737 Y52.7235 
G01 X13.0615 Y52.5556 
G01 X12.9842 Y52.3690 
G01 X12.9448 Y52.1710 
G01 X12.9448 Y51.9690 
G01 X12.9842 Y51.7710 
G01 X13.0615 Y51.5844 
G01 X13.1737 Y51.4165 
G01 X13.3165 Y51.2737 
G01 X13.4844 Y51.1615 
G01 X13.6710 Y51.0842 
G01 X13.8690 Y51.0448 
G01 X14.0710 Y51.0448 
G01 X14.2690 Y51.0842 
G01 X14.4556 Y51.1615 
G01 X14.6235 Y51.2737 
G01 X14.7663 Y51.4165 
G01 X14.8785 Y51.5844 
G01 X14.9558 Y51.7710 
G01 X14.9952 Y51.9690 
G00 Z2.5400 
G00 X17.5352 Y51.9690 
G01 Z-0.1000 F254.00 
G01 X17.5352 Y52.1710 F300.00 
G01 X17.4958 Y52.3690 
G01 X17.4185 Y52.5556 
G01 X17.3063 Y52.7235 
G01 X17.1635 Y52.8663 
G01 X16.9956 Y52.9785 
G01 X16.8090 Y53.0558 
G01 X16.6110 Y53.0952 
G01 X16.4090 Y53.0952 
G01 X16.2110 Y53.0558 
G01 X16.0244 Y52.9785 
G01 X15.8565 Y52.8663 
G01 X15.7137 Y52.7235 
G01 X15.6015 Y52.5556 
G01 X15.5242 Y52.3690 
G01 X15.4848 Y52.1710 
G01 X15.4848 Y51.9690 
G01 X15.5242 Y51.7710 
G01 X15.6015 Y51.5844 
G01 X15.7137 Y51.4165 
G01 X15.8565 Y51.2737 
G01 X16.0244 Y51.1615 
G01 X16.2110 Y51.0842 
G01 X16.4090 Y51.0448 
G01 X16.6110 Y51.0448 
G01 X16.8090 Y51.0842 
G01 X16.9956 Y51.1615 
G01 X17.1635 Y51.2737 
G01 X17.3063 Y51.4165 
G01 X17.4185 Y51.5844 
G01 X17.4958 Y51.7710 
G01 X17.5352 Y51.9690 
G00 Z2.5400 
G00 X20.0752 Y51.9690 
G01 Z-0.1000 F254.00 
G01 X20.0752 Y52.1710 F300.00 
G01 X20.0358 Y52.3690 
G01 X19.9585 Y52.5556 
G01 X19.8463 Y52.7235 
G01 X19.7035 Y52.8663 
G01 X19.5356 Y52.9785 
G01 X19.3490 Y53.0558 
G01 X19.1510 Y53.0952 
G01 X18.9490 Y53.0952 
G01 X18.7510 Y53.0558 
G01 X18.5644 Y52.9785 
G01 X18.3965 Y52.8663 
G01 X18.2537 Y52.7235 
G01 X18.1415 Y52.5556 
G01 X18.0642 Y52.3690 
G01 X18.0248 Y52.1710 
G01 X18.0248 Y51.9690 
G01 X18.0642 Y51.7710 
G01 X18.1415 Y51.5844 
G01 X18.2537 Y51.4165 
G01 X18.3965 Y51.2737 
G01 X18.5644 Y51.1615 
G01 X18.7510 Y51.0842 
G01 X18.9490 Y51.0448 
G01 X19.1510 Y51.0448 
G01 X19.3490 Y51.0842 
G01 X19.5356 Y51.1615 
G01 X19.7035 Y51.2737 
G01 X19.8463 Y51.4165 
G01 X19.9585 Y51.5844 
G01 X20.0358 Y51.7710 
G01 X20.0752 Y51.9690 
G00 Z2.5400 
G00 X14.8966 Y13.1410 
G01 Z-0.1000 F254.00 
G01 X14.4110 Y13.6266 F300.00 
G01 X14.4110 Y13.7646 
G01 X14.4942 Y13.7646 
G01 X14.4942 Y13.6611 
G01 X14.9311 Y13.2242 
G01 X15.0346 Y13.2242 
G01 X15.0346 Y13.1410 
G01 X14.8966 Y13.1410 
G00 Z2.5400 
G00 X15.9858 Y13.6611 
G01 Z-0.1000 F254.00 
G01 X15.9858 Y13.7646 F300.00 
G01 X16.0690 Y13.7646 
G01 X16.0690 Y13.6266 
G01 X15.5834 Y13.1410 
G01 X15.4454 Y13.1410 
G01 X15.4454 Y13.2242 
G01 X15.5489 Y13.2242 
G01 X15.9858 Y13.6611 
G00 Z2.5400 
G00 X15.9858 Y14.2789 
G01 Z-0.1000 F254.00 
G01 X15.5489 Y14.7158 F300.00 
G01 X15.4454 Y14.7158 
G01 X15.4454 Y14.7990 
G01 X15.5834 Y14.7990 
G01 X16.0690 Y14.3134 
G01 X16.0690 Y14.1754 
G01 X15.9858 Y14.1754 
G01 X15.9858 Y14.2789 
G00 Z2.5400 
G00 X14.4110 Y14.3134 
G01 Z-0.1000 F254.00 
G01 X14.8966 Y14.7990 F300.00 
G01 X15.0346 Y14.7990 
G01 X15.0346 Y14.7158 
G01 X14.9311 Y14.7158 
G01 X14.4942 Y14.2789 
G01 X14.4942 Y14.1754 
G01 X14.4110 Y14.1754 
G01 X14.4110 Y14.3134 
G00 Z2.5400 
G00 X14.8966 Y19.4910 
G01 Z-0.1000 F254.00 
G01 X14.4110 Y19.9766 F300.00 
G01 X14.4110 Y20.1146 
G01 X14.4942 Y20.1146 
G01 X14.4942 Y20.0111 
G01 X14.9311 Y19.5742 
G01 X15.0346 Y19.5742 
G01 X15.0346 Y19.4910 
G01 X14.8966 Y19.4910 
G00 Z2.5400 
G00 X15.9858 Y20.0111 
G01 Z-0.1000 F254.00 
G01 X15.9858 Y20.1146 F300.00 
G01 X16.0690 Y20.1146 
G01 X16.0690 Y19.9766 
G01 X15.5834 Y19.4910 
G01 X15.4454 Y19.4910 
G01 X15.4454 Y19.5742 
G01 X15.5489 Y19.5742 
G01 X15.9858 Y20.0111 
G00 Z2.5400 
G00 X15.9858 Y20.6289 
G01 Z-0.1000 F254.00 
G01 X15.5489 Y21.0658 F300.00 
G01 X15.4454 Y21.0658 
G01 X15.4454 Y21.1490 
G01 X15.5834 Y21.1490 
G01 X16.0690 Y20.6634 
G01 X16.0690 Y20.5254 
G01 X15.9858 Y20.5254 
G01 X15.9858 Y20.6289 
G00 Z2.5400 
G00 X14.4110 Y20.6634 
G01 Z-0.1000 F254.00 
G01 X14.8966 Y21.1490 F300.00 
G01 X15.0346 Y21.1490 
G01 X15.0346 Y21.0658 
G01 X14.9311 Y21.0658 
G01 X14.4942 Y20.6289 
G01 X14.4942 Y20.5254 
G01 X14.4110 Y20.5254 
G01 X14.4110 Y20.6634 
G00 Z2.5400 
G00 X23.3010 Y42.2534 
G01 Z-0.1000 F254.00 
G01 X23.7866 Y42.7390 F300.00 
G01 X23.9246 Y42.7390 
G01 X23.9246 Y42.6558 
G01 X23.8211 Y42.6558 
G01 X23.3842 Y42.2189 
G01 X23.3842 Y42.1154 
G01 X23.3010 Y42.1154 
G01 X23.3010 Y42.2534 
G00 Z2.5400 
G00 X24.8758 Y42.2189 
G01 Z-0.1000 F254.00 
G01 X24.4389 Y42.6558 F300.00 
G01 X24.3354 Y42.6558 
G01 X24.3354 Y42.7390 
G01 X24.4734 Y42.7390 
G01 X24.9590 Y42.2534 
G01 X24.9590 Y42.1154 
G01 X24.8758 Y42.1154 
G01 X24.8758 Y42.2189 
G00 Z2.5400 
G00 X24.8758 Y41.6011 
G01 Z-0.1000 F254.00 
G01 X24.8758 Y41.7046 F300.00 
G01 X24.9590 Y41.7046 
G01 X24.9590 Y41.5666 
G01 X24.4734 Y41.0810 
G01 X24.3354 Y41.0810 
G01 X24.3354 Y41.1642 
G01 X24.4389 Y41.1642 
G01 X24.8758 Y41.6011 
G00 Z2.5400 
G00 X23.7866 Y41.0810 
G01 Z-0.1000 F254.00 
G01 X23.3010 Y41.5666 F300.00 
G01 X23.3010 Y41.7046 
G01 X23.3842 Y41.7046 
G01 X23.3842 Y41.6011 
G01 X23.8211 Y41.1642 
G01 X23.9246 Y41.1642 
G01 X23.9246 Y41.0810 
G01 X23.7866 Y41.0810 
G00 Z2.5400 
G00 X23.7866 Y36.0010 
G01 Z-0.1000 F254.00 
G01 X23.3010 Y36.4866 F300.00 
G01 X23.3010 Y36.6246 
G01 X23.3842 Y36.6246 
G01 X23.3842 Y36.5211 
G01 X23.8211 Y36.0842 
G01 X23.9246 Y36.0842 
G01 X23.9246 Y36.0010 
G01 X23.7866 Y36.0010 
G00 Z2.5400 
G00 X24.8758 Y36.5211 
G01 Z-0.1000 F254.00 
G01 X24.8758 Y36.6246 F300.00 
G01 X24.9590 Y36.6246 
G01 X24.9590 Y36.4866 
G01 X24.4734 Y36.0010 
G01 X24.3354 Y36.0010 
G01 X24.3354 Y36.0842 
G01 X24.4389 Y36.0842 
G01 X24.8758 Y36.5211 
G00 Z2.5400 
G00 X24.8758 Y37.1389 
G01 Z-0.1000 F254.00 
G01 X24.4389 Y37.5758 F300.00 
G01 X24.3354 Y37.5758 
G01 X24.3354 Y37.6590 
G01 X24.4734 Y37.6590 
G01 X24.9590 Y37.1734 
G01 X24.9590 Y37.0354 
G01 X24.8758 Y37.0354 
G01 X24.8758 Y37.1389 
G00 Z2.5400 
G00 X23.3010 Y37.1734 
G01 Z-0.1000 F254.00 
G01 X23.7866 Y37.6590 F300.00 
G01 X23.9246 Y37.6590 
G01 X23.9246 Y37.5758 
G01 X23.8211 Y37.5758 
G01 X23.3842 Y37.1389 
G01 X23.3842 Y37.0354 
G01 X23.3010 Y37.0354 
G01 X23.3010 Y37.1734 
G00 Z2.5400 
G00 X33.1046 Y15.6070 
G01 Z-0.1000 F254.00 
G01 X33.1046 Y15.4454 F300.00 
G01 X33.0214 Y15.4454 
G01 X33.0214 Y15.6122 
G01 X33.0329 Y15.6551 
G01 X33.0551 Y15.6935 
G01 X33.0865 Y15.7249 
G01 X33.1249 Y15.7471 
G01 X33.1678 Y15.7586 
G01 X33.3596 Y15.7586 
G01 X33.3596 Y15.6754 
G01 X33.1730 Y15.6754 
G01 X33.1416 Y15.6624 
G01 X33.1176 Y15.6384 
G01 X33.1046 Y15.6070 
G00 Z2.5400 
G00 X19.7698 Y18.0158 
G01 Z-0.1000 F254.00 
G01 X19.8188 Y18.1665 F300.00 
G01 X19.8907 Y18.3077 
G01 X19.9839 Y18.4359 
G01 X20.0959 Y18.5479 
G01 X20.2241 Y18.6411 
G01 X20.3653 Y18.7130 
G01 X20.5160 Y18.7620 
G01 X20.6726 Y18.7868 
G01 X21.3846 Y18.7868 
G01 X21.3846 Y18.7036 
G01 X20.6608 Y18.7036 
G01 X20.4824 Y18.6681 
G01 X20.3143 Y18.5985 
G01 X20.1630 Y18.4974 
G01 X20.0344 Y18.3688 
G01 X19.9333 Y18.2175 
G01 X19.8637 Y18.0494 
G01 X19.8510 Y17.9854 
G01 X19.7650 Y17.9854 
G01 X19.7698 Y18.0158 
G00 Z2.5400 
G00 X12.4081 Y26.7094 
G01 Z-0.1000 F254.00 
G01 X12.3979 Y26.6846 F300.00 
G01 X12.3860 Y26.6560 
G01 X12.3860 Y22.6698 
G01 X12.2405 Y22.3185 
G01 X11.9306 Y22.0086 
G01 X11.1381 Y21.2161 
G01 X11.1160 Y21.1627 
G01 X11.1160 Y20.7832 
G01 X11.1381 Y20.7298 
G01 X11.1414 Y20.7265 
G01 X11.1414 Y19.9135 
G01 X11.1381 Y19.9102 
G01 X11.1160 Y19.8568 
G01 X11.1160 Y14.4332 
G01 X11.1381 Y14.3798 
G01 X11.1414 Y14.3765 
G01 X11.1414 Y13.5635 
G01 X11.1381 Y13.5602 
G01 X11.1160 Y13.5068 
G01 X11.1160 Y13.1273 
G01 X11.1381 Y13.0739 
G01 X11.1790 Y13.0329 
G01 X13.0739 Y11.1381 
G01 X13.1273 Y11.1160 
G01 X16.0827 Y11.1160 
G01 X16.1361 Y11.1381 
G01 X16.1770 Y11.1790 
G01 X19.6659 Y14.6678 
G01 X19.6880 Y14.7213 
G01 X19.6880 Y14.7791 
G01 X19.6659 Y14.8326 
G01 X19.5926 Y15.0094 
G01 X19.5926 Y15.4706 
G01 X19.7691 Y15.8966 
G01 X20.0952 Y16.2227 
G01 X20.5212 Y16.3992 
G01 X22.6588 Y16.3992 
G01 X23.0848 Y16.2227 
G01 X23.4109 Y15.8966 
G01 X23.5874 Y15.4706 
G01 X23.5874 Y15.0094 
G01 X23.4109 Y14.5834 
G01 X23.0848 Y14.2573 
G01 X22.6588 Y14.0808 
G01 X21.8141 Y14.0808 
G01 X21.7607 Y14.0587 
G01 X21.7197 Y14.0178 
G01 X17.3205 Y9.6185 
G01 X17.0515 Y9.3495 
G01 X16.7002 Y9.2040 
G01 X12.5098 Y9.2040 
G01 X12.1585 Y9.3495 
G01 X9.3495 Y12.1585 
G01 X9.2040 Y12.5098 
G01 X9.2040 Y13.5068 
G01 X9.1819 Y13.5602 
G01 X9.1786 Y13.5635 
G01 X9.1786 Y14.3765 
G01 X9.1819 Y14.3798 
G01 X9.2040 Y14.4332 
G01 X9.2040 Y19.8568 
G01 X9.1819 Y19.9102 
G01 X9.1786 Y19.9135 
G01 X9.1786 Y20.7265 
G01 X9.1819 Y20.7298 
G01 X9.2040 Y20.7832 
G01 X9.2040 Y21.7802 
G01 X9.3495 Y22.1315 
G01 X10.4519 Y23.2339 
G01 X10.4740 Y23.2873 
G01 X10.4740 Y26.6560 
G01 X10.4519 Y26.7094 
G01 X10.3470 Y26.9626 
G01 X10.3470 Y28.9174 
G01 X10.4519 Y29.1706 
G01 X10.4621 Y29.1954 
G01 X10.4740 Y29.2240 
G01 X10.4740 Y43.3702 
G01 X10.6195 Y43.7215 
G01 X14.3886 Y47.4906 
G01 X14.6985 Y47.8005 
G01 X15.0498 Y47.9460 
G01 X44.0227 Y47.9460 
G01 X44.0761 Y47.9681 
G01 X44.1170 Y48.0090 
G01 X48.2471 Y52.1391 
G01 X48.2692 Y52.1925 
G01 X48.2692 Y53.2606 
G01 X48.4611 Y53.7240 
G01 X48.8158 Y54.0787 
G01 X49.2792 Y54.2706 
G01 X49.7808 Y54.2706 
G01 X50.2442 Y54.0787 
G01 X50.5989 Y53.7240 
G01 X50.6767 Y53.5360 
G01 X50.7176 Y53.4951 
G01 X50.7711 Y53.4729 
G01 X50.8289 Y53.4729 
G01 X50.8824 Y53.4951 
G01 X50.9233 Y53.5360 
G01 X50.9454 Y53.5894 
G01 X51.0011 Y53.7240 
G01 X51.3558 Y54.0787 
G01 X51.8192 Y54.2706 
G01 X52.3208 Y54.2706 
G01 X52.7842 Y54.0787 
G01 X53.1389 Y53.7240 
G01 X53.2806 Y53.3818 
G01 X53.2810 Y53.3759 
G01 X53.2916 Y53.3553 
G01 X53.3005 Y53.3338 
G01 X53.3046 Y53.3297 
G01 X53.3073 Y53.3244 
G01 X53.3249 Y53.3093 
G01 X53.3414 Y53.2929 
G01 X53.3468 Y53.2907 
G01 X53.3513 Y53.2868 
G01 X53.3734 Y53.2797 
G01 X53.3948 Y53.2708 
G01 X53.4007 Y53.2708 
G01 X53.4063 Y53.2690 
G01 X53.4294 Y53.2708 
G01 X53.4526 Y53.2708 
G01 X53.4581 Y53.2730 
G01 X53.4640 Y53.2735 
G01 X53.4846 Y53.2840 
G01 X53.5061 Y53.2929 
G01 X53.5102 Y53.2971 
G01 X53.5155 Y53.2998 
G01 X53.5306 Y53.3174 
G01 X53.5470 Y53.3338 
G01 X53.5492 Y53.3393 
G01 X53.5531 Y53.3438 
G01 X53.5602 Y53.3658 
G01 X53.5691 Y53.3873 
G01 X53.5691 Y53.3932 
G01 X53.5828 Y53.4353 
G01 X53.6620 Y53.5907 
G01 X53.7646 Y53.7319 
G01 X53.8879 Y53.8552 
G01 X54.0291 Y53.9578 
G01 X54.1845 Y54.0370 
G01 X54.3504 Y54.0909 
G01 X54.4046 Y54.0995 
G01 X54.4046 Y54.0142 
G01 X54.3110 Y53.9956 
G01 X54.1244 Y53.9183 
G01 X53.9565 Y53.8061 
G01 X53.8137 Y53.6633 
G01 X53.7015 Y53.4954 
G01 X53.6242 Y53.3088 
G01 X53.5848 Y53.1108 
G01 X53.5848 Y51.0292 
G01 X53.6242 Y50.8312 
G01 X53.7015 Y50.6446 
G01 X53.8137 Y50.4767 
G01 X53.9565 Y50.3339 
G01 X54.1244 Y50.2217 
G01 X54.3110 Y50.1444 
G01 X54.4046 Y50.1258 
G01 X54.4046 Y50.0405 
G01 X54.3504 Y50.0491 
G01 X54.1845 Y50.1030 
G01 X54.0291 Y50.1822 
G01 X53.8879 Y50.2848 
G01 X53.7646 Y50.4081 
G01 X53.6620 Y50.5493 
G01 X53.5828 Y50.7047 
G01 X53.5691 Y50.7468 
G01 X53.5691 Y50.7527 
G01 X53.5602 Y50.7742 
G01 X53.5531 Y50.7962 
G01 X53.5492 Y50.8007 
G01 X53.5470 Y50.8062 
G01 X53.5306 Y50.8226 
G01 X53.5155 Y50.8402 
G01 X53.5102 Y50.8429 
G01 X53.5061 Y50.8471 
G01 X53.4846 Y50.8559 
G01 X53.4640 Y50.8665 
G01 X53.4581 Y50.8669 
G01 X53.4526 Y50.8692 
G01 X53.4294 Y50.8692 
G01 X53.4063 Y50.8710 
G01 X53.4007 Y50.8692 
G01 X53.3948 Y50.8692 
G01 X53.3734 Y50.8603 
G01 X53.3513 Y50.8532 
G01 X53.3468 Y50.8493 
G01 X53.3414 Y50.8471 
G01 X53.3249 Y50.8307 
G01 X53.3073 Y50.8156 
G01 X53.3046 Y50.8103 
G01 X53.3005 Y50.8062 
G01 X53.2916 Y50.7847 
G01 X53.2810 Y50.7641 
G01 X53.2806 Y50.7582 
G01 X53.1389 Y50.4160 
G01 X53.0481 Y50.3253 
G01 X53.0260 Y50.2719 
G01 X53.0260 Y49.3398 
G01 X52.8805 Y48.9885 
G01 X45.2605 Y41.3685 
G01 X44.9915 Y41.0995 
G01 X44.6402 Y40.9540 
G01 X30.2825 Y40.9540 
G01 X30.2290 Y40.9319 
G01 X30.1881 Y40.8910 
G01 X30.1660 Y40.8375 
G01 X30.1660 Y37.3511 
G01 X30.1660 Y37.3224 
G01 X30.1660 Y37.2932 
G01 X30.1711 Y37.2809 
G01 X30.1881 Y37.2398 
G01 X30.1914 Y37.2365 
G01 X30.1914 Y36.4235 
G01 X30.1881 Y36.4202 
G01 X30.1716 Y36.3804 
G01 X30.1660 Y36.3668 
G01 X30.1660 Y36.3382 
G01 X30.1660 Y36.3090 
G01 X30.1660 Y31.5598 
G01 X30.0205 Y31.2085 
G01 X29.7106 Y30.8986 
G01 X27.4805 Y28.6685 
G01 X27.2115 Y28.3995 
G01 X26.8602 Y28.2540 
G01 X18.2073 Y28.2540 
G01 X18.1539 Y28.2319 
G01 X18.1129 Y28.1910 
G01 X17.9443 Y28.0224 
G01 X17.9222 Y27.9689 
G01 X17.9222 Y27.9111 
G01 X17.9443 Y27.8576 
G01 X17.9852 Y27.8167 
G01 X19.4239 Y26.3781 
G01 X19.4773 Y26.3560 
G01 X24.9368 Y26.3560 
G01 X24.9902 Y26.3781 
G01 X24.9935 Y26.3814 
G01 X25.8065 Y26.3814 
G01 X26.3814 Y25.8065 
G01 X26.3814 Y24.9935 
G01 X25.8065 Y24.4186 
G01 X24.9935 Y24.4186 
G01 X24.9902 Y24.4219 
G01 X24.9368 Y24.4440 
G01 X18.8598 Y24.4440 
G01 X18.5085 Y24.5895 
G01 X18.2395 Y24.8585 
G01 X18.1986 Y24.8994 
G01 X16.9700 Y26.1281 
G01 X16.9165 Y26.1502 
G01 X16.8587 Y26.1502 
G01 X16.8052 Y26.1281 
G01 X16.7254 Y26.0950 
G01 X16.2946 Y26.0950 
G01 X15.8965 Y26.2599 
G01 X15.5919 Y26.5645 
G01 X15.4270 Y26.9626 
G01 X15.4270 Y28.9174 
G01 X15.5919 Y29.3155 
G01 X15.8965 Y29.6201 
G01 X16.2946 Y29.7850 
G01 X16.7254 Y29.7850 
G01 X16.8052 Y29.7519 
G01 X16.8238 Y29.7442 
G01 X16.8587 Y29.7298 
G01 X16.9165 Y29.7298 
G01 X16.9684 Y29.7513 
G01 X17.0109 Y29.7928 
G01 X17.2385 Y30.0205 
G01 X17.5898 Y30.1660 
G01 X26.2427 Y30.1660 
G01 X26.2961 Y30.1881 
G01 X26.3370 Y30.2290 
G01 X28.2319 Y32.1239 
G01 X28.2540 Y32.1773 
G01 X28.2540 Y36.3089 
G01 X28.2540 Y36.3376 
G01 X28.2540 Y36.3668 
G01 X28.2489 Y36.3791 
G01 X28.2319 Y36.4202 
G01 X28.2286 Y36.4235 
G01 X28.2286 Y37.2365 
G01 X28.2319 Y37.2398 
G01 X28.2484 Y37.2796 
G01 X28.2540 Y37.2932 
G01 X28.2540 Y37.3218 
G01 X28.2540 Y37.3510 
G01 X28.2540 Y41.3889 
G01 X28.2540 Y41.4176 
G01 X28.2540 Y41.4468 
G01 X28.2489 Y41.4591 
G01 X28.2319 Y41.5002 
G01 X28.2286 Y41.5035 
G01 X28.2286 Y42.3165 
G01 X28.8035 Y42.8914 
G01 X29.6165 Y42.8914 
G01 X29.6198 Y42.8881 
G01 X29.6596 Y42.8716 
G01 X29.6732 Y42.8660 
G01 X29.7018 Y42.8660 
G01 X29.7310 Y42.8660 
G01 X44.0227 Y42.8660 
G01 X44.0761 Y42.8881 
G01 X51.0919 Y49.9039 
G01 X51.1140 Y49.9573 
G01 X51.1140 Y50.2719 
G01 X51.0919 Y50.3253 
G01 X51.0510 Y50.3662 
G01 X51.0011 Y50.4160 
G01 X50.9454 Y50.5506 
G01 X50.9244 Y50.6013 
G01 X50.9233 Y50.6040 
G01 X50.8824 Y50.6449 
G01 X50.8296 Y50.6668 
G01 X50.7711 Y50.6671 
G01 X50.7192 Y50.6456 
G01 X50.6767 Y50.6040 
G01 X50.5989 Y50.4160 
G01 X50.2442 Y50.0613 
G01 X49.7808 Y49.8694 
G01 X49.2792 Y49.8694 
G01 X48.9730 Y49.9963 
G01 X48.9327 Y50.0129 
G01 X48.9195 Y50.0184 
G01 X48.8617 Y50.0184 
G01 X48.8082 Y49.9963 
G01 X48.7673 Y49.9553 
G01 X44.9915 Y46.1795 
G01 X44.6402 Y46.0340 
G01 X15.6673 Y46.0340 
G01 X15.6139 Y46.0119 
G01 X15.5729 Y45.9710 
G01 X12.4081 Y42.8061 
G01 X12.3860 Y42.7527 
G01 X12.3860 Y29.2240 
G01 X12.4081 Y29.1706 
G01 X12.5130 Y28.9174 
G01 X12.5130 Y26.9626 
G01 X12.4081 Y26.7094 
G00 Z2.5400 
G00 X26.1458 Y25.0911 
G01 Z-0.1000 F254.00 
G01 X26.1458 Y25.7089 F300.00 
G01 X25.7089 Y26.1458 
G01 X25.0911 Y26.1458 
G01 X25.0657 Y26.1204 
G01 X19.3484 Y26.1204 
G01 X17.5288 Y27.9400 
G01 X18.0784 Y28.4896 
G01 X26.7410 Y28.4896 
G01 X26.8801 Y28.5173 
G01 X27.0112 Y28.5716 
G01 X27.1292 Y28.6504 
G01 X27.2296 Y28.7508 
G01 X29.6692 Y31.1904 
G01 X29.7696 Y31.2908 
G01 X29.8484 Y31.4088 
G01 X29.9027 Y31.5399 
G01 X29.9304 Y31.6790 
G01 X29.9304 Y36.4957 
G01 X29.9558 Y36.5211 
G01 X29.9558 Y37.1389 
G01 X29.9304 Y37.1643 
G01 X29.9304 Y41.1896 
G01 X44.5210 Y41.1896 
G01 X44.6601 Y41.2173 
G01 X44.7912 Y41.2716 
G01 X44.9092 Y41.3504 
G01 X52.6296 Y49.0708 
G01 X52.7084 Y49.1888 
G01 X52.7627 Y49.3199 
G01 X52.7904 Y49.4590 
G01 X52.7904 Y50.4007 
G01 X52.8663 Y50.4767 
G01 X52.9785 Y50.6446 
G01 X53.0558 Y50.8312 
G01 X53.0952 Y51.0292 
G01 X53.0952 Y53.1108 
G01 X53.0558 Y53.3088 
G01 X52.9785 Y53.4954 
G01 X52.8663 Y53.6633 
G01 X52.7235 Y53.8061 
G01 X52.5556 Y53.9183 
G01 X52.3690 Y53.9956 
G01 X52.1710 Y54.0350 
G01 X51.9690 Y54.0350 
G01 X51.7710 Y53.9956 
G01 X51.5844 Y53.9183 
G01 X51.4165 Y53.8061 
G01 X51.2737 Y53.6633 
G01 X51.1615 Y53.4954 
G01 X51.0842 Y53.3088 
G01 X51.0448 Y53.1108 
G01 X51.0448 Y51.0292 
G01 X51.0842 Y50.8312 
G01 X51.1615 Y50.6446 
G01 X51.2737 Y50.4767 
G01 X51.3496 Y50.4007 
G01 X51.3496 Y49.8284 
G01 X44.1516 Y42.6304 
G01 X29.5443 Y42.6304 
G01 X29.5189 Y42.6558 
G01 X28.9011 Y42.6558 
G01 X28.4642 Y42.2189 
G01 X28.4642 Y41.6011 
G01 X28.4896 Y41.5757 
G01 X28.4896 Y37.1643 
G01 X28.4642 Y37.1389 
G01 X28.4642 Y36.5211 
G01 X28.4896 Y36.4957 
G01 X28.4896 Y32.0484 
G01 X26.3716 Y29.9304 
G01 X17.7090 Y29.9304 
G01 X17.5699 Y29.9027 
G01 X17.4388 Y29.8484 
G01 X17.3208 Y29.7696 
G01 X17.2204 Y29.6692 
G01 X16.9670 Y29.4158 
G01 X16.9114 Y29.4530 
G01 X16.7572 Y29.5168 
G01 X16.5935 Y29.5494 
G01 X16.4265 Y29.5494 
G01 X16.2628 Y29.5168 
G01 X16.1086 Y29.4530 
G01 X15.9698 Y29.3602 
G01 X15.8518 Y29.2422 
G01 X15.7590 Y29.1034 
G01 X15.6952 Y28.9492 
G01 X15.6626 Y28.7855 
G01 X15.6626 Y27.0945 
G01 X15.6952 Y26.9308 
G01 X15.7590 Y26.7766 
G01 X15.8518 Y26.6378 
G01 X15.9698 Y26.5198 
G01 X16.1086 Y26.4270 
G01 X16.2628 Y26.3632 
G01 X16.4265 Y26.3306 
G01 X16.5935 Y26.3306 
G01 X16.7572 Y26.3632 
G01 X16.9114 Y26.4270 
G01 X16.9670 Y26.4642 
G01 X18.4904 Y24.9408 
G01 X18.5908 Y24.8404 
G01 X18.7088 Y24.7616 
G01 X18.8399 Y24.7073 
G01 X18.9790 Y24.6796 
G01 X25.0657 Y24.6796 
G01 X25.0911 Y24.6542 
G01 X25.7089 Y24.6542 
G01 X26.1458 Y25.0911 
G00 Z2.5400 
G00 X50.5552 Y51.0292 
G01 Z-0.1000 F254.00 
G01 X50.5552 Y53.1108 F300.00 
G01 X50.5158 Y53.3088 
G01 X50.4385 Y53.4954 
G01 X50.3263 Y53.6633 
G01 X50.1835 Y53.8061 
G01 X50.0156 Y53.9183 
G01 X49.8290 Y53.9956 
G01 X49.6310 Y54.0350 
G01 X49.4290 Y54.0350 
G01 X49.2310 Y53.9956 
G01 X49.0444 Y53.9183 
G01 X48.8765 Y53.8061 
G01 X48.7337 Y53.6633 
G01 X48.6215 Y53.4954 
G01 X48.5442 Y53.3088 
G01 X48.5048 Y53.1108 
G01 X48.5048 Y52.0636 
G01 X44.1516 Y47.7104 
G01 X15.1690 Y47.7104 
G01 X15.0299 Y47.6827 
G01 X14.8988 Y47.6284 
G01 X14.7808 Y47.5496 
G01 X14.6804 Y47.4492 
G01 X10.8704 Y43.6392 
G01 X10.7916 Y43.5212 
G01 X10.7373 Y43.3901 
G01 X10.7096 Y43.2510 
G01 X10.7096 Y29.1491 
G01 X10.6790 Y29.1034 
G01 X10.6152 Y28.9492 
G01 X10.5826 Y28.7855 
G01 X10.5826 Y27.0945 
G01 X10.6152 Y26.9308 
G01 X10.6790 Y26.7766 
G01 X10.7096 Y26.7309 
G01 X10.7096 Y23.1584 
G01 X9.6004 Y22.0492 
G01 X9.5216 Y21.9312 
G01 X9.4673 Y21.8001 
G01 X9.4396 Y21.6610 
G01 X9.4396 Y20.6543 
G01 X9.4142 Y20.6289 
G01 X9.4142 Y20.0111 
G01 X9.4396 Y19.9857 
G01 X9.4396 Y14.3043 
G01 X9.4142 Y14.2789 
G01 X9.4142 Y13.6611 
G01 X9.4396 Y13.6357 
G01 X9.4396 Y12.6290 
G01 X9.4673 Y12.4899 
G01 X9.5216 Y12.3588 
G01 X9.6004 Y12.2408 
G01 X12.2408 Y9.6004 
G01 X12.3588 Y9.5216 
G01 X12.4899 Y9.4673 
G01 X12.6290 Y9.4396 
G01 X16.5810 Y9.4396 
G01 X16.7201 Y9.4673 
G01 X16.8512 Y9.5216 
G01 X16.9692 Y9.6004 
G01 X17.0696 Y9.7008 
G01 X21.6852 Y14.3164 
G01 X22.5192 Y14.3164 
G01 X22.6976 Y14.3519 
G01 X22.8657 Y14.4215 
G01 X23.0170 Y14.5226 
G01 X23.1456 Y14.6512 
G01 X23.2467 Y14.8025 
G01 X23.3163 Y14.9706 
G01 X23.3518 Y15.1490 
G01 X23.3518 Y15.3310 
G01 X23.3163 Y15.5094 
G01 X23.2467 Y15.6775 
G01 X23.1456 Y15.8288 
G01 X23.0170 Y15.9574 
G01 X22.8657 Y16.0585 
G01 X22.6976 Y16.1281 
G01 X22.5192 Y16.1636 
G01 X20.6608 Y16.1636 
G01 X20.4824 Y16.1281 
G01 X20.3143 Y16.0585 
G01 X20.1630 Y15.9574 
G01 X20.0344 Y15.8288 
G01 X19.9333 Y15.6775 
G01 X19.8637 Y15.5094 
G01 X19.8282 Y15.3310 
G01 X19.8282 Y15.1490 
G01 X19.8637 Y14.9706 
G01 X19.9333 Y14.8025 
G01 X20.0136 Y14.6824 
G01 X16.2116 Y10.8804 
G01 X12.9984 Y10.8804 
G01 X10.8804 Y12.9984 
G01 X10.8804 Y13.6357 
G01 X10.9058 Y13.6611 
G01 X10.9058 Y14.2789 
G01 X10.8804 Y14.3043 
G01 X10.8804 Y19.9857 
G01 X10.9058 Y20.0111 
G01 X10.9058 Y20.6289 
G01 X10.8804 Y20.6543 
G01 X10.8804 Y21.2916 
G01 X11.8892 Y22.3004 
G01 X11.9896 Y22.4008 
G01 X12.0684 Y22.5188 
G01 X12.1227 Y22.6499 
G01 X12.1504 Y22.7890 
G01 X12.1504 Y26.7309 
G01 X12.1810 Y26.7766 
G01 X12.2448 Y26.9308 
G01 X12.2774 Y27.0945 
G01 X12.2774 Y28.7855 
G01 X12.2448 Y28.9492 
G01 X12.1810 Y29.1034 
G01 X12.1504 Y29.1491 
G01 X12.1504 Y42.8816 
G01 X15.5384 Y46.2696 
G01 X44.5210 Y46.2696 
G01 X44.6601 Y46.2973 
G01 X44.7912 Y46.3516 
G01 X44.9092 Y46.4304 
G01 X48.8446 Y50.3658 
G01 X48.8765 Y50.3339 
G01 X49.0444 Y50.2217 
G01 X49.2310 Y50.1444 
G01 X49.4290 Y50.1050 
G01 X49.6310 Y50.1050 
G01 X49.8290 Y50.1444 
G01 X50.0156 Y50.2217 
G01 X50.1835 Y50.3339 
G01 X50.3263 Y50.4767 
G01 X50.4385 Y50.6446 
G01 X50.5158 Y50.8312 
G01 X50.5552 Y51.0292 
G00 Z2.5400 
G00 X23.2893 Y17.2523 
G01 Z-0.1000 F254.00 
G01 X23.1961 Y17.1241 F300.00 
G01 X23.0841 Y17.0121 
G01 X22.9559 Y16.9189 
G01 X22.8147 Y16.8470 
G01 X22.6640 Y16.7980 
G01 X22.5074 Y16.7732 
G01 X21.7954 Y16.7732 
G01 X21.7954 Y16.8564 
G01 X22.5192 Y16.8564 
G01 X22.6976 Y16.8919 
G01 X22.8657 Y16.9615 
G01 X23.0170 Y17.0626 
G01 X23.1456 Y17.1912 
G01 X23.2467 Y17.3425 
G01 X23.3163 Y17.5106 
G01 X23.3290 Y17.5746 
G01 X23.4150 Y17.5746 
G01 X23.4102 Y17.5442 
G01 X23.3612 Y17.3935 
G01 X23.2893 Y17.2523 
G00 Z2.5400 
G00 X20.6726 Y16.7732 
G01 Z-0.1000 F254.00 
G01 X20.5160 Y16.7980 F300.00 
G01 X20.3653 Y16.8470 
G01 X20.2241 Y16.9189 
G01 X20.0959 Y17.0121 
G01 X19.9839 Y17.1241 
G01 X19.8907 Y17.2523 
G01 X19.8188 Y17.3935 
G01 X19.7698 Y17.5442 
G01 X19.7650 Y17.5746 
G01 X19.8510 Y17.5746 
G01 X19.8637 Y17.5106 
G01 X19.9333 Y17.3425 
G01 X20.0344 Y17.1912 
G01 X20.1630 Y17.0626 
G01 X20.3143 Y16.9615 
G01 X20.4824 Y16.8919 
G01 X20.6608 Y16.8564 
G01 X21.3846 Y16.8564 
G01 X21.3846 Y16.7732 
G01 X20.6726 Y16.7732 
G00 Z2.5400 
G00 X22.5074 Y18.7868 
G01 Z-0.1000 F254.00 
G01 X22.6640 Y18.7620 F300.00 
G01 X22.8147 Y18.7130 
G01 X22.9559 Y18.6411 
G01 X23.0841 Y18.5479 
G01 X23.1961 Y18.4359 
G01 X23.2893 Y18.3077 
G01 X23.3612 Y18.1665 
G01 X23.4102 Y18.0158 
G01 X23.4150 Y17.9854 
G01 X23.3290 Y17.9854 
G01 X23.3163 Y18.0494 
G01 X23.2467 Y18.2175 
G01 X23.1456 Y18.3688 
G01 X23.0170 Y18.4974 
G01 X22.8657 Y18.5985 
G01 X22.6976 Y18.6681 
G01 X22.5192 Y18.7036 
G01 X21.7954 Y18.7036 
G01 X21.7954 Y18.7868 
G01 X22.5074 Y18.7868 
G00 Z2.5400 
G00 X33.1046 Y14.8730 
G01 Z-0.1000 F254.00 
G01 X33.1176 Y14.8416 F300.00 
G01 X33.1416 Y14.8176 
G01 X33.1730 Y14.8046 
G01 X33.3596 Y14.8046 
G01 X33.3596 Y14.7214 
G01 X33.1678 Y14.7214 
G01 X33.1249 Y14.7329 
G01 X33.0865 Y14.7551 
G01 X33.0551 Y14.7865 
G01 X33.0329 Y14.8249 
G01 X33.0214 Y14.8678 
G01 X33.0214 Y15.0346 
G01 X33.1046 Y15.0346 
G01 X33.1046 Y14.8730 
G00 Z2.5400 
G00 X55.6352 Y53.1108 
G01 Z-0.1000 F254.00 
G01 X55.5958 Y53.3088 F300.00 
G01 X55.5185 Y53.4954 
G01 X55.4063 Y53.6633 
G01 X55.2635 Y53.8061 
G01 X55.0956 Y53.9183 
G01 X54.9090 Y53.9956 
G01 X54.8154 Y54.0142 
G01 X54.8154 Y54.0995 
G01 X54.8695 Y54.0909 
G01 X55.0355 Y54.0370 
G01 X55.1909 Y53.9578 
G01 X55.3321 Y53.8552 
G01 X55.4554 Y53.7319 
G01 X55.5580 Y53.5907 
G01 X55.6372 Y53.4353 
G01 X55.6911 Y53.2693 
G01 X55.7184 Y53.0970 
G01 X55.7184 Y52.2754 
G01 X55.6352 Y52.2754 
G01 X55.6352 Y53.1108 
G00 Z2.5400 
G00 X55.6352 Y51.0292 
G01 Z-0.1000 F254.00 
G01 X55.6352 Y51.8646 F300.00 
G01 X55.7184 Y51.8646 
G01 X55.7184 Y51.0430 
G01 X55.6911 Y50.8706 
G01 X55.6372 Y50.7047 
G01 X55.5580 Y50.5493 
G01 X55.4554 Y50.4081 
G01 X55.3321 Y50.2848 
G01 X55.1909 Y50.1822 
G01 X55.0355 Y50.1030 
G01 X54.8695 Y50.0491 
G01 X54.8154 Y50.0405 
G01 X54.8154 Y50.1258 
G01 X54.9090 Y50.1444 
G01 X55.0956 Y50.2217 
G01 X55.2635 Y50.3339 
G01 X55.4063 Y50.4767 
G01 X55.5185 Y50.6446 
G01 X55.5958 Y50.8312 
G01 X55.6352 Y51.0292 
G00 Z2.5400 
G00 X41.0748 Y30.7334 
G01 Z-0.1000 F254.00 
G01 X41.1403 Y30.8914 F300.00 
G01 X41.2353 Y31.0337 
G01 X41.3563 Y31.1547 
G01 X41.4986 Y31.2497 
G01 X41.6566 Y31.3152 
G01 X41.7046 Y31.3248 
G01 X41.7046 Y31.2399 
G01 X41.6809 Y31.2352 
G01 X41.5380 Y31.1760 
G01 X41.4093 Y31.0901 
G01 X41.2999 Y30.9807 
G01 X41.2140 Y30.8520 
G01 X41.1548 Y30.7091 
G01 X41.1501 Y30.6854 
G01 X41.0652 Y30.6854 
G01 X41.0748 Y30.7334 
G00 Z2.5400 
G00 X42.7452 Y30.2266 
G01 Z-0.1000 F254.00 
G01 X42.6797 Y30.0686 F300.00 
G01 X42.5847 Y29.9263 
G01 X42.4637 Y29.8053 
G01 X42.3214 Y29.7103 
G01 X42.1634 Y29.6448 
G01 X42.1154 Y29.6352 
G01 X42.1154 Y29.7201 
G01 X42.1391 Y29.7248 
G01 X42.2820 Y29.7840 
G01 X42.4107 Y29.8699 
G01 X42.5201 Y29.9793 
G01 X42.6060 Y30.1080 
G01 X42.6652 Y30.2509 
G01 X42.6699 Y30.2746 
G01 X42.7548 Y30.2746 
G01 X42.7452 Y30.2266 
G00 Z2.5400 
G00 X42.6652 Y30.7091 
G01 Z-0.1000 F254.00 
G01 X42.6060 Y30.8520 F300.00 
G01 X42.5201 Y30.9807 
G01 X42.4107 Y31.0901 
G01 X42.2820 Y31.1760 
G01 X42.1391 Y31.2352 
G01 X42.1154 Y31.2399 
G01 X42.1154 Y31.3248 
G01 X42.1634 Y31.3152 
G01 X42.3214 Y31.2497 
G01 X42.4637 Y31.1547 
G01 X42.5847 Y31.0337 
G01 X42.6797 Y30.8914 
G01 X42.7452 Y30.7334 
G01 X42.7548 Y30.6854 
G01 X42.6699 Y30.6854 
G01 X42.6652 Y30.7091 
G00 Z2.5400 
G00 X41.6566 Y29.6448 
G01 Z-0.1000 F254.00 
G01 X41.4986 Y29.7103 F300.00 
G01 X41.3563 Y29.8053 
G01 X41.2353 Y29.9263 
G01 X41.1403 Y30.0686 
G01 X41.0748 Y30.2266 
G01 X41.0652 Y30.2746 
G01 X41.1501 Y30.2746 
G01 X41.1548 Y30.2509 
G01 X41.2140 Y30.1080 
G01 X41.2999 Y29.9793 
G01 X41.4093 Y29.8699 
G01 X41.5380 Y29.7840 
G01 X41.6809 Y29.7248 
G01 X41.7046 Y29.7201 
G01 X41.7046 Y29.6352 
G01 X41.6566 Y29.6448 
G00 Z2.5400 
G00 X37.0591 Y29.7248 
G01 Z-0.1000 F254.00 
G01 X37.2020 Y29.7840 F300.00 
G01 X37.2523 Y29.8176 
G01 X37.1477 Y29.7130 
G01 X36.9998 Y29.7130 
G01 X37.0591 Y29.7248 
G00 Z2.5400 
G00 X38.3011 Y52.7842 
G01 Z-0.1000 F254.00 
G01 X38.6558 Y53.1389 F300.00 
G01 X39.1192 Y53.3308 
G01 X39.6208 Y53.3308 
G01 X40.0842 Y53.1389 
G01 X40.4389 Y52.7842 
G01 X40.4946 Y52.6496 
G01 X40.5156 Y52.5989 
G01 X40.5167 Y52.5962 
G01 X40.5576 Y52.5553 
G01 X40.6104 Y52.5334 
G01 X40.6689 Y52.5331 
G01 X40.7208 Y52.5546 
G01 X40.7633 Y52.5962 
G01 X40.8411 Y52.7842 
G01 X41.1958 Y53.1389 
G01 X41.6592 Y53.3308 
G01 X42.1608 Y53.3308 
G01 X42.6242 Y53.1389 
G01 X42.9789 Y52.7842 
G01 X43.1708 Y52.3208 
G01 X43.1708 Y51.8192 
G01 X42.9789 Y51.3558 
G01 X42.6242 Y51.0011 
G01 X42.1608 Y50.8092 
G01 X41.6592 Y50.8092 
G01 X41.1958 Y51.0011 
G01 X40.8411 Y51.3558 
G01 X40.7633 Y51.5438 
G01 X40.7224 Y51.5847 
G01 X40.6689 Y51.6069 
G01 X40.6111 Y51.6069 
G01 X40.5576 Y51.5847 
G01 X40.5167 Y51.5438 
G01 X40.4946 Y51.4904 
G01 X40.4389 Y51.3558 
G01 X40.0842 Y51.0011 
G01 X39.6208 Y50.8092 
G01 X39.1192 Y50.8092 
G01 X38.6558 Y51.0011 
G01 X38.3011 Y51.3558 
G01 X38.2454 Y51.4904 
G01 X38.2244 Y51.5411 
G01 X38.2233 Y51.5438 
G01 X38.1824 Y51.5847 
G01 X38.1296 Y51.6066 
G01 X38.0711 Y51.6069 
G01 X38.0192 Y51.5854 
G01 X37.9767 Y51.5438 
G01 X37.8989 Y51.3558 
G01 X37.5442 Y51.0011 
G01 X37.0808 Y50.8092 
G01 X36.5792 Y50.8092 
G01 X36.1158 Y51.0011 
G01 X35.7611 Y51.3558 
G01 X35.7054 Y51.4904 
G01 X35.6844 Y51.5411 
G01 X35.6833 Y51.5438 
G01 X35.6424 Y51.5847 
G01 X35.5896 Y51.6066 
G01 X35.5311 Y51.6069 
G01 X35.4792 Y51.5854 
G01 X35.4367 Y51.5438 
G01 X35.3589 Y51.3558 
G01 X35.0042 Y51.0011 
G01 X34.5408 Y50.8092 
G01 X34.0392 Y50.8092 
G01 X33.5758 Y51.0011 
G01 X33.2211 Y51.3558 
G01 X33.1654 Y51.4904 
G01 X33.1444 Y51.5411 
G01 X33.1433 Y51.5438 
G01 X33.1024 Y51.5847 
G01 X33.0496 Y51.6066 
G01 X32.9911 Y51.6069 
G01 X32.9392 Y51.5854 
G01 X32.8967 Y51.5438 
G01 X32.8189 Y51.3558 
G01 X32.4642 Y51.0011 
G01 X32.0008 Y50.8092 
G01 X31.4992 Y50.8092 
G01 X31.0358 Y51.0011 
G01 X30.6811 Y51.3558 
G01 X30.6254 Y51.4904 
G01 X30.6044 Y51.5411 
G01 X30.6033 Y51.5438 
G01 X30.5624 Y51.5847 
G01 X30.5096 Y51.6066 
G01 X30.4511 Y51.6069 
G01 X30.3992 Y51.5854 
G01 X30.3567 Y51.5438 
G01 X30.2789 Y51.3558 
G01 X29.9242 Y51.0011 
G01 X29.4608 Y50.8092 
G01 X28.9592 Y50.8092 
G01 X28.4958 Y51.0011 
G01 X28.1411 Y51.3558 
G01 X28.0854 Y51.4904 
G01 X28.0644 Y51.5411 
G01 X28.0633 Y51.5438 
G01 X28.0224 Y51.5847 
G01 X27.9696 Y51.6066 
G01 X27.9111 Y51.6069 
G01 X27.8592 Y51.5854 
G01 X27.8167 Y51.5438 
G01 X27.7389 Y51.3558 
G01 X27.3842 Y51.0011 
G01 X26.9208 Y50.8092 
G01 X26.4192 Y50.8092 
G01 X25.9558 Y51.0011 
G01 X25.6011 Y51.3558 
G01 X25.5454 Y51.4904 
G01 X25.5244 Y51.5411 
G01 X25.5233 Y51.5438 
G01 X25.4824 Y51.5847 
G01 X25.4296 Y51.6066 
G01 X25.3711 Y51.6069 
G01 X25.3192 Y51.5854 
G01 X25.2767 Y51.5438 
G01 X25.1989 Y51.3558 
G01 X24.8442 Y51.0011 
G01 X24.3808 Y50.8092 
G01 X23.8792 Y50.8092 
G01 X23.4158 Y51.0011 
G01 X23.0611 Y51.3558 
G01 X22.8692 Y51.8192 
G01 X22.8692 Y52.3208 
G01 X23.0611 Y52.7842 
G01 X23.4158 Y53.1389 
G01 X23.8792 Y53.3308 
G01 X24.3808 Y53.3308 
G01 X24.8442 Y53.1389 
G01 X25.1989 Y52.7842 
G01 X25.2767 Y52.5962 
G01 X25.3176 Y52.5553 
G01 X25.3711 Y52.5331 
G01 X25.4289 Y52.5331 
G01 X25.4824 Y52.5553 
G01 X25.5233 Y52.5962 
G01 X25.5454 Y52.6496 
G01 X25.6011 Y52.7842 
G01 X25.9558 Y53.1389 
G01 X26.4192 Y53.3308 
G01 X26.9208 Y53.3308 
G01 X27.3842 Y53.1389 
G01 X27.7389 Y52.7842 
G01 X27.8167 Y52.5962 
G01 X27.8576 Y52.5553 
G01 X27.9111 Y52.5331 
G01 X27.9689 Y52.5331 
G01 X28.0224 Y52.5553 
G01 X28.0633 Y52.5962 
G01 X28.0854 Y52.6496 
G01 X28.1411 Y52.7842 
G01 X28.4958 Y53.1389 
G01 X28.9592 Y53.3308 
G01 X29.4608 Y53.3308 
G01 X29.9242 Y53.1389 
G01 X30.2789 Y52.7842 
G01 X30.3567 Y52.5962 
G01 X30.3976 Y52.5553 
G01 X30.4511 Y52.5331 
G01 X30.5089 Y52.5331 
G01 X30.5624 Y52.5553 
G01 X30.6033 Y52.5962 
G01 X30.6254 Y52.6496 
G01 X30.6811 Y52.7842 
G01 X31.0358 Y53.1389 
G01 X31.4992 Y53.3308 
G01 X32.0008 Y53.3308 
G01 X32.4642 Y53.1389 
G01 X32.8189 Y52.7842 
G01 X32.8967 Y52.5962 
G01 X32.9376 Y52.5553 
G01 X32.9911 Y52.5331 
G01 X33.0489 Y52.5331 
G01 X33.1024 Y52.5553 
G01 X33.1433 Y52.5962 
G01 X33.1654 Y52.6496 
G01 X33.2211 Y52.7842 
G01 X33.5758 Y53.1389 
G01 X34.0392 Y53.3308 
G01 X34.5408 Y53.3308 
G01 X35.0042 Y53.1389 
G01 X35.3589 Y52.7842 
G01 X35.4367 Y52.5962 
G01 X35.4776 Y52.5553 
G01 X35.5311 Y52.5331 
G01 X35.5889 Y52.5331 
G01 X35.6424 Y52.5553 
G01 X35.6833 Y52.5962 
G01 X35.7054 Y52.6496 
G01 X35.7611 Y52.7842 
G01 X36.1158 Y53.1389 
G01 X36.5792 Y53.3308 
G01 X37.0808 Y53.3308 
G01 X37.5442 Y53.1389 
G01 X37.8989 Y52.7842 
G01 X37.9767 Y52.5962 
G01 X38.0176 Y52.5553 
G01 X38.0711 Y52.5331 
G01 X38.1289 Y52.5331 
G01 X38.1824 Y52.5553 
G01 X38.2233 Y52.5962 
G01 X38.2454 Y52.6496 
G01 X38.3011 Y52.7842 
G00 Z2.5400 
G00 X42.9352 Y51.9690 
G01 Z-0.1000 F254.00 
G01 X42.9352 Y52.1710 F300.00 
G01 X42.8958 Y52.3690 
G01 X42.8185 Y52.5556 
G01 X42.7063 Y52.7235 
G01 X42.5635 Y52.8663 
G01 X42.3956 Y52.9785 
G01 X42.2090 Y53.0558 
G01 X42.0110 Y53.0952 
G01 X41.8090 Y53.0952 
G01 X41.6110 Y53.0558 
G01 X41.4244 Y52.9785 
G01 X41.2565 Y52.8663 
G01 X41.1137 Y52.7235 
G01 X41.0015 Y52.5556 
G01 X40.9242 Y52.3690 
G01 X40.8848 Y52.1710 
G01 X40.8848 Y51.9690 
G01 X40.9242 Y51.7710 
G01 X41.0015 Y51.5844 
G01 X41.1137 Y51.4165 
G01 X41.2565 Y51.2737 
G01 X41.4244 Y51.1615 
G01 X41.6110 Y51.0842 
G01 X41.8090 Y51.0448 
G01 X42.0110 Y51.0448 
G01 X42.2090 Y51.0842 
G01 X42.3956 Y51.1615 
G01 X42.5635 Y51.2737 
G01 X42.7063 Y51.4165 
G01 X42.8185 Y51.5844 
G01 X42.8958 Y51.7710 
G01 X42.9352 Y51.9690 
G00 Z2.5400 
G00 X40.3952 Y51.9690 
G01 Z-0.1000 F254.00 
G01 X40.3952 Y52.1710 F300.00 
G01 X40.3558 Y52.3690 
G01 X40.2785 Y52.5556 
G01 X40.1663 Y52.7235 
G01 X40.0235 Y52.8663 
G01 X39.8556 Y52.9785 
G01 X39.6690 Y53.0558 
G01 X39.4710 Y53.0952 
G01 X39.2690 Y53.0952 
G01 X39.0710 Y53.0558 
G01 X38.8844 Y52.9785 
G01 X38.7165 Y52.8663 
G01 X38.5737 Y52.7235 
G01 X38.4615 Y52.5556 
G01 X38.3842 Y52.3690 
G01 X38.3448 Y52.1710 
G01 X38.3448 Y51.9690 
G01 X38.3842 Y51.7710 
G01 X38.4615 Y51.5844 
G01 X38.5737 Y51.4165 
G01 X38.7165 Y51.2737 
G01 X38.8844 Y51.1615 
G01 X39.0710 Y51.0842 
G01 X39.2690 Y51.0448 
G01 X39.4710 Y51.0448 
G01 X39.6690 Y51.0842 
G01 X39.8556 Y51.1615 
G01 X40.0235 Y51.2737 
G01 X40.1663 Y51.4165 
G01 X40.2785 Y51.5844 
G01 X40.3558 Y51.7710 
G01 X40.3952 Y51.9690 
G00 Z2.5400 
G00 X25.1552 Y51.9690 
G01 Z-0.1000 F254.00 
G01 X25.1552 Y52.1710 F300.00 
G01 X25.1158 Y52.3690 
G01 X25.0385 Y52.5556 
G01 X24.9263 Y52.7235 
G01 X24.7835 Y52.8663 
G01 X24.6156 Y52.9785 
G01 X24.4290 Y53.0558 
G01 X24.2310 Y53.0952 
G01 X24.0290 Y53.0952 
G01 X23.8310 Y53.0558 
G01 X23.6444 Y52.9785 
G01 X23.4765 Y52.8663 
G01 X23.3337 Y52.7235 
G01 X23.2215 Y52.5556 
G01 X23.1442 Y52.3690 
G01 X23.1048 Y52.1710 
G01 X23.1048 Y51.9690 
G01 X23.1442 Y51.7710 
G01 X23.2215 Y51.5844 
G01 X23.3337 Y51.4165 
G01 X23.4765 Y51.2737 
G01 X23.6444 Y51.1615 
G01 X23.8310 Y51.0842 
G01 X24.0290 Y51.0448 
G01 X24.2310 Y51.0448 
G01 X24.4290 Y51.0842 
G01 X24.6156 Y51.1615 
G01 X24.7835 Y51.2737 
G01 X24.9263 Y51.4165 
G01 X25.0385 Y51.5844 
G01 X25.1158 Y51.7710 
G01 X25.1552 Y51.9690 
G00 Z2.5400 
G00 X27.6952 Y51.9690 
G01 Z-0.1000 F254.00 
G01 X27.6952 Y52.1710 F300.00 
G01 X27.6558 Y52.3690 
G01 X27.5785 Y52.5556 
G01 X27.4663 Y52.7235 
G01 X27.3235 Y52.8663 
G01 X27.1556 Y52.9785 
G01 X26.9690 Y53.0558 
G01 X26.7710 Y53.0952 
G01 X26.5690 Y53.0952 
G01 X26.3710 Y53.0558 
G01 X26.1844 Y52.9785 
G01 X26.0165 Y52.8663 
G01 X25.8737 Y52.7235 
G01 X25.7615 Y52.5556 
G01 X25.6842 Y52.3690 
G01 X25.6448 Y52.1710 
G01 X25.6448 Y51.9690 
G01 X25.6842 Y51.7710 
G01 X25.7615 Y51.5844 
G01 X25.8737 Y51.4165 
G01 X26.0165 Y51.2737 
G01 X26.1844 Y51.1615 
G01 X26.3710 Y51.0842 
G01 X26.5690 Y51.0448 
G01 X26.7710 Y51.0448 
G01 X26.9690 Y51.0842 
G01 X27.1556 Y51.1615 
G01 X27.3235 Y51.2737 
G01 X27.4663 Y51.4165 
G01 X27.5785 Y51.5844 
G01 X27.6558 Y51.7710 
G01 X27.6952 Y51.9690 
G00 Z2.5400 
G00 X30.2352 Y51.9690 
G01 Z-0.1000 F254.00 
G01 X30.2352 Y52.1710 F300.00 
G01 X30.1958 Y52.3690 
G01 X30.1185 Y52.5556 
G01 X30.0063 Y52.7235 
G01 X29.8635 Y52.8663 
G01 X29.6956 Y52.9785 
G01 X29.5090 Y53.0558 
G01 X29.3110 Y53.0952 
G01 X29.1090 Y53.0952 
G01 X28.9110 Y53.0558 
G01 X28.7244 Y52.9785 
G01 X28.5565 Y52.8663 
G01 X28.4137 Y52.7235 
G01 X28.3015 Y52.5556 
G01 X28.2242 Y52.3690 
G01 X28.1848 Y52.1710 
G01 X28.1848 Y51.9690 
G01 X28.2242 Y51.7710 
G01 X28.3015 Y51.5844 
G01 X28.4137 Y51.4165 
G01 X28.5565 Y51.2737 
G01 X28.7244 Y51.1615 
G01 X28.9110 Y51.0842 
G01 X29.1090 Y51.0448 
G01 X29.3110 Y51.0448 
G01 X29.5090 Y51.0842 
G01 X29.6956 Y51.1615 
G01 X29.8635 Y51.2737 
G01 X30.0063 Y51.4165 
G01 X30.1185 Y51.5844 
G01 X30.1958 Y51.7710 
G01 X30.2352 Y51.9690 
G00 Z2.5400 
G00 X32.7752 Y51.9690 
G01 Z-0.1000 F254.00 
G01 X32.7752 Y52.1710 F300.00 
G01 X32.7358 Y52.3690 
G01 X32.6585 Y52.5556 
G01 X32.5463 Y52.7235 
G01 X32.4035 Y52.8663 
G01 X32.2356 Y52.9785 
G01 X32.0490 Y53.0558 
G01 X31.8510 Y53.0952 
G01 X31.6490 Y53.0952 
G01 X31.4510 Y53.0558 
G01 X31.2644 Y52.9785 
G01 X31.0965 Y52.8663 
G01 X30.9537 Y52.7235 
G01 X30.8415 Y52.5556 
G01 X30.7642 Y52.3690 
G01 X30.7248 Y52.1710 
G01 X30.7248 Y51.9690 
G01 X30.7642 Y51.7710 
G01 X30.8415 Y51.5844 
G01 X30.9537 Y51.4165 
G01 X31.0965 Y51.2737 
G01 X31.2644 Y51.1615 
G01 X31.4510 Y51.0842 
G01 X31.6490 Y51.0448 
G01 X31.8510 Y51.0448 
G01 X32.0490 Y51.0842 
G01 X32.2356 Y51.1615 
G01 X32.4035 Y51.2737 
G01 X32.5463 Y51.4165 
G01 X32.6585 Y51.5844 
G01 X32.7358 Y51.7710 
G01 X32.7752 Y51.9690 
G00 Z2.5400 
G00 X35.3152 Y51.9690 
G01 Z-0.1000 F254.00 
G01 X35.3152 Y52.1710 F300.00 
G01 X35.2758 Y52.3690 
G01 X35.1985 Y52.5556 
G01 X35.0863 Y52.7235 
G01 X34.9435 Y52.8663 
G01 X34.7756 Y52.9785 
G01 X34.5890 Y53.0558 
G01 X34.3910 Y53.0952 
G01 X34.1890 Y53.0952 
G01 X33.9910 Y53.0558 
G01 X33.8044 Y52.9785 
G01 X33.6365 Y52.8663 
G01 X33.4937 Y52.7235 
G01 X33.3815 Y52.5556 
G01 X33.3042 Y52.3690 
G01 X33.2648 Y52.1710 
G01 X33.2648 Y51.9690 
G01 X33.3042 Y51.7710 
G01 X33.3815 Y51.5844 
G01 X33.4937 Y51.4165 
G01 X33.6365 Y51.2737 
G01 X33.8044 Y51.1615 
G01 X33.9910 Y51.0842 
G01 X34.1890 Y51.0448 
G01 X34.3910 Y51.0448 
G01 X34.5890 Y51.0842 
G01 X34.7756 Y51.1615 
G01 X34.9435 Y51.2737 
G01 X35.0863 Y51.4165 
G01 X35.1985 Y51.5844 
G01 X35.2758 Y51.7710 
G01 X35.3152 Y51.9690 
G00 Z2.5400 
G00 X37.8552 Y51.9690 
G01 Z-0.1000 F254.00 
G01 X37.8552 Y52.1710 F300.00 
G01 X37.8158 Y52.3690 
G01 X37.7385 Y52.5556 
G01 X37.6263 Y52.7235 
G01 X37.4835 Y52.8663 
G01 X37.3156 Y52.9785 
G01 X37.1290 Y53.0558 
G01 X36.9310 Y53.0952 
G01 X36.7290 Y53.0952 
G01 X36.5310 Y53.0558 
G01 X36.3444 Y52.9785 
G01 X36.1765 Y52.8663 
G01 X36.0337 Y52.7235 
G01 X35.9215 Y52.5556 
G01 X35.8442 Y52.3690 
G01 X35.8048 Y52.1710 
G01 X35.8048 Y51.9690 
G01 X35.8442 Y51.7710 
G01 X35.9215 Y51.5844 
G01 X36.0337 Y51.4165 
G01 X36.1765 Y51.2737 
G01 X36.3444 Y51.1615 
G01 X36.5310 Y51.0842 
G01 X36.7290 Y51.0448 
G01 X36.9310 Y51.0448 
G01 X37.1290 Y51.0842 
G01 X37.3156 Y51.1615 
G01 X37.4835 Y51.2737 
G01 X37.6263 Y51.4165 
G01 X37.7385 Y51.5844 
G01 X37.8158 Y51.7710 
G01 X37.8552 Y51.9690 
G00 Z2.5400 
G00 X7.8211 Y4.5242 
G01 Z-0.1000 F254.00 
G01 X8.1758 Y4.8788 F300.00 
G01 X8.6392 Y5.0708 
G01 X9.1408 Y5.0708 
G01 X9.6042 Y4.8788 
G01 X9.9588 Y4.5242 
G01 X10.0146 Y4.3896 
G01 X10.0367 Y4.3361 
G01 X10.0770 Y4.2959 
G01 X10.1083 Y4.2825 
G01 X10.1311 Y4.2731 
G01 X10.1889 Y4.2731 
G01 X10.2424 Y4.2953 
G01 X10.2826 Y4.3355 
G01 X10.2958 Y4.3665 
G01 X10.3054 Y4.3896 
G01 X10.3611 Y4.5242 
G01 X10.7158 Y4.8788 
G01 X11.1792 Y5.0708 
G01 X11.6808 Y5.0708 
G01 X12.1442 Y4.8788 
G01 X12.4989 Y4.5242 
G01 X12.5546 Y4.3896 
G01 X12.5767 Y4.3361 
G01 X12.6170 Y4.2959 
G01 X12.6483 Y4.2825 
G01 X12.6711 Y4.2731 
G01 X12.7289 Y4.2731 
G01 X12.7824 Y4.2953 
G01 X12.8226 Y4.3355 
G01 X12.8358 Y4.3665 
G01 X12.8454 Y4.3896 
G01 X12.9011 Y4.5242 
G01 X13.2558 Y4.8788 
G01 X13.7192 Y5.0708 
G01 X14.2208 Y5.0708 
G01 X14.6842 Y4.8788 
G01 X15.0389 Y4.5242 
G01 X15.0946 Y4.3896 
G01 X15.1167 Y4.3361 
G01 X15.1570 Y4.2959 
G01 X15.1883 Y4.2825 
G01 X15.2111 Y4.2731 
G01 X15.2689 Y4.2731 
G01 X15.3224 Y4.2953 
G01 X15.3626 Y4.3355 
G01 X15.3758 Y4.3665 
G01 X15.3854 Y4.3896 
G01 X15.4411 Y4.5242 
G01 X15.7958 Y4.8788 
G01 X16.2592 Y5.0708 
G01 X16.7608 Y5.0708 
G01 X17.2242 Y4.8788 
G01 X17.5789 Y4.5242 
G01 X17.6346 Y4.3896 
G01 X17.6567 Y4.3361 
G01 X17.6970 Y4.2959 
G01 X17.7283 Y4.2825 
G01 X17.7511 Y4.2731 
G01 X17.8089 Y4.2731 
G01 X17.8624 Y4.2953 
G01 X17.9026 Y4.3355 
G01 X17.9158 Y4.3665 
G01 X17.9254 Y4.3896 
G01 X17.9811 Y4.5242 
G01 X18.3358 Y4.8789 
G01 X18.7992 Y5.0708 
G01 X19.3008 Y5.0708 
G01 X19.7642 Y4.8789 
G01 X20.1189 Y4.5242 
G01 X20.1746 Y4.3896 
G01 X20.1967 Y4.3361 
G01 X20.2370 Y4.2959 
G01 X20.2683 Y4.2825 
G01 X20.2911 Y4.2731 
G01 X20.3489 Y4.2731 
G01 X20.4024 Y4.2953 
G01 X20.4426 Y4.3355 
G01 X20.4558 Y4.3665 
G01 X20.4654 Y4.3896 
G01 X20.5211 Y4.5242 
G01 X20.8758 Y4.8788 
G01 X21.3392 Y5.0708 
G01 X21.8408 Y5.0708 
G01 X22.3042 Y4.8788 
G01 X22.6589 Y4.5242 
G01 X22.7146 Y4.3896 
G01 X22.7367 Y4.3361 
G01 X22.7770 Y4.2959 
G01 X22.8083 Y4.2825 
G01 X22.8311 Y4.2731 
G01 X22.8889 Y4.2731 
G01 X22.9424 Y4.2953 
G01 X22.9826 Y4.3355 
G01 X22.9958 Y4.3665 
G01 X23.0054 Y4.3896 
G01 X23.0611 Y4.5242 
G01 X23.4158 Y4.8788 
G01 X23.8792 Y5.0708 
G01 X24.3808 Y5.0708 
G01 X24.8442 Y4.8788 
G01 X25.1989 Y4.5242 
G01 X25.3908 Y4.0608 
G01 X25.3908 Y3.5592 
G01 X25.1989 Y3.0958 
G01 X24.8442 Y2.7411 
G01 X24.3808 Y2.5492 
G01 X23.8792 Y2.5492 
G01 X23.4158 Y2.7411 
G01 X23.0611 Y3.0958 
G01 X23.0054 Y3.2304 
G01 X22.9963 Y3.2522 
G01 X22.9833 Y3.2838 
G01 X22.9424 Y3.3247 
G01 X22.8889 Y3.3469 
G01 X22.8311 Y3.3469 
G01 X22.8096 Y3.3380 
G01 X22.7776 Y3.3247 
G01 X22.7367 Y3.2838 
G01 X22.7146 Y3.2304 
G01 X22.6589 Y3.0958 
G01 X22.3042 Y2.7411 
G01 X21.8408 Y2.5492 
G01 X21.3392 Y2.5492 
G01 X20.8758 Y2.7411 
G01 X20.5211 Y3.0958 
G01 X20.4654 Y3.2304 
G01 X20.4563 Y3.2522 
G01 X20.4433 Y3.2838 
G01 X20.4024 Y3.3247 
G01 X20.3489 Y3.3469 
G01 X20.2911 Y3.3469 
G01 X20.2696 Y3.3380 
G01 X20.2376 Y3.3247 
G01 X20.1967 Y3.2838 
G01 X20.1746 Y3.2304 
G01 X20.1189 Y3.0958 
G01 X19.7642 Y2.7411 
G01 X19.3008 Y2.5492 
G01 X18.7992 Y2.5492 
G01 X18.3358 Y2.7411 
G01 X17.9811 Y3.0958 
G01 X17.9254 Y3.2304 
G01 X17.9163 Y3.2522 
G01 X17.9033 Y3.2838 
G01 X17.8624 Y3.3247 
G01 X17.8089 Y3.3469 
G01 X17.7511 Y3.3469 
G01 X17.7296 Y3.3380 
G01 X17.6976 Y3.3247 
G01 X17.6567 Y3.2838 
G01 X17.6346 Y3.2304 
G01 X17.5789 Y3.0958 
G01 X17.2242 Y2.7411 
G01 X16.7608 Y2.5492 
G01 X16.2592 Y2.5492 
G01 X15.7958 Y2.7411 
G01 X15.4411 Y3.0958 
G01 X15.3854 Y3.2304 
G01 X15.3763 Y3.2522 
G01 X15.3633 Y3.2838 
G01 X15.3224 Y3.3247 
G01 X15.2689 Y3.3469 
G01 X15.2111 Y3.3469 
G01 X15.1896 Y3.3380 
G01 X15.1576 Y3.3247 
G01 X15.1167 Y3.2838 
G01 X15.0946 Y3.2304 
G01 X15.0389 Y3.0958 
G01 X14.6842 Y2.7411 
G01 X14.2208 Y2.5492 
G01 X13.7192 Y2.5492 
G01 X13.2558 Y2.7411 
G01 X12.9011 Y3.0958 
G01 X12.8454 Y3.2304 
G01 X12.8363 Y3.2522 
G01 X12.8233 Y3.2838 
G01 X12.7824 Y3.3247 
G01 X12.7289 Y3.3469 
G01 X12.6711 Y3.3469 
G01 X12.6496 Y3.3380 
G01 X12.6176 Y3.3247 
G01 X12.5767 Y3.2838 
G01 X12.5546 Y3.2304 
G01 X12.4989 Y3.0958 
G01 X12.1442 Y2.7411 
G01 X11.6808 Y2.5492 
G01 X11.1792 Y2.5492 
G01 X10.7158 Y2.7411 
G01 X10.3611 Y3.0958 
G01 X10.3054 Y3.2304 
G01 X10.2963 Y3.2522 
G01 X10.2833 Y3.2838 
G01 X10.2424 Y3.3247 
G01 X10.1889 Y3.3469 
G01 X10.1311 Y3.3469 
G01 X10.1096 Y3.3380 
G01 X10.0776 Y3.3247 
G01 X10.0367 Y3.2838 
G01 X10.0146 Y3.2304 
G01 X9.9588 Y3.0958 
G01 X9.6042 Y2.7411 
G01 X9.1408 Y2.5492 
G01 X8.6392 Y2.5492 
G01 X8.1758 Y2.7411 
G01 X7.8211 Y3.0958 
G01 X7.7654 Y3.2304 
G01 X7.7444 Y3.2811 
G01 X7.7433 Y3.2838 
G01 X7.7024 Y3.3247 
G01 X7.6496 Y3.3466 
G01 X7.5911 Y3.3469 
G01 X7.5392 Y3.3254 
G01 X7.4967 Y3.2838 
G01 X7.4188 Y3.0958 
G01 X7.0642 Y2.7411 
G01 X6.6008 Y2.5492 
G01 X6.0992 Y2.5492 
G01 X5.6358 Y2.7411 
G01 X5.2811 Y3.0958 
G01 X5.0892 Y3.5592 
G01 X5.0892 Y4.0608 
G01 X5.2811 Y4.5242 
G01 X5.6358 Y4.8788 
G01 X6.0992 Y5.0708 
G01 X6.6008 Y5.0708 
G01 X7.0642 Y4.8788 
G01 X7.4189 Y4.5242 
G01 X7.4967 Y4.3362 
G01 X7.5376 Y4.2953 
G01 X7.5911 Y4.2731 
G01 X7.6489 Y4.2731 
G01 X7.7024 Y4.2953 
G01 X7.7433 Y4.3362 
G01 X7.7654 Y4.3896 
G01 X7.8211 Y4.5242 
G00 Z2.5400 
G00 X25.1552 Y3.7090 
G01 Z-0.1000 F254.00 
G01 X25.1552 Y3.9110 F300.00 
G01 X25.1158 Y4.1090 
G01 X25.0385 Y4.2956 
G01 X24.9263 Y4.4635 
G01 X24.7835 Y4.6063 
G01 X24.6156 Y4.7185 
G01 X24.4290 Y4.7958 
G01 X24.2310 Y4.8352 
G01 X24.0290 Y4.8352 
G01 X23.8310 Y4.7958 
G01 X23.6444 Y4.7185 
G01 X23.4765 Y4.6063 
G01 X23.3337 Y4.4635 
G01 X23.2215 Y4.2956 
G01 X23.1442 Y4.1090 
G01 X23.1048 Y3.9110 
G01 X23.1048 Y3.7090 
G01 X23.1442 Y3.5110 
G01 X23.2215 Y3.3244 
G01 X23.3337 Y3.1565 
G01 X23.4765 Y3.0137 
G01 X23.6444 Y2.9015 
G01 X23.8310 Y2.8242 
G01 X24.0290 Y2.7848 
G01 X24.2310 Y2.7848 
G01 X24.4290 Y2.8242 
G01 X24.6156 Y2.9015 
G01 X24.7835 Y3.0137 
G01 X24.9263 Y3.1565 
G01 X25.0385 Y3.3244 
G01 X25.1158 Y3.5110 
G01 X25.1552 Y3.7090 
G00 Z2.5400 
G00 X22.6152 Y3.7090 
G01 Z-0.1000 F254.00 
G01 X22.6152 Y3.9110 F300.00 
G01 X22.5758 Y4.1090 
G01 X22.4985 Y4.2956 
G01 X22.3863 Y4.4635 
G01 X22.2435 Y4.6063 
G01 X22.0756 Y4.7185 
G01 X21.8890 Y4.7958 
G01 X21.6910 Y4.8352 
G01 X21.4890 Y4.8352 
G01 X21.2910 Y4.7958 
G01 X21.1044 Y4.7185 
G01 X20.9365 Y4.6063 
G01 X20.7937 Y4.4635 
G01 X20.6815 Y4.2956 
G01 X20.6042 Y4.1090 
G01 X20.5648 Y3.9110 
G01 X20.5648 Y3.7090 
G01 X20.6042 Y3.5110 
G01 X20.6815 Y3.3244 
G01 X20.7937 Y3.1565 
G01 X20.9365 Y3.0137 
G01 X21.1044 Y2.9015 
G01 X21.2910 Y2.8242 
G01 X21.4890 Y2.7848 
G01 X21.6910 Y2.7848 
G01 X21.8890 Y2.8242 
G01 X22.0756 Y2.9015 
G01 X22.2435 Y3.0137 
G01 X22.3863 Y3.1565 
G01 X22.4985 Y3.3244 
G01 X22.5758 Y3.5110 
G01 X22.6152 Y3.7090 
G00 Z2.5400 
G00 X20.0752 Y3.7090 
G01 Z-0.1000 F254.00 
G01 X20.0752 Y3.9110 F300.00 
G01 X20.0358 Y4.1090 
G01 X19.9585 Y4.2956 
G01 X19.8463 Y4.4635 
G01 X19.7035 Y4.6063 
G01 X19.5356 Y4.7185 
G01 X19.3490 Y4.7958 
G01 X19.1510 Y4.8352 
G01 X18.9490 Y4.8352 
G01 X18.7510 Y4.7958 
G01 X18.5644 Y4.7185 
G01 X18.3965 Y4.6063 
G01 X18.2537 Y4.4635 
G01 X18.1415 Y4.2956 
G01 X18.0642 Y4.1090 
G01 X18.0248 Y3.9110 
G01 X18.0248 Y3.7090 
G01 X18.0642 Y3.5110 
G01 X18.1415 Y3.3244 
G01 X18.2537 Y3.1565 
G01 X18.3965 Y3.0137 
G01 X18.5644 Y2.9015 
G01 X18.7510 Y2.8242 
G01 X18.9490 Y2.7848 
G01 X19.1510 Y2.7848 
G01 X19.3490 Y2.8242 
G01 X19.5356 Y2.9015 
G01 X19.7035 Y3.0137 
G01 X19.8463 Y3.1565 
G01 X19.9585 Y3.3244 
G01 X20.0358 Y3.5110 
G01 X20.0752 Y3.7090 
G00 Z2.5400 
G00 X17.5352 Y3.7090 
G01 Z-0.1000 F254.00 
G01 X17.5352 Y3.9110 F300.00 
G01 X17.4958 Y4.1090 
G01 X17.4185 Y4.2956 
G01 X17.3063 Y4.4635 
G01 X17.1635 Y4.6063 
G01 X16.9956 Y4.7185 
G01 X16.8090 Y4.7958 
G01 X16.6110 Y4.8352 
G01 X16.4090 Y4.8352 
G01 X16.2110 Y4.7958 
G01 X16.0244 Y4.7185 
G01 X15.8565 Y4.6063 
G01 X15.7137 Y4.4635 
G01 X15.6015 Y4.2956 
G01 X15.5242 Y4.1090 
G01 X15.4848 Y3.9110 
G01 X15.4848 Y3.7090 
G01 X15.5242 Y3.5110 
G01 X15.6015 Y3.3244 
G01 X15.7137 Y3.1565 
G01 X15.8565 Y3.0137 
G01 X16.0244 Y2.9015 
G01 X16.2110 Y2.8242 
G01 X16.4090 Y2.7848 
G01 X16.6110 Y2.7848 
G01 X16.8090 Y2.8242 
G01 X16.9956 Y2.9015 
G01 X17.1635 Y3.0137 
G01 X17.3063 Y3.1565 
G01 X17.4185 Y3.3244 
G01 X17.4958 Y3.5110 
G01 X17.5352 Y3.7090 
G00 Z2.5400 
G00 X14.9952 Y3.7090 
G01 Z-0.1000 F254.00 
G01 X14.9952 Y3.9110 F300.00 
G01 X14.9558 Y4.1090 
G01 X14.8785 Y4.2956 
G01 X14.7663 Y4.4635 
G01 X14.6235 Y4.6063 
G01 X14.4556 Y4.7185 
G01 X14.2690 Y4.7958 
G01 X14.0710 Y4.8352 
G01 X13.8690 Y4.8352 
G01 X13.6710 Y4.7958 
G01 X13.4844 Y4.7185 
G01 X13.3165 Y4.6063 
G01 X13.1737 Y4.4635 
G01 X13.0615 Y4.2956 
G01 X12.9842 Y4.1090 
G01 X12.9448 Y3.9110 
G01 X12.9448 Y3.7090 
G01 X12.9842 Y3.5110 
G01 X13.0615 Y3.3244 
G01 X13.1737 Y3.1565 
G01 X13.3165 Y3.0137 
G01 X13.4844 Y2.9015 
G01 X13.6710 Y2.8242 
G01 X13.8690 Y2.7848 
G01 X14.0710 Y2.7848 
G01 X14.2690 Y2.8242 
G01 X14.4556 Y2.9015 
G01 X14.6235 Y3.0137 
G01 X14.7663 Y3.1565 
G01 X14.8785 Y3.3244 
G01 X14.9558 Y3.5110 
G01 X14.9952 Y3.7090 
G00 Z2.5400 
G00 X12.4552 Y3.7090 
G01 Z-0.1000 F254.00 
G01 X12.4552 Y3.9110 F300.00 
G01 X12.4158 Y4.1090 
G01 X12.3385 Y4.2956 
G01 X12.2263 Y4.4635 
G01 X12.0835 Y4.6063 
G01 X11.9156 Y4.7185 
G01 X11.7290 Y4.7958 
G01 X11.5310 Y4.8352 
G01 X11.3290 Y4.8352 
G01 X11.1310 Y4.7958 
G01 X10.9444 Y4.7185 
G01 X10.7765 Y4.6063 
G01 X10.6337 Y4.4635 
G01 X10.5215 Y4.2956 
G01 X10.4442 Y4.1090 
G01 X10.4048 Y3.9110 
G01 X10.4048 Y3.7090 
G01 X10.4442 Y3.5110 
G01 X10.5215 Y3.3244 
G01 X10.6337 Y3.1565 
G01 X10.7765 Y3.0137 
G01 X10.9444 Y2.9015 
G01 X11.1310 Y2.8242 
G01 X11.3290 Y2.7848 
G01 X11.5310 Y2.7848 
G01 X11.7290 Y2.8242 
G01 X11.9156 Y2.9015 
G01 X12.0835 Y3.0137 
G01 X12.2263 Y3.1565 
G01 X12.3385 Y3.3244 
G01 X12.4158 Y3.5110 
G01 X12.4552 Y3.7090 
G00 Z2.5400 
G00 X9.9152 Y3.7090 
G01 Z-0.1000 F254.00 
G01 X9.9152 Y3.9110 F300.00 
G01 X9.8758 Y4.1090 
G01 X9.7985 Y4.2956 
G01 X9.6863 Y4.4635 
G01 X9.5435 Y4.6063 
G01 X9.3756 Y4.7185 
G01 X9.1890 Y4.7958 
G01 X8.9910 Y4.8352 
G01 X8.7890 Y4.8352 
G01 X8.5910 Y4.7958 
G01 X8.4044 Y4.7185 
G01 X8.2365 Y4.6063 
G01 X8.0937 Y4.4635 
G01 X7.9815 Y4.2956 
G01 X7.9042 Y4.1090 
G01 X7.8648 Y3.9110 
G01 X7.8648 Y3.7090 
G01 X7.9042 Y3.5110 
G01 X7.9815 Y3.3244 
G01 X8.0937 Y3.1565 
G01 X8.2365 Y3.0137 
G01 X8.4044 Y2.9015 
G01 X8.5910 Y2.8242 
G01 X8.7890 Y2.7848 
G01 X8.9910 Y2.7848 
G01 X9.1890 Y2.8242 
G01 X9.3756 Y2.9015 
G01 X9.5435 Y3.0137 
G01 X9.6863 Y3.1565 
G01 X9.7985 Y3.3244 
G01 X9.8758 Y3.5110 
G01 X9.9152 Y3.7090 
G00 Z2.5400 
G00 X7.3752 Y3.7090 
G01 Z-0.1000 F254.00 
G01 X7.3752 Y3.9110 F300.00 
G01 X7.3358 Y4.1090 
G01 X7.2585 Y4.2956 
G01 X7.1463 Y4.4635 
G01 X7.0035 Y4.6063 
G01 X6.8356 Y4.7185 
G01 X6.6490 Y4.7958 
G01 X6.4510 Y4.8352 
G01 X6.2490 Y4.8352 
G01 X6.0510 Y4.7958 
G01 X5.8644 Y4.7185 
G01 X5.6965 Y4.6063 
G01 X5.5537 Y4.4635 
G01 X5.4415 Y4.2956 
G01 X5.3642 Y4.1090 
G01 X5.3248 Y3.9110 
G01 X5.3248 Y3.7090 
G01 X5.3642 Y3.5110 
G01 X5.4415 Y3.3244 
G01 X5.5537 Y3.1565 
G01 X5.6965 Y3.0137 
G01 X5.8644 Y2.9015 
G01 X6.0510 Y2.8242 
G01 X6.2490 Y2.7848 
G01 X6.4510 Y2.7848 
G01 X6.6490 Y2.8242 
G01 X6.8356 Y2.9015 
G01 X7.0035 Y3.0137 
G01 X7.1463 Y3.1565 
G01 X7.2585 Y3.3244 
G01 X7.3358 Y3.5110 
G01 X7.3752 Y3.7090 
G00 Z2.5400 
G00 X37.7372 Y30.9578 
G01 Z-0.1000 F254.00 
G01 X37.7593 Y30.9043 F300.00 
G01 X37.7996 Y30.8641 
G01 X37.8309 Y30.8507 
G01 X37.8537 Y30.8413 
G01 X37.9115 Y30.8413 
G01 X37.9650 Y30.8634 
G01 X38.3920 Y31.2905 
G01 X38.7433 Y31.4360 
G01 X39.0100 Y31.4360 
G01 X39.0634 Y31.4581 
G01 X39.1669 Y31.5010 
G01 X39.5731 Y31.5010 
G01 X39.9483 Y31.3456 
G01 X40.2356 Y31.0583 
G01 X40.3910 Y30.6831 
G01 X40.3910 Y30.2769 
G01 X40.2356 Y29.9016 
G01 X39.9483 Y29.6144 
G01 X39.5731 Y29.4590 
G01 X39.2958 Y29.4590 
G01 X39.2424 Y29.4369 
G01 X39.2015 Y29.3960 
G01 X38.2566 Y28.4511 
G01 X37.9876 Y28.1821 
G01 X37.6363 Y28.0366 
G01 X34.4999 Y28.0366 
G01 X34.4464 Y28.0145 
G01 X34.4055 Y27.9736 
G01 X31.4835 Y25.0515 
G01 X31.4614 Y24.9981 
G01 X31.4614 Y24.9935 
G01 X30.8865 Y24.4186 
G01 X30.0735 Y24.4186 
G01 X29.4986 Y24.9935 
G01 X29.4986 Y25.8065 
G01 X30.0735 Y26.3814 
G01 X30.0781 Y26.3814 
G01 X30.1315 Y26.4035 
G01 X30.1725 Y26.4444 
G01 X33.2621 Y29.5341 
G01 X33.5311 Y29.8031 
G01 X33.8824 Y29.9486 
G01 X35.7563 Y29.9486 
G01 X35.8097 Y29.9707 
G01 X35.8507 Y30.0116 
G01 X35.8728 Y30.0651 
G01 X35.8728 Y30.1229 
G01 X35.8507 Y30.1764 
G01 X35.8090 Y30.2769 
G01 X35.8090 Y30.6831 
G01 X35.9644 Y31.0583 
G01 X36.2516 Y31.3456 
G01 X36.6269 Y31.5010 
G01 X37.0331 Y31.5010 
G01 X37.4083 Y31.3456 
G01 X37.6956 Y31.0583 
G01 X37.7372 Y30.9578 
G00 Z2.5400 
G00 X31.2258 Y25.0911 
G01 Z-0.1000 F254.00 
G01 X31.2258 Y25.1270 F300.00 
G01 X34.3710 Y28.2722 
G01 X37.5171 Y28.2722 
G01 X37.6562 Y28.2999 
G01 X37.7873 Y28.3542 
G01 X37.9053 Y28.4330 
G01 X38.0057 Y28.5334 
G01 X39.1878 Y29.7155 
G01 X39.2926 Y29.6946 
G01 X39.4474 Y29.6946 
G01 X39.5991 Y29.7248 
G01 X39.7420 Y29.7840 
G01 X39.8707 Y29.8699 
G01 X39.9801 Y29.9793 
G01 X40.0660 Y30.1080 
G01 X40.1252 Y30.2509 
G01 X40.1554 Y30.4026 
G01 X40.1554 Y30.5574 
G01 X40.1252 Y30.7091 
G01 X40.0660 Y30.8520 
G01 X39.9801 Y30.9807 
G01 X39.8707 Y31.0901 
G01 X39.7420 Y31.1760 
G01 X39.5991 Y31.2352 
G01 X39.4474 Y31.2654 
G01 X39.2926 Y31.2654 
G01 X39.1409 Y31.2352 
G01 X39.0568 Y31.2004 
G01 X38.8625 Y31.2004 
G01 X38.7234 Y31.1727 
G01 X38.5923 Y31.1184 
G01 X38.4743 Y31.0396 
G01 X37.4924 Y30.0577 
G01 X37.5260 Y30.1080 
G01 X37.5852 Y30.2509 
G01 X37.6154 Y30.4026 
G01 X37.6154 Y30.5574 
G01 X37.5852 Y30.7091 
G01 X37.5260 Y30.8520 
G01 X37.4401 Y30.9807 
G01 X37.3307 Y31.0901 
G01 X37.2020 Y31.1760 
G01 X37.0591 Y31.2352 
G01 X36.9074 Y31.2654 
G01 X36.7526 Y31.2654 
G01 X36.6009 Y31.2352 
G01 X36.4580 Y31.1760 
G01 X36.3293 Y31.0901 
G01 X36.2199 Y30.9807 
G01 X36.1340 Y30.8520 
G01 X36.0748 Y30.7091 
G01 X36.0446 Y30.5574 
G01 X36.0446 Y30.4026 
G01 X36.0748 Y30.2509 
G01 X36.1340 Y30.1080 
G01 X36.2199 Y29.9793 
G01 X36.3293 Y29.8699 
G01 X36.4580 Y29.7840 
G01 X36.6009 Y29.7248 
G01 X36.6602 Y29.7130 
G01 X34.0016 Y29.7130 
G01 X33.8625 Y29.6853 
G01 X33.7314 Y29.6310 
G01 X33.6134 Y29.5522 
G01 X33.5130 Y29.4518 
G01 X30.2070 Y26.1458 
G01 X30.1711 Y26.1458 
G01 X29.7342 Y25.7089 
G01 X29.7342 Y25.0911 
G01 X30.1711 Y24.6542 
G01 X30.7889 Y24.6542 
G01 X31.2258 Y25.0911 
G00 Z2.5400 
G00 X59.6865 Y29.9212 
G01 Z-0.1000 F254.00 
G01 X59.6644 Y29.9746 F300.00 
G01 X59.6413 Y29.9977 
G01 X58.2087 Y31.4303 
G01 X58.1684 Y31.4706 
G01 X58.1143 Y31.4934 
G01 X58.0565 Y31.4934 
G01 X58.0030 Y31.4713 
G01 X57.4665 Y31.2490 
G01 X57.3403 Y31.2490 
G01 X57.2869 Y31.2269 
G01 X57.2460 Y31.1860 
G01 X55.5931 Y29.5331 
G01 X55.5710 Y29.4797 
G01 X55.5710 Y29.3971 
G01 X55.5080 Y29.2451 
G01 X55.4867 Y29.1937 
G01 X55.4859 Y29.1338 
G01 X55.5080 Y29.0803 
G01 X55.5483 Y29.0401 
G01 X55.6013 Y29.0177 
G01 X55.6602 Y29.0173 
G01 X55.7069 Y29.0366 
G01 X55.7136 Y29.0394 
G01 X56.0071 Y29.1610 
G01 X56.0897 Y29.1610 
G01 X56.1431 Y29.1831 
G01 X56.1840 Y29.2240 
G01 X56.2488 Y29.2888 
G01 X56.8335 Y29.5310 
G01 X57.4665 Y29.5310 
G01 X58.0512 Y29.2888 
G01 X58.1569 Y29.1831 
G01 X58.2103 Y29.1610 
G01 X58.2929 Y29.1610 
G01 X58.7416 Y28.9751 
G01 X59.0851 Y28.6316 
G01 X59.2710 Y28.1829 
G01 X59.2710 Y27.6971 
G01 X59.0851 Y27.2484 
G01 X58.7631 Y26.9264 
G01 X58.7410 Y26.8729 
G01 X58.7410 Y22.5435 
G01 X58.4988 Y21.9588 
G01 X58.0512 Y21.5112 
G01 X58.0103 Y21.4703 
G01 X55.9588 Y19.4188 
G01 X55.5112 Y18.9712 
G01 X54.9265 Y18.7290 
G01 X54.2935 Y18.7290 
G01 X53.7088 Y18.9712 
G01 X53.6556 Y19.0244 
G01 X53.6022 Y19.0465 
G01 X40.3867 Y19.0465 
G01 X39.9186 Y19.2404 
G01 X39.8171 Y19.3419 
G01 X39.7637 Y19.3640 
G01 X38.9134 Y19.3640 
G01 X38.9040 Y19.3665 
G01 X38.8848 Y19.3640 
G01 X38.8654 Y19.3640 
G01 X38.8563 Y19.3603 
G01 X38.8466 Y19.3590 
G01 X38.8298 Y19.3493 
G01 X38.8119 Y19.3419 
G01 X38.8050 Y19.3349 
G01 X38.7965 Y19.3301 
G01 X38.7847 Y19.3147 
G01 X38.7710 Y19.3010 
G01 X38.7673 Y19.2919 
G01 X38.7613 Y19.2842 
G01 X38.7563 Y19.2654 
G01 X38.7489 Y19.2475 
G01 X38.7489 Y19.2377 
G01 X38.7464 Y19.2283 
G01 X38.7489 Y19.2091 
G01 X38.7489 Y19.1897 
G01 X38.7526 Y19.1806 
G01 X38.7539 Y19.1709 
G01 X38.7636 Y19.1542 
G01 X38.7710 Y19.1362 
G01 X38.7779 Y19.1293 
G01 X38.9817 Y18.7765 
G01 X39.1576 Y18.1199 
G01 X39.1576 Y17.4401 
G01 X38.9817 Y16.7835 
G01 X38.7046 Y16.3037 
G01 X38.6977 Y16.2968 
G01 X38.6903 Y16.2788 
G01 X38.6806 Y16.2621 
G01 X38.6793 Y16.2523 
G01 X38.6756 Y16.2433 
G01 X38.6756 Y16.2239 
G01 X38.6730 Y16.2047 
G01 X38.6756 Y16.1953 
G01 X38.6756 Y16.1855 
G01 X38.6830 Y16.1676 
G01 X38.6880 Y16.1488 
G01 X38.6940 Y16.1411 
G01 X38.6977 Y16.1320 
G01 X38.7114 Y16.1183 
G01 X38.7232 Y16.1029 
G01 X38.7317 Y16.0980 
G01 X38.7386 Y16.0911 
G01 X38.7565 Y16.0837 
G01 X38.7733 Y16.0740 
G01 X38.7830 Y16.0727 
G01 X38.7920 Y16.0690 
G01 X38.8114 Y16.0690 
G01 X38.8307 Y16.0665 
G01 X38.8401 Y16.0690 
G01 X39.6367 Y16.0690 
G01 X39.6901 Y16.0911 
G01 X39.7310 Y16.1320 
G01 X39.9186 Y16.3196 
G01 X40.3867 Y16.5135 
G01 X53.6022 Y16.5135 
G01 X53.6389 Y16.5287 
G01 X53.6556 Y16.5356 
G01 X53.6865 Y16.5665 
G01 X53.6965 Y16.5765 
G01 X53.7088 Y16.5888 
G01 X53.9510 Y16.8310 
G01 X59.4487 Y16.8310 
G01 X59.5021 Y16.8531 
G01 X59.6644 Y17.0154 
G01 X59.6865 Y17.0688 
G01 X59.6865 Y17.1266 
G01 X59.6865 Y29.9212 
G00 Z2.5400 
G00 X52.0792 Y3.7090 
G01 Z-0.1000 F254.00 
G01 X52.0792 Y3.9110 F300.00 
G01 X52.0398 Y4.1090 
G01 X51.9625 Y4.2956 
G01 X51.8503 Y4.4635 
G01 X51.7075 Y4.6063 
G01 X51.5396 Y4.7185 
G01 X51.3530 Y4.7958 
G01 X51.1550 Y4.8352 
G01 X50.9530 Y4.8352 
G01 X50.7550 Y4.7958 
G01 X50.5684 Y4.7185 
G01 X50.4005 Y4.6063 
G01 X50.2577 Y4.4635 
G01 X50.1455 Y4.2956 
G01 X50.0682 Y4.1090 
G01 X50.0288 Y3.9110 
G01 X50.0288 Y3.7090 
G01 X50.0682 Y3.5110 
G01 X50.1455 Y3.3244 
G01 X50.2577 Y3.1565 
G01 X50.4005 Y3.0137 
G01 X50.5684 Y2.9015 
G01 X50.7550 Y2.8242 
G01 X50.9530 Y2.7848 
G01 X51.1550 Y2.7848 
G01 X51.3530 Y2.8242 
G01 X51.5396 Y2.9015 
G01 X51.7075 Y3.0137 
G01 X51.8503 Y3.1565 
G01 X51.9625 Y3.3244 
G01 X52.0398 Y3.5110 
G01 X52.0792 Y3.7090 
G00 Z2.5400 
G00 X49.5392 Y3.7090 
G01 Z-0.1000 F254.00 
G01 X49.5392 Y3.9110 F300.00 
G01 X49.4998 Y4.1090 
G01 X49.4225 Y4.2956 
G01 X49.3103 Y4.4635 
G01 X49.1675 Y4.6063 
G01 X48.9996 Y4.7185 
G01 X48.8130 Y4.7958 
G01 X48.6150 Y4.8352 
G01 X48.4130 Y4.8352 
G01 X48.2150 Y4.7958 
G01 X48.0284 Y4.7185 
G01 X47.8605 Y4.6063 
G01 X47.7177 Y4.4635 
G01 X47.6055 Y4.2956 
G01 X47.5282 Y4.1090 
G01 X47.4888 Y3.9110 
G01 X47.4888 Y3.7090 
G01 X47.5282 Y3.5110 
G01 X47.6055 Y3.3244 
G01 X47.7177 Y3.1565 
G01 X47.8605 Y3.0137 
G01 X48.0284 Y2.9015 
G01 X48.2150 Y2.8242 
G01 X48.4130 Y2.7848 
G01 X48.6150 Y2.7848 
G01 X48.8130 Y2.8242 
G01 X48.9996 Y2.9015 
G01 X49.1675 Y3.0137 
G01 X49.3103 Y3.1565 
G01 X49.4225 Y3.3244 
G01 X49.4998 Y3.5110 
G01 X49.5392 Y3.7090 
G00 Z2.5400 
G00 X46.9992 Y3.7090 
G01 Z-0.1000 F254.00 
G01 X46.9992 Y3.9110 F300.00 
G01 X46.9598 Y4.1090 
G01 X46.8825 Y4.2956 
G01 X46.7703 Y4.4635 
G01 X46.6275 Y4.6063 
G01 X46.4596 Y4.7185 
G01 X46.2730 Y4.7958 
G01 X46.0750 Y4.8352 
G01 X45.8730 Y4.8352 
G01 X45.6750 Y4.7958 
G01 X45.4884 Y4.7185 
G01 X45.3205 Y4.6063 
G01 X45.1777 Y4.4635 
G01 X45.0655 Y4.2956 
G01 X44.9882 Y4.1090 
G01 X44.9488 Y3.9110 
G01 X44.9488 Y3.7090 
G01 X44.9882 Y3.5110 
G01 X45.0655 Y3.3244 
G01 X45.1777 Y3.1565 
G01 X45.3205 Y3.0137 
G01 X45.4884 Y2.9015 
G01 X45.6750 Y2.8242 
G01 X45.8730 Y2.7848 
G01 X46.0750 Y2.7848 
G01 X46.2730 Y2.8242 
G01 X46.4596 Y2.9015 
G01 X46.6275 Y3.0137 
G01 X46.7703 Y3.1565 
G01 X46.8825 Y3.3244 
G01 X46.9598 Y3.5110 
G01 X46.9992 Y3.7090 
G00 Z2.5400 
G00 X41.9192 Y3.7090 
G01 Z-0.1000 F254.00 
G01 X41.9192 Y3.9110 F300.00 
G01 X41.8798 Y4.1090 
G01 X41.8025 Y4.2956 
G01 X41.6903 Y4.4635 
G01 X41.5475 Y4.6063 
G01 X41.3796 Y4.7185 
G01 X41.1930 Y4.7958 
G01 X40.9950 Y4.8352 
G01 X40.7930 Y4.8352 
G01 X40.5950 Y4.7958 
G01 X40.4084 Y4.7185 
G01 X40.2405 Y4.6063 
G01 X40.0977 Y4.4635 
G01 X39.9855 Y4.2956 
G01 X39.9082 Y4.1090 
G01 X39.8688 Y3.9110 
G01 X39.8688 Y3.7090 
G01 X39.9082 Y3.5110 
G01 X39.9855 Y3.3244 
G01 X40.0977 Y3.1565 
G01 X40.2405 Y3.0137 
G01 X40.4084 Y2.9015 
G01 X40.5950 Y2.8242 
G01 X40.7930 Y2.7848 
G01 X40.9950 Y2.7848 
G01 X41.1930 Y2.8242 
G01 X41.3796 Y2.9015 
G01 X41.5475 Y3.0137 
G01 X41.6903 Y3.1565 
G01 X41.8025 Y3.3244 
G01 X41.8798 Y3.5110 
G01 X41.9192 Y3.7090 
G00 Z2.5400 
G00 X39.3792 Y3.7090 
G01 Z-0.1000 F254.00 
G01 X39.3792 Y3.9110 F300.00 
G01 X39.3398 Y4.1090 
G01 X39.2625 Y4.2956 
G01 X39.1503 Y4.4635 
G01 X39.0075 Y4.6063 
G01 X38.8396 Y4.7185 
G01 X38.6530 Y4.7958 
G01 X38.4550 Y4.8352 
G01 X38.2530 Y4.8352 
G01 X38.0550 Y4.7958 
G01 X37.8684 Y4.7185 
G01 X37.7005 Y4.6063 
G01 X37.5577 Y4.4635 
G01 X37.4455 Y4.2956 
G01 X37.3682 Y4.1090 
G01 X37.3288 Y3.9110 
G01 X37.3288 Y3.7090 
G01 X37.3682 Y3.5110 
G01 X37.4455 Y3.3244 
G01 X37.5577 Y3.1565 
G01 X37.7005 Y3.0137 
G01 X37.8684 Y2.9015 
G01 X38.0550 Y2.8242 
G01 X38.2530 Y2.7848 
G01 X38.4550 Y2.7848 
G01 X38.6530 Y2.8242 
G01 X38.8396 Y2.9015 
G01 X39.0075 Y3.0137 
G01 X39.1503 Y3.1565 
G01 X39.2625 Y3.3244 
G01 X39.3398 Y3.5110 
G01 X39.3792 Y3.7090 
G00 Z2.5400 
G00 X36.8392 Y3.7090 
G01 Z-0.1000 F254.00 
G01 X36.8392 Y3.9110 F300.00 
G01 X36.7998 Y4.1090 
G01 X36.7225 Y4.2956 
G01 X36.6103 Y4.4635 
G01 X36.4675 Y4.6063 
G01 X36.2996 Y4.7185 
G01 X36.1130 Y4.7958 
G01 X35.9150 Y4.8352 
G01 X35.7130 Y4.8352 
G01 X35.5150 Y4.7958 
G01 X35.3284 Y4.7185 
G01 X35.1605 Y4.6063 
G01 X35.0177 Y4.4635 
G01 X34.9055 Y4.2956 
G01 X34.8282 Y4.1090 
G01 X34.7888 Y3.9110 
G01 X34.7888 Y3.7090 
G01 X34.8282 Y3.5110 
G01 X34.9055 Y3.3244 
G01 X35.0177 Y3.1565 
G01 X35.1605 Y3.0137 
G01 X35.3284 Y2.9015 
G01 X35.5150 Y2.8242 
G01 X35.7130 Y2.7848 
G01 X35.9150 Y2.7848 
G01 X36.1130 Y2.8242 
G01 X36.2996 Y2.9015 
G01 X36.4675 Y3.0137 
G01 X36.6103 Y3.1565 
G01 X36.7225 Y3.3244 
G01 X36.7998 Y3.5110 
G01 X36.8392 Y3.7090 
G00 Z2.5400 
G00 X34.2992 Y3.7090 
G01 Z-0.1000 F254.00 
G01 X34.2992 Y3.9110 F300.00 
G01 X34.2598 Y4.1090 
G01 X34.1825 Y4.2956 
G01 X34.0703 Y4.4635 
G01 X33.9275 Y4.6063 
G01 X33.7596 Y4.7185 
G01 X33.5730 Y4.7958 
G01 X33.3750 Y4.8352 
G01 X33.1730 Y4.8352 
G01 X32.9750 Y4.7958 
G01 X32.7884 Y4.7185 
G01 X32.6205 Y4.6063 
G01 X32.4777 Y4.4635 
G01 X32.3655 Y4.2956 
G01 X32.2882 Y4.1090 
G01 X32.2488 Y3.9110 
G01 X32.2488 Y3.7090 
G01 X32.2882 Y3.5110 
G01 X32.3655 Y3.3244 
G01 X32.4777 Y3.1565 
G01 X32.6205 Y3.0137 
G01 X32.7884 Y2.9015 
G01 X32.9750 Y2.8242 
G01 X33.1730 Y2.7848 
G01 X33.3750 Y2.7848 
G01 X33.5730 Y2.8242 
G01 X33.7596 Y2.9015 
G01 X33.9275 Y3.0137 
G01 X34.0703 Y3.1565 
G01 X34.1825 Y3.3244 
G01 X34.2598 Y3.5110 
G01 X34.2992 Y3.7090 
G00 Z2.5400 
G00 X31.7592 Y3.7090 
G01 Z-0.1000 F254.00 
G01 X31.7592 Y3.9110 F300.00 
G01 X31.7198 Y4.1090 
G01 X31.6425 Y4.2956 
G01 X31.5303 Y4.4635 
G01 X31.3875 Y4.6063 
G01 X31.2196 Y4.7185 
G01 X31.0330 Y4.7958 
G01 X30.8350 Y4.8352 
G01 X30.6330 Y4.8352 
G01 X30.4350 Y4.7958 
G01 X30.2484 Y4.7185 
G01 X30.0805 Y4.6063 
G01 X29.9377 Y4.4635 
G01 X29.8255 Y4.2956 
G01 X29.7482 Y4.1090 
G01 X29.7088 Y3.9110 
G01 X29.7088 Y3.7090 
G01 X29.7482 Y3.5110 
G01 X29.8255 Y3.3244 
G01 X29.9377 Y3.1565 
G01 X30.0805 Y3.0137 
G01 X30.2484 Y2.9015 
G01 X30.4350 Y2.8242 
G01 X30.6330 Y2.7848 
G01 X30.8350 Y2.7848 
G01 X31.0330 Y2.8242 
G01 X31.2196 Y2.9015 
G01 X31.3875 Y3.0137 
G01 X31.5303 Y3.1565 
G01 X31.6425 Y3.3244 
G01 X31.7198 Y3.5110 
G01 X31.7592 Y3.7090 
G00 Z2.5400 
G00 X29.2192 Y3.7090 
G01 Z-0.1000 F254.00 
G01 X29.2192 Y3.9110 F300.00 
G01 X29.1798 Y4.1090 
G01 X29.1025 Y4.2956 
G01 X28.9903 Y4.4635 
G01 X28.8475 Y4.6063 
G01 X28.6796 Y4.7185 
G01 X28.4930 Y4.7958 
G01 X28.2950 Y4.8352 
G01 X28.0930 Y4.8352 
G01 X27.8950 Y4.7958 
G01 X27.7084 Y4.7185 
G01 X27.5405 Y4.6063 
G01 X27.3977 Y4.4635 
G01 X27.2855 Y4.2956 
G01 X27.2082 Y4.1090 
G01 X27.1688 Y3.9110 
G01 X27.1688 Y3.7090 
G01 X27.2082 Y3.5110 
G01 X27.2855 Y3.3244 
G01 X27.3977 Y3.1565 
G01 X27.5405 Y3.0137 
G01 X27.7084 Y2.9015 
G01 X27.8950 Y2.8242 
G01 X28.0930 Y2.7848 
G01 X28.2950 Y2.7848 
G01 X28.4930 Y2.8242 
G01 X28.6796 Y2.9015 
G01 X28.8475 Y3.0137 
G01 X28.9903 Y3.1565 
G01 X29.1025 Y3.3244 
G01 X29.1798 Y3.5110 
G01 X29.2192 Y3.7090 
G00 Z2.5400 
G00 X33.9570 Y14.8046 
G01 Z-0.1000 F254.00 
G01 X33.9884 Y14.8176 F300.00 
G01 X34.0124 Y14.8416 
G01 X34.0254 Y14.8730 
G01 X34.0254 Y15.6070 
G01 X34.0124 Y15.6384 
G01 X33.9884 Y15.6624 
G01 X33.9570 Y15.6754 
G01 X33.7704 Y15.6754 
G01 X33.7704 Y15.7586 
G01 X33.9622 Y15.7586 
G01 X34.0051 Y15.7471 
G01 X34.0435 Y15.7249 
G01 X34.0999 Y15.6686 
G01 X34.1533 Y15.6464 
G01 X34.2112 Y15.6464 
G01 X34.2646 Y15.6686 
G01 X34.3055 Y15.7095 
G01 X34.5273 Y15.9312 
G01 X34.5474 Y15.9514 
G01 X34.5682 Y15.9722 
G01 X34.5903 Y16.0256 
G01 X34.5903 Y16.0834 
G01 X34.5751 Y16.1201 
G01 X34.5682 Y16.1369 
G01 X34.5380 Y16.1671 
G01 X34.5273 Y16.1778 
G01 X34.5102 Y16.1949 
G01 X34.1703 Y16.7835 
G01 X33.9944 Y17.4401 
G01 X33.9944 Y18.1199 
G01 X34.1703 Y18.7765 
G01 X34.4843 Y19.3202 
G01 X34.4912 Y19.3271 
G01 X34.4986 Y19.3450 
G01 X34.5083 Y19.3618 
G01 X34.5096 Y19.3715 
G01 X34.5133 Y19.3805 
G01 X34.5133 Y19.3999 
G01 X34.5158 Y19.4192 
G01 X34.5133 Y19.4286 
G01 X34.5133 Y19.4384 
G01 X34.5059 Y19.4563 
G01 X34.5009 Y19.4750 
G01 X34.4949 Y19.4828 
G01 X34.4912 Y19.4918 
G01 X34.4775 Y19.5056 
G01 X34.4657 Y19.5209 
G01 X34.4572 Y19.5258 
G01 X34.3724 Y19.6106 
G01 X34.3189 Y19.6328 
G01 X34.2611 Y19.6328 
G01 X34.2076 Y19.6106 
G01 X34.1667 Y19.5697 
G01 X34.1065 Y19.5095 
G01 X33.7552 Y19.3640 
G01 X23.1429 Y19.3640 
G01 X23.0894 Y19.3419 
G01 X23.0848 Y19.3373 
G01 X22.6588 Y19.1608 
G01 X20.5212 Y19.1608 
G01 X20.0952 Y19.3373 
G01 X19.7691 Y19.6634 
G01 X19.5926 Y20.0894 
G01 X19.5926 Y20.5506 
G01 X19.7691 Y20.9766 
G01 X20.0952 Y21.3027 
G01 X20.5212 Y21.4792 
G01 X22.6588 Y21.4792 
G01 X23.0848 Y21.3027 
G01 X23.0894 Y21.2981 
G01 X23.1429 Y21.2760 
G01 X33.7552 Y21.2760 
G01 X34.1065 Y21.1305 
G01 X34.2076 Y21.0293 
G01 X34.2611 Y21.0072 
G01 X34.3189 Y21.0072 
G01 X34.3404 Y21.0161 
G01 X34.3724 Y21.0293 
G01 X34.4133 Y21.0702 
G01 X34.4735 Y21.1305 
G01 X34.8248 Y21.2760 
G01 X39.7637 Y21.2760 
G01 X39.8171 Y21.2981 
G01 X39.8580 Y21.3390 
G01 X39.9186 Y21.3996 
G01 X40.3867 Y21.5935 
G01 X53.6022 Y21.5935 
G01 X53.6556 Y21.6156 
G01 X53.6965 Y21.6565 
G01 X53.7088 Y21.6688 
G01 X53.7497 Y21.7097 
G01 X55.5369 Y23.4969 
G01 X55.5590 Y23.5503 
G01 X55.5590 Y26.8729 
G01 X55.5369 Y26.9264 
G01 X55.2149 Y27.2484 
G01 X55.0290 Y27.6971 
G01 X55.0290 Y28.1829 
G01 X55.0920 Y28.3349 
G01 X55.1132 Y28.3863 
G01 X55.1141 Y28.4462 
G01 X55.0920 Y28.4997 
G01 X55.0517 Y28.5399 
G01 X54.9987 Y28.5623 
G01 X54.9398 Y28.5627 
G01 X54.8931 Y28.5434 
G01 X54.8864 Y28.5406 
G01 X54.5929 Y28.4190 
G01 X54.1071 Y28.4190 
G01 X53.6584 Y28.6049 
G01 X53.3149 Y28.9484 
G01 X53.1290 Y29.3971 
G01 X53.1290 Y29.4797 
G01 X53.1069 Y29.5331 
G01 X53.0660 Y29.5740 
G01 X53.0012 Y29.6388 
G01 X52.7590 Y30.2235 
G01 X52.7590 Y30.8565 
G01 X53.0012 Y31.4412 
G01 X53.1069 Y31.5469 
G01 X53.1290 Y31.6003 
G01 X53.1290 Y31.6829 
G01 X53.3149 Y32.1316 
G01 X53.6584 Y32.4751 
G01 X54.1071 Y32.6610 
G01 X54.1897 Y32.6610 
G01 X54.2431 Y32.6831 
G01 X54.2840 Y32.7240 
G01 X55.7488 Y34.1888 
G01 X56.3335 Y34.4310 
G01 X57.4665 Y34.4310 
G01 X58.0512 Y34.1888 
G01 X58.0635 Y34.1765 
G01 X58.0725 Y34.1675 
G01 X58.1044 Y34.1356 
G01 X58.1189 Y34.1296 
G01 X58.1578 Y34.1135 
G01 X58.8533 Y34.1135 
G01 X59.3214 Y33.9196 
G01 X61.6433 Y31.5977 
G01 X62.0116 Y31.2294 
G01 X62.0651 Y31.2072 
G01 X62.1229 Y31.2072 
G01 X62.1764 Y31.2294 
G01 X62.2173 Y31.2703 
G01 X62.2394 Y31.3237 
G01 X62.2394 Y54.8229 
G01 X62.2173 Y54.8764 
G01 X62.1764 Y54.9173 
G01 X62.1229 Y54.9394 
G01 X1.0471 Y54.9394 
G01 X0.9936 Y54.9173 
G01 X0.9527 Y54.8764 
G01 X0.9306 Y54.8229 
G01 X0.9306 Y1.0471 
G01 X0.9527 Y0.9936 
G01 X0.9936 Y0.9527 
G01 X1.0471 Y0.9306 
G01 X62.1229 Y0.9306 
G01 X62.1764 Y0.9527 
G01 X62.2173 Y0.9936 
G01 X62.2394 Y1.0471 
G01 X62.2394 Y15.6663 
G01 X62.2173 Y15.7197 
G01 X62.1770 Y15.7600 
G01 X62.1229 Y15.7828 
G01 X62.0651 Y15.7828 
G01 X62.0116 Y15.7606 
G01 X61.6405 Y15.3895 
G01 X61.3031 Y15.0521 
G01 X61.2810 Y14.9987 
G01 X61.2810 Y14.9235 
G01 X61.0388 Y14.3388 
G01 X60.5912 Y13.8912 
G01 X60.0065 Y13.6490 
G01 X53.9510 Y13.6490 
G01 X53.7088 Y13.8912 
G01 X53.6965 Y13.9035 
G01 X53.6701 Y13.9299 
G01 X53.6556 Y13.9444 
G01 X53.6023 Y13.9664 
G01 X47.1100 Y13.9665 
G01 X47.0565 Y13.9444 
G01 X47.0156 Y13.9035 
G01 X46.9935 Y13.8500 
G01 X46.9935 Y8.6367 
G01 X46.7996 Y8.1686 
G01 X44.7296 Y6.0986 
G01 X44.7075 Y6.0452 
G01 X44.7075 Y4.6486 
G01 X44.7296 Y4.5952 
G01 X44.7699 Y4.5549 
G01 X44.8240 Y4.5322 
G01 X44.8818 Y4.5322 
G01 X44.9353 Y4.5543 
G01 X45.2598 Y4.8788 
G01 X45.7232 Y5.0708 
G01 X46.2248 Y5.0708 
G01 X46.6882 Y4.8788 
G01 X47.0429 Y4.5242 
G01 X47.0986 Y4.3896 
G01 X47.1196 Y4.3389 
G01 X47.1207 Y4.3362 
G01 X47.1616 Y4.2953 
G01 X47.2144 Y4.2734 
G01 X47.2729 Y4.2731 
G01 X47.3248 Y4.2946 
G01 X47.3673 Y4.3362 
G01 X47.4451 Y4.5242 
G01 X47.7998 Y4.8788 
G01 X48.2632 Y5.0708 
G01 X48.7648 Y5.0708 
G01 X49.2282 Y4.8788 
G01 X49.5829 Y4.5242 
G01 X49.6386 Y4.3896 
G01 X49.6596 Y4.3389 
G01 X49.6607 Y4.3362 
G01 X49.7016 Y4.2953 
G01 X49.7544 Y4.2734 
G01 X49.8129 Y4.2731 
G01 X49.8648 Y4.2946 
G01 X49.9073 Y4.3362 
G01 X49.9851 Y4.5242 
G01 X50.3398 Y4.8788 
G01 X50.8032 Y5.0708 
G01 X51.3048 Y5.0708 
G01 X51.7682 Y4.8788 
G01 X52.1228 Y4.5242 
G01 X52.3148 Y4.0608 
G01 X52.3148 Y3.5592 
G01 X52.1228 Y3.0958 
G01 X51.7682 Y2.7411 
G01 X51.3048 Y2.5492 
G01 X50.8032 Y2.5492 
G01 X50.3398 Y2.7411 
G01 X49.9851 Y3.0958 
G01 X49.9073 Y3.2838 
G01 X49.8664 Y3.3247 
G01 X49.8129 Y3.3469 
G01 X49.7551 Y3.3469 
G01 X49.7016 Y3.3247 
G01 X49.6607 Y3.2838 
G01 X49.6386 Y3.2304 
G01 X49.5829 Y3.0958 
G01 X49.2282 Y2.7411 
G01 X48.7648 Y2.5492 
G01 X48.2632 Y2.5492 
G01 X47.7998 Y2.7411 
G01 X47.4451 Y3.0958 
G01 X47.3673 Y3.2838 
G01 X47.3264 Y3.3247 
G01 X47.2729 Y3.3469 
G01 X47.2151 Y3.3469 
G01 X47.1616 Y3.3247 
G01 X47.1207 Y3.2838 
G01 X47.0986 Y3.2304 
G01 X47.0429 Y3.0958 
G01 X46.6882 Y2.7411 
G01 X46.2248 Y2.5492 
G01 X45.7232 Y2.5492 
G01 X45.2598 Y2.7411 
G01 X44.9051 Y3.0958 
G01 X44.8563 Y3.2138 
G01 X44.8341 Y3.2673 
G01 X44.7939 Y3.3075 
G01 X44.7409 Y3.3298 
G01 X44.6819 Y3.3303 
G01 X44.6285 Y3.3082 
G01 X44.5882 Y3.2679 
G01 X44.5668 Y3.2169 
G01 X44.5655 Y3.2138 
G01 X44.5136 Y3.0886 
G01 X44.1554 Y2.7304 
G01 X43.6873 Y2.5365 
G01 X43.1807 Y2.5365 
G01 X42.7126 Y2.7304 
G01 X42.3544 Y3.0886 
G01 X42.3025 Y3.2138 
G01 X42.2804 Y3.2672 
G01 X42.2395 Y3.3082 
G01 X42.1860 Y3.3303 
G01 X42.1282 Y3.3303 
G01 X42.0748 Y3.3082 
G01 X42.0339 Y3.2673 
G01 X42.0117 Y3.2138 
G01 X41.9629 Y3.0958 
G01 X41.6082 Y2.7411 
G01 X41.1448 Y2.5492 
G01 X40.6432 Y2.5492 
G01 X40.1798 Y2.7411 
G01 X39.8251 Y3.0958 
G01 X39.7694 Y3.2304 
G01 X39.7603 Y3.2522 
G01 X39.7473 Y3.2838 
G01 X39.7064 Y3.3247 
G01 X39.6529 Y3.3469 
G01 X39.5951 Y3.3469 
G01 X39.5736 Y3.3380 
G01 X39.5416 Y3.3247 
G01 X39.5007 Y3.2838 
G01 X39.4786 Y3.2304 
G01 X39.4229 Y3.0958 
G01 X39.0682 Y2.7411 
G01 X38.6048 Y2.5492 
G01 X38.1032 Y2.5492 
G01 X37.6398 Y2.7411 
G01 X37.2851 Y3.0958 
G01 X37.2294 Y3.2304 
G01 X37.2203 Y3.2522 
G01 X37.2073 Y3.2838 
G01 X37.1664 Y3.3247 
G01 X37.1129 Y3.3469 
G01 X37.0551 Y3.3469 
G01 X37.0336 Y3.3380 
G01 X37.0016 Y3.3247 
G01 X36.9607 Y3.2838 
G01 X36.9386 Y3.2304 
G01 X36.8829 Y3.0958 
G01 X36.5282 Y2.7411 
G01 X36.0648 Y2.5492 
G01 X35.5632 Y2.5492 
G01 X35.0998 Y2.7411 
G01 X34.7451 Y3.0958 
G01 X34.6894 Y3.2304 
G01 X34.6803 Y3.2522 
G01 X34.6673 Y3.2838 
G01 X34.6264 Y3.3247 
G01 X34.5729 Y3.3469 
G01 X34.5151 Y3.3469 
G01 X34.4936 Y3.3380 
G01 X34.4616 Y3.3247 
G01 X34.4207 Y3.2838 
G01 X34.3986 Y3.2304 
G01 X34.3428 Y3.0958 
G01 X33.9882 Y2.7411 
G01 X33.5248 Y2.5492 
G01 X33.0232 Y2.5492 
G01 X32.5598 Y2.7411 
G01 X32.2051 Y3.0958 
G01 X32.1494 Y3.2304 
G01 X32.1403 Y3.2522 
G01 X32.1273 Y3.2838 
G01 X32.0864 Y3.3247 
G01 X32.0329 Y3.3469 
G01 X31.9751 Y3.3469 
G01 X31.9536 Y3.3380 
G01 X31.9216 Y3.3247 
G01 X31.8807 Y3.2838 
G01 X31.8586 Y3.2304 
G01 X31.8029 Y3.0958 
G01 X31.4482 Y2.7411 
G01 X30.9848 Y2.5492 
G01 X30.4832 Y2.5492 
G01 X30.0198 Y2.7411 
G01 X29.6651 Y3.0958 
G01 X29.6094 Y3.2304 
G01 X29.6003 Y3.2522 
G01 X29.5873 Y3.2838 
G01 X29.5464 Y3.3247 
G01 X29.4929 Y3.3469 
G01 X29.4351 Y3.3469 
G01 X29.4136 Y3.3380 
G01 X29.3816 Y3.3247 
G01 X29.3407 Y3.2838 
G01 X29.3186 Y3.2304 
G01 X29.2629 Y3.0958 
G01 X28.9082 Y2.7411 
G01 X28.4448 Y2.5492 
G01 X27.9432 Y2.5492 
G01 X27.4798 Y2.7411 
G01 X27.1251 Y3.0958 
G01 X26.9332 Y3.5592 
G01 X26.9332 Y4.0608 
G01 X27.1251 Y4.5242 
G01 X27.4798 Y4.8789 
G01 X27.9432 Y5.0708 
G01 X28.4448 Y5.0708 
G01 X28.9082 Y4.8789 
G01 X29.2629 Y4.5242 
G01 X29.3186 Y4.3896 
G01 X29.3407 Y4.3361 
G01 X29.3810 Y4.2959 
G01 X29.4123 Y4.2825 
G01 X29.4351 Y4.2731 
G01 X29.4929 Y4.2731 
G01 X29.5464 Y4.2953 
G01 X29.5866 Y4.3355 
G01 X29.5998 Y4.3665 
G01 X29.6094 Y4.3896 
G01 X29.6651 Y4.5242 
G01 X30.0198 Y4.8789 
G01 X30.4832 Y5.0708 
G01 X30.9848 Y5.0708 
G01 X31.4482 Y4.8788 
G01 X31.8029 Y4.5242 
G01 X31.8586 Y4.3896 
G01 X31.8807 Y4.3361 
G01 X31.9210 Y4.2959 
G01 X31.9523 Y4.2825 
G01 X31.9751 Y4.2731 
G01 X32.0329 Y4.2731 
G01 X32.0864 Y4.2953 
G01 X32.1266 Y4.3355 
G01 X32.1398 Y4.3665 
G01 X32.1494 Y4.3896 
G01 X32.2051 Y4.5242 
G01 X32.5598 Y4.8788 
G01 X33.0232 Y5.0708 
G01 X33.5248 Y5.0708 
G01 X33.9882 Y4.8788 
G01 X34.3428 Y4.5242 
G01 X34.3986 Y4.3896 
G01 X34.4207 Y4.3361 
G01 X34.4610 Y4.2959 
G01 X34.4923 Y4.2825 
G01 X34.5151 Y4.2731 
G01 X34.5729 Y4.2731 
G01 X34.6264 Y4.2953 
G01 X34.6666 Y4.3355 
G01 X34.6798 Y4.3665 
G01 X34.6894 Y4.3896 
G01 X34.7451 Y4.5242 
G01 X35.0998 Y4.8788 
G01 X35.5632 Y5.0708 
G01 X36.0648 Y5.0708 
G01 X36.5282 Y4.8788 
G01 X36.8829 Y4.5242 
G01 X36.9386 Y4.3896 
G01 X36.9607 Y4.3361 
G01 X37.0010 Y4.2959 
G01 X37.0323 Y4.2825 
G01 X37.0551 Y4.2731 
G01 X37.1129 Y4.2731 
G01 X37.1664 Y4.2953 
G01 X37.2066 Y4.3355 
G01 X37.2198 Y4.3665 
G01 X37.2294 Y4.3896 
G01 X37.2851 Y4.5242 
G01 X37.6398 Y4.8788 
G01 X38.1032 Y5.0708 
G01 X38.6048 Y5.0708 
G01 X39.0682 Y4.8788 
G01 X39.4229 Y4.5242 
G01 X39.4786 Y4.3896 
G01 X39.5007 Y4.3361 
G01 X39.5410 Y4.2959 
G01 X39.5723 Y4.2825 
G01 X39.5951 Y4.2731 
G01 X39.6529 Y4.2731 
G01 X39.7064 Y4.2953 
G01 X39.7466 Y4.3355 
G01 X39.7598 Y4.3665 
G01 X39.7694 Y4.3896 
G01 X39.8251 Y4.5242 
G01 X40.1798 Y4.8789 
G01 X40.6432 Y5.0708 
G01 X41.1448 Y5.0708 
G01 X41.6082 Y4.8789 
G01 X41.9327 Y4.5543 
G01 X41.9862 Y4.5322 
G01 X42.0440 Y4.5322 
G01 X42.0975 Y4.5543 
G01 X42.1384 Y4.5952 
G01 X42.1605 Y4.6486 
G01 X42.1605 Y6.8573 
G01 X42.3544 Y7.3254 
G01 X44.4244 Y9.3954 
G01 X44.4465 Y9.4488 
G01 X44.4465 Y13.8500 
G01 X44.4244 Y13.9035 
G01 X44.3835 Y13.9444 
G01 X44.3300 Y13.9665 
G01 X40.3867 Y13.9665 
G01 X39.9186 Y14.1604 
G01 X39.6901 Y14.3889 
G01 X39.6367 Y14.4110 
G01 X34.8501 Y14.4110 
G01 X34.5454 Y14.5372 
G01 X34.5358 Y14.5469 
G01 X34.5245 Y14.5515 
G01 X34.2646 Y14.8114 
G01 X34.2112 Y14.8336 
G01 X34.1533 Y14.8336 
G01 X34.0999 Y14.8114 
G01 X34.0590 Y14.7705 
G01 X34.0435 Y14.7551 
G01 X34.0051 Y14.7329 
G01 X33.9622 Y14.7214 
G01 X33.7704 Y14.7214 
G01 X33.7704 Y14.8046 
G01 X33.9570 Y14.8046 
G00 Z2.5400 
G00 X22.5192 Y21.2436 
G01 Z-0.1000 F254.00 
G01 X20.6608 Y21.2436 F300.00 
G01 X20.4824 Y21.2081 
G01 X20.3143 Y21.1385 
G01 X20.1630 Y21.0374 
G01 X20.0344 Y20.9088 
G01 X19.9333 Y20.7575 
G01 X19.8637 Y20.5894 
G01 X19.8282 Y20.4110 
G01 X19.8282 Y20.2290 
G01 X19.8637 Y20.0506 
G01 X19.9333 Y19.8825 
G01 X20.0344 Y19.7312 
G01 X20.1630 Y19.6026 
G01 X20.3143 Y19.5015 
G01 X20.4824 Y19.4319 
G01 X20.6608 Y19.3964 
G01 X22.5192 Y19.3964 
G01 X22.6976 Y19.4319 
G01 X22.8657 Y19.5015 
G01 X23.0125 Y19.5996 
G01 X33.6360 Y19.5996 
G01 X33.7751 Y19.6273 
G01 X33.9062 Y19.6816 
G01 X34.0242 Y19.7604 
G01 X34.1246 Y19.8608 
G01 X34.2034 Y19.9788 
G01 X34.2577 Y20.1099 
G01 X34.2854 Y20.2490 
G01 X34.2854 Y20.3910 
G01 X34.2577 Y20.5301 
G01 X34.2034 Y20.6612 
G01 X34.1246 Y20.7792 
G01 X34.0242 Y20.8796 
G01 X33.9062 Y20.9584 
G01 X33.7751 Y21.0127 
G01 X33.6360 Y21.0404 
G01 X23.0125 Y21.0404 
G01 X22.8657 Y21.1385 
G01 X22.6976 Y21.2081 
G01 X22.5192 Y21.2436 
G00 Z2.5400 
G00 X55.3354 Y29.5429 
G01 Z-0.1000 F254.00 
G01 X55.3354 Y29.6086 F300.00 
G01 X57.2114 Y31.4846 
G01 X57.2567 Y31.4846 
G01 X57.4674 Y31.5180 
G01 X57.6703 Y31.5839 
G01 X57.8604 Y31.6808 
G01 X58.0274 Y31.8021 
G01 X58.1701 Y31.8021 
G01 X59.9221 Y30.0501 
G01 X59.9221 Y16.9399 
G01 X59.5776 Y16.5954 
G01 X54.0486 Y16.5954 
G01 X53.7311 Y16.2779 
G01 X40.5583 Y16.2779 
G01 X40.3970 Y16.2523 
G01 X40.2416 Y16.2019 
G01 X40.0960 Y16.1277 
G01 X39.9639 Y16.0317 
G01 X39.8483 Y15.9161 
G01 X39.7882 Y15.8334 
G01 X34.9566 Y15.8334 
G01 X34.8419 Y15.8106 
G01 X34.7339 Y15.7659 
G01 X34.6367 Y15.7009 
G01 X34.6029 Y15.6671 
G01 X34.5916 Y15.6624 
G01 X34.5676 Y15.6384 
G01 X34.5629 Y15.6271 
G01 X34.5541 Y15.6183 
G01 X34.4891 Y15.5211 
G01 X34.4444 Y15.4131 
G01 X34.4216 Y15.2984 
G01 X34.4216 Y15.1816 
G01 X34.4444 Y15.0669 
G01 X34.4891 Y14.9589 
G01 X34.5541 Y14.8617 
G01 X34.5629 Y14.8529 
G01 X34.5676 Y14.8416 
G01 X34.5916 Y14.8176 
G01 X34.6029 Y14.8129 
G01 X34.6367 Y14.7791 
G01 X34.7339 Y14.7141 
G01 X34.8419 Y14.6694 
G01 X34.9566 Y14.6466 
G01 X39.7882 Y14.6466 
G01 X39.8483 Y14.5639 
G01 X39.9639 Y14.4483 
G01 X40.0960 Y14.3523 
G01 X40.2416 Y14.2781 
G01 X40.3970 Y14.2277 
G01 X40.5583 Y14.2021 
G01 X44.6821 Y14.2021 
G01 X44.6821 Y9.3199 
G01 X42.6423 Y7.2801 
G01 X42.5463 Y7.1480 
G01 X42.4721 Y7.0024 
G01 X42.4217 Y6.8470 
G01 X42.3961 Y6.6857 
G01 X42.3961 Y3.7283 
G01 X42.4217 Y3.5670 
G01 X42.4721 Y3.4116 
G01 X42.5463 Y3.2660 
G01 X42.6423 Y3.1339 
G01 X42.7579 Y3.0183 
G01 X42.8900 Y2.9223 
G01 X43.0356 Y2.8481 
G01 X43.1910 Y2.7977 
G01 X43.3523 Y2.7721 
G01 X43.5157 Y2.7721 
G01 X43.6770 Y2.7977 
G01 X43.8324 Y2.8481 
G01 X43.9780 Y2.9223 
G01 X44.1101 Y3.0183 
G01 X44.2257 Y3.1339 
G01 X44.3217 Y3.2660 
G01 X44.3959 Y3.4116 
G01 X44.4463 Y3.5670 
G01 X44.4719 Y3.7283 
G01 X44.4719 Y6.1741 
G01 X46.5117 Y8.2139 
G01 X46.6077 Y8.3460 
G01 X46.6819 Y8.4916 
G01 X46.7323 Y8.6470 
G01 X46.7579 Y8.8083 
G01 X46.7579 Y14.2021 
G01 X53.7311 Y14.2021 
G01 X54.0486 Y13.8846 
G01 X59.7967 Y13.8846 
G01 X60.0074 Y13.9180 
G01 X60.2103 Y13.9839 
G01 X60.4004 Y14.0808 
G01 X60.5730 Y14.2062 
G01 X60.7238 Y14.3570 
G01 X60.8492 Y14.5296 
G01 X60.9461 Y14.7197 
G01 X61.0120 Y14.9226 
G01 X61.0443 Y15.1265 
G01 X61.6361 Y15.7183 
G01 X61.7517 Y15.8339 
G01 X61.8477 Y15.9660 
G01 X61.9219 Y16.1116 
G01 X61.9723 Y16.2670 
G01 X61.9979 Y16.4283 
G01 X61.9979 Y30.5617 
G01 X61.9723 Y30.7230 
G01 X61.9219 Y30.8784 
G01 X61.8477 Y31.0240 
G01 X61.7517 Y31.1561 
G01 X61.6361 Y31.2717 
G01 X59.2761 Y33.6317 
G01 X59.1440 Y33.7277 
G01 X58.9984 Y33.8019 
G01 X58.8430 Y33.8523 
G01 X58.6817 Y33.8779 
G01 X58.0274 Y33.8779 
G01 X57.8604 Y33.9992 
G01 X57.6703 Y34.0961 
G01 X57.4674 Y34.1620 
G01 X57.2567 Y34.1954 
G01 X56.5433 Y34.1954 
G01 X56.3326 Y34.1620 
G01 X56.1297 Y34.0961 
G01 X55.9396 Y33.9992 
G01 X55.7670 Y33.8738 
G01 X54.3186 Y32.4254 
G01 X54.2529 Y32.4254 
G01 X54.0626 Y32.3875 
G01 X53.8832 Y32.3132 
G01 X53.7218 Y32.2054 
G01 X53.5846 Y32.0682 
G01 X53.4768 Y31.9068 
G01 X53.4025 Y31.7274 
G01 X53.3646 Y31.5371 
G01 X53.3646 Y31.4714 
G01 X53.3162 Y31.4230 
G01 X53.1908 Y31.2504 
G01 X53.0939 Y31.0603 
G01 X53.0280 Y30.8574 
G01 X52.9946 Y30.6467 
G01 X52.9946 Y30.4333 
G01 X53.0280 Y30.2226 
G01 X53.0939 Y30.0197 
G01 X53.1908 Y29.8296 
G01 X53.3162 Y29.6570 
G01 X53.3646 Y29.6086 
G01 X53.3646 Y29.5429 
G01 X53.4025 Y29.3526 
G01 X53.4768 Y29.1732 
G01 X53.5846 Y29.0118 
G01 X53.7218 Y28.8746 
G01 X53.8832 Y28.7668 
G01 X54.0626 Y28.6925 
G01 X54.2529 Y28.6546 
G01 X54.4471 Y28.6546 
G01 X54.6374 Y28.6925 
G01 X54.8168 Y28.7668 
G01 X54.9782 Y28.8746 
G01 X55.1154 Y29.0118 
G01 X55.2232 Y29.1732 
G01 X55.2975 Y29.3526 
G01 X55.3354 Y29.5429 
G00 Z2.5400 
G00 X58.1471 Y28.9254 
G01 Z-0.1000 F254.00 
G01 X58.0814 Y28.9254 F300.00 
G01 X58.0330 Y28.9738 
G01 X57.8604 Y29.0992 
G01 X57.6703 Y29.1961 
G01 X57.4674 Y29.2620 
G01 X57.2567 Y29.2954 
G01 X57.0433 Y29.2954 
G01 X56.8326 Y29.2620 
G01 X56.6297 Y29.1961 
G01 X56.4396 Y29.0992 
G01 X56.2670 Y28.9738 
G01 X56.2186 Y28.9254 
G01 X56.1529 Y28.9254 
G01 X55.9626 Y28.8875 
G01 X55.7832 Y28.8132 
G01 X55.6218 Y28.7054 
G01 X55.4846 Y28.5682 
G01 X55.3768 Y28.4068 
G01 X55.3025 Y28.2274 
G01 X55.2646 Y28.0371 
G01 X55.2646 Y27.8429 
G01 X55.3025 Y27.6526 
G01 X55.3768 Y27.4732 
G01 X55.4846 Y27.3118 
G01 X55.6218 Y27.1746 
G01 X55.7832 Y27.0668 
G01 X55.7946 Y27.0620 
G01 X55.7946 Y23.4214 
G01 X53.7311 Y21.3579 
G01 X40.5583 Y21.3579 
G01 X40.3970 Y21.3323 
G01 X40.2416 Y21.2819 
G01 X40.0960 Y21.2077 
G01 X39.9639 Y21.1117 
G01 X39.8926 Y21.0404 
G01 X34.9440 Y21.0404 
G01 X34.8049 Y21.0127 
G01 X34.6738 Y20.9584 
G01 X34.5558 Y20.8796 
G01 X34.4554 Y20.7792 
G01 X34.3766 Y20.6612 
G01 X34.3223 Y20.5301 
G01 X34.2946 Y20.3910 
G01 X34.2946 Y20.2490 
G01 X34.3223 Y20.1099 
G01 X34.3766 Y19.9788 
G01 X34.4554 Y19.8608 
G01 X34.5558 Y19.7604 
G01 X34.6738 Y19.6816 
G01 X34.8049 Y19.6273 
G01 X34.9440 Y19.5996 
G01 X39.8926 Y19.5996 
G01 X39.9639 Y19.5283 
G01 X40.0960 Y19.4323 
G01 X40.2416 Y19.3581 
G01 X40.3970 Y19.3077 
G01 X40.5583 Y19.2821 
G01 X53.7326 Y19.2821 
G01 X53.8996 Y19.1608 
G01 X54.0897 Y19.0639 
G01 X54.2926 Y18.9980 
G01 X54.5033 Y18.9646 
G01 X54.7167 Y18.9646 
G01 X54.9274 Y18.9980 
G01 X55.1303 Y19.0639 
G01 X55.3204 Y19.1608 
G01 X55.4930 Y19.2862 
G01 X58.1838 Y21.9770 
G01 X58.3092 Y22.1496 
G01 X58.4061 Y22.3397 
G01 X58.4720 Y22.5426 
G01 X58.5054 Y22.7533 
G01 X58.5054 Y27.0620 
G01 X58.5168 Y27.0668 
G01 X58.6782 Y27.1746 
G01 X58.8154 Y27.3118 
G01 X58.9232 Y27.4732 
G01 X58.9975 Y27.6526 
G01 X59.0354 Y27.8429 
G01 X59.0354 Y28.0371 
G01 X58.9975 Y28.2274 
G01 X58.9232 Y28.4068 
G01 X58.8154 Y28.5682 
G01 X58.6782 Y28.7054 
G01 X58.5168 Y28.8132 
G01 X58.3374 Y28.8875 
G01 X58.1471 Y28.9254 
G00 Z2.5400 
G00 Z12.7000 
M05
M02
