(.../eduards/EAGLE/pcb-gcode/pcb-gcode.ulp)
(Copyright 2005 - 2012 by John Johnson)
(See readme.txt for licensing terms.)
(This file generated from the board:)
(.../New_Project/AFM_QFM_Piezo_controller.brd)
(Current profile is .../pcb-gcode/profiles/generic.pp  )
(This file generated 4/2/24 1:04 AM)
(Settings from pcb-machine.h)
(  Tool Size)
(0.0000 )
(Z Axis Settings)
(  High     Up        Down     Drill)
(12.7000 	2.5400 	-0.0200 	-0.8128 )
(spindle on time = 3.0000)
(milling depth = 0.0000)
(text depth = -0.1270)
(tool change at 12.7000 15.2400 25.4000 )
(feed rate xy = F300.00 )
(feed rate z  = F254.00 )
(Settings from pcb-defaults.h)
(isolate min = 0.0010)
(isolate max = 2.0000)
(isolate step = 0.1200)
(Generated top outlines, top drill, )
(Unit of measure: mm)
( Tool|       Size       |  Min Sub |  Max Sub |   Count )
( T01  1.000mm 0.0394in 0.0000in 0.0000in )
( T02  1.016mm 0.0400in 0.0000in 0.0000in )
( T03  1.118mm 0.0440in 0.0000in 0.0000in )
(Metric Mode)
G21
(Absolute Coordinates)
G90
M05
G00 Z25.4000 
G00 X12.7000 Y15.2400 
M06 T01  ; 1.0000 
G01 Z0.0000 F254.00 
M06 T01  ; 1.0000 
G00 Z2.5400 
M03
G04 P3.000000
G00 Z2.540000
G00 X35.5600 Y35.5600 
G01 Z-0.8128 F254.00 
G01 Z2.540000
(R2.5400  P1.000000)
(G00 Z2.540000)
G00 X36.8300 Y17.7800 
G01 Z-0.812800
G01 Z2.540000
(G00 Z2.540000)
G00 X39.3700 Y36.8300 
G01 Z-0.812800
G01 Z2.540000
(G00 Z2.540000)
G00 X40.6400 Y24.1300 
G01 Z-0.812800
G01 Z2.540000
(G00 Z2.540000)
G00 X45.7200 Y30.4800 
G01 Z-0.812800
G01 Z2.540000
(G00 Z2.540000)
G00 X5.0800 Y35.5600 
G01 Z-0.812800
G01 Z2.540000
(G00 Z2.540000)
G00 X52.0700 Y10.1600 
G01 Z-0.812800
G01 Z2.540000
(G00 Z2.540000)
G00 X52.0700 Y21.5900 
G01 Z-0.812800
G01 Z2.540000
(G00 Z2.540000)
G00 X55.8800 Y36.8300 
G01 Z-0.812800
G01 Z2.540000
(G00 Z2.540000)
G00 X8.8900 Y45.7200 
G01 Z-0.812800
G01 Z2.540000
(G00 Z2.540000)
G00 X11.4300 Y17.7800 
G01 Z-0.812800
G01 Z2.540000
(G00 Z2.540000)
G00 X12.7000 Y33.0200 
G01 Z-0.812800
G01 Z2.540000
(G00 Z2.540000)
G00 X12.7000 Y38.1000 
G01 Z-0.812800
G01 Z2.540000
(G00 Z2.540000)
G00 X12.7000 Y40.6400 
G01 Z-0.812800
G01 Z2.540000
(G00 Z2.540000)
G00 X20.3200 Y33.0200 
G01 Z-0.812800
G01 Z2.540000
(G00 Z2.540000)
G00 X22.8600 Y40.6400 
G01 Z-0.812800
G01 Z2.540000
(G00 Z2.540000)
G00 X25.4000 Y39.3700 
G01 Z-0.812800
G01 Z2.540000
(G00 Z2.540000)
G00 X25.4000 Y12.7000 
G01 Z-0.812800
G01 Z2.540000
(G00 Z2.540000)
G00 X26.6700 Y44.4500 
G01 Z-0.812800
G01 Z2.540000
(G00 Z2.540000)
G00 X29.2100 Y40.6400 
G01 Z-0.812800
G01 Z2.540000
(G00 Z2.540000)
G00 X30.4800 Y2.5400 
G01 Z-0.812800
G01 Z2.540000
M05
G00 Z25.4000 
M06 T02  ; 1.0160 
G01 Z0.0000 F254.00 
M06 T02  ; 1.0160 
G00 Z2.5400 
M03
G04 P3.000000
G00 Z2.540000
G00 X31.7500 Y53.3400 
G01 Z-0.8128 F254.00 
G01 Z2.540000
(R2.5400  P1.000000)
(G00 Z2.540000)
G00 X33.2740 Y5.0800 
G01 Z-0.812800
G01 Z2.540000
(G00 Z2.540000)
G00 X34.2900 Y53.3400 
G01 Z-0.812800
G01 Z2.540000
(G00 Z2.540000)
G00 X35.8140 Y5.0800 
G01 Z-0.812800
G01 Z2.540000
(G00 Z2.540000)
G00 X36.8300 Y53.3400 
G01 Z-0.812800
G01 Z2.540000
(G00 Z2.540000)
G00 X38.3540 Y5.0800 
G01 Z-0.812800
G01 Z2.540000
(G00 Z2.540000)
G00 X39.3700 Y53.3400 
G01 Z-0.812800
G01 Z2.540000
(G00 Z2.540000)
G00 X40.8940 Y5.0800 
G01 Z-0.812800
G01 Z2.540000
(G00 Z2.540000)
G00 X41.9100 Y53.3400 
G01 Z-0.812800
G01 Z2.540000
(G00 Z2.540000)
G00 X43.4340 Y5.0800 
G01 Z-0.812800
G01 Z2.540000
(G00 Z2.540000)
G00 X45.9740 Y5.0800 
G01 Z-0.812800
G01 Z2.540000
(G00 Z2.540000)
G00 X48.5140 Y5.0800 
G01 Z-0.812800
G01 Z2.540000
(G00 Z2.540000)
G00 X51.0540 Y5.0800 
G01 Z-0.812800
G01 Z2.540000
(G00 Z2.540000)
G00 X6.3500 Y5.0800 
G01 Z-0.812800
G01 Z2.540000
(G00 Z2.540000)
G00 X6.3500 Y53.3400 
G01 Z-0.812800
G01 Z2.540000
(G00 Z2.540000)
G00 X8.8900 Y5.0800 
G01 Z-0.812800
G01 Z2.540000
(G00 Z2.540000)
G00 X8.8900 Y53.3400 
G01 Z-0.812800
G01 Z2.540000
(G00 Z2.540000)
G00 X11.4300 Y5.0800 
G01 Z-0.812800
G01 Z2.540000
(G00 Z2.540000)
G00 X11.4300 Y53.3400 
G01 Z-0.812800
G01 Z2.540000
(G00 Z2.540000)
G00 X13.9700 Y5.0800 
G01 Z-0.812800
G01 Z2.540000
(G00 Z2.540000)
G00 X13.9700 Y53.3400 
G01 Z-0.812800
G01 Z2.540000
(G00 Z2.540000)
G00 X16.5100 Y5.0800 
G01 Z-0.812800
G01 Z2.540000
(G00 Z2.540000)
G00 X16.5100 Y53.3400 
G01 Z-0.812800
G01 Z2.540000
(G00 Z2.540000)
G00 X19.0500 Y5.0800 
G01 Z-0.812800
G01 Z2.540000
(G00 Z2.540000)
G00 X19.0500 Y53.3400 
G01 Z-0.812800
G01 Z2.540000
(G00 Z2.540000)
G00 X21.5900 Y5.0800 
G01 Z-0.812800
G01 Z2.540000
(G00 Z2.540000)
G00 X24.1300 Y5.0800 
G01 Z-0.812800
G01 Z2.540000
(G00 Z2.540000)
G00 X24.1300 Y53.3400 
G01 Z-0.812800
G01 Z2.540000
(G00 Z2.540000)
G00 X26.6700 Y53.3400 
G01 Z-0.812800
G01 Z2.540000
(G00 Z2.540000)
G00 X28.1940 Y5.0800 
G01 Z-0.812800
G01 Z2.540000
(G00 Z2.540000)
G00 X29.2100 Y53.3400 
G01 Z-0.812800
G01 Z2.540000
(G00 Z2.540000)
G00 X30.7340 Y5.0800 
G01 Z-0.812800
G01 Z2.540000
M05
G00 Z25.4000 
M06 T03  ; 1.1176 
G01 Z0.0000 F254.00 
M06 T03  ; 1.1176 
G00 Z2.5400 
M03
G04 P3.000000
G00 Z2.540000
G00 X49.5300 Y52.0700 
G01 Z-0.8128 F254.00 
G01 Z2.540000
(R2.5400  P1.000000)
(G00 Z2.540000)
G00 X52.0700 Y52.0700 
G01 Z-0.812800
G01 Z2.540000
(G00 Z2.540000)
G00 X54.6100 Y52.0700 
G01 Z-0.812800
G01 Z2.540000
(G00 Z2.540000)
G00 X2.5400 Y38.1000 
G01 Z-0.812800
G01 Z2.540000
(G00 Z2.540000)
G00 X2.5400 Y40.6400 
G01 Z-0.812800
G01 Z2.540000
(G00 Z2.540000)
G00 X2.5400 Y43.1800 
G01 Z-0.812800
G01 Z2.540000
(G00 Z2.540000)
G00 X2.5400 Y45.7200 
G01 Z-0.812800
G01 Z2.540000
T01 
G00 Z12.7000 
M05
M02
