(.../eduards/EAGLE/pcb-gcode/pcb-gcode.ulp)
(Copyright 2005 - 2012 by John Johnson)
(See readme.txt for licensing terms.)
(This file generated from the board:)
(.../New_Project/AFM_QFM_input_patial.brd)
(Current profile is .../pcb-gcode/profiles/generic.pp  )
(This file generated 4/2/24 12:28 AM)
(Settings from pcb-machine.h)
(  Tool Size)
(0.0000 )
(Z Axis Settings)
(  High     Up        Down     Drill)
(12.7000 	2.5400 	0.0000 	-0.8128 )
(spindle on time = 3.0000)
(milling depth = 0.0000)
(text depth = -0.1270)
(tool change at 12.7000 15.2400 25.4000 )
(feed rate xy = F300.00 )
(feed rate z  = F254.00 )
(Settings from pcb-defaults.h)
(isolate min = 0.0010)
(isolate max = 2.0000)
(isolate step = 0.1200)
(Generated top outlines, top drill, )
(Unit of measure: mm)
(Metric Mode)
G21
(Absolute Coordinates)
G90
G00 X0.0000 Y0.0000
M03
G04 P3.000000
G00 Z2.5400
G00 X23.5296 Y11.4610
G01 Z0.0000 F254.00
G01 X23.5290 Y11.4604 F300.00
G01 X23.5290 Y11.2610
G01 X23.2770 Y11.2610
G01 X23.2770 Y11.4933
G01 X23.2943 Y11.5576
G01 X23.3276 Y11.6153
G01 X23.3747 Y11.6624
G01 X23.4323 Y11.6957
G01 X23.4967 Y11.7130
G01 X23.9290 Y11.7130
G01 X23.9290 Y11.4610
G01 X23.5296 Y11.4610
G00 Z2.5400
G00 X22.2233 Y11.7130
G01 Z0.0000 F254.00
G01 X22.2876 Y11.6957 F300.00
G01 X22.3453 Y11.6624
G01 X22.3924 Y11.6153
G01 X22.4257 Y11.5577
G01 X22.4430 Y11.4933
G01 X22.4430 Y11.2610
G01 X22.1910 Y11.2610
G01 X22.1910 Y11.4604
G01 X21.7910 Y11.4610
G01 X21.7910 Y11.7130
G01 X22.2233 Y11.7130
G00 Z2.5400
G00 X20.7370 Y11.4933
G01 Z0.0000 F254.00
G01 X20.7543 Y11.5576 F300.00
G01 X20.7876 Y11.6153
G01 X20.8347 Y11.6624
G01 X20.8923 Y11.6957
G01 X20.9567 Y11.7130
G01 X21.3890 Y11.7130
G01 X21.3890 Y11.4610
G01 X20.9896 Y11.4610
G01 X20.9890 Y11.2610
G01 X20.7370 Y11.2610
G01 X20.7370 Y11.4933
G00 Z2.5400
G00 X24.7304 Y11.4610
G01 Z0.0000 F254.00
G01 X24.3310 Y11.4610 F300.00
G01 X24.3310 Y11.7130
G01 X24.7633 Y11.7130
G01 X24.8276 Y11.6957
G01 X24.8853 Y11.6624
G01 X24.9324 Y11.6153
G01 X24.9657 Y11.5576
G01 X24.9830 Y11.4933
G01 X24.9830 Y11.2610
G01 X24.7310 Y11.2610
G01 X24.7310 Y11.4604
G00 Z2.5400
G00 X22.3267 Y2.1570
G01 Z0.0000 F254.00
G01 X22.2623 Y2.1743 F300.00
G01 X22.2047 Y2.2076
G01 X22.1576 Y2.2547
G01 X22.1243 Y2.3123
G01 X22.1070 Y2.3767
G01 X22.1070 Y2.7090
G01 X22.3590 Y2.7090
G01 X22.3590 Y2.4096
G01 X22.6090 Y2.4090
G01 X22.6090 Y2.1570
G01 X22.3267 Y2.1570
G00 Z2.5400
G00 X23.6130 Y2.3767
G01 Z0.0000 F254.00
G01 X23.5957 Y2.3123 F300.00
G01 X23.5624 Y2.2547
G01 X23.5153 Y2.2076
G01 X23.4576 Y2.1743
G01 X23.3933 Y2.1570
G01 X23.1110 Y2.1570
G01 X23.1110 Y2.4090
G01 X23.3604 Y2.4090
G01 X23.3610 Y2.7090
G01 X23.6130 Y2.7090
G01 X23.6130 Y2.3767
G00 Z2.5400
G00 X11.9304 Y2.4090
G01 Z0.0000 F254.00
G01 X11.9310 Y2.4096 F300.00
G01 X11.9310 Y2.7090
G01 X12.1830 Y2.7090
G01 X12.1830 Y2.3767
G01 X12.1657 Y2.3123
G01 X12.1324 Y2.2547
G01 X12.0853 Y2.2076
G01 X12.0277 Y2.1743
G01 X11.9633 Y2.1570
G01 X11.6810 Y2.1570
G01 X11.6810 Y2.4090
G01 X11.9304 Y2.4090
G00 Z2.5400
G00 X10.9296 Y2.4090
G01 Z0.0000 F254.00
G01 X11.1790 Y2.4090 F300.00
G01 X11.1790 Y2.1570
G01 X10.8967 Y2.1570
G01 X10.8323 Y2.1743
G01 X10.7747 Y2.2076
G01 X10.7276 Y2.2547
G01 X10.6943 Y2.3123
G01 X10.6770 Y2.3767
G01 X10.6770 Y2.7090
G01 X10.9290 Y2.7090
G01 X10.9290 Y2.4096
G00 Z2.5400
G00 X10.5770 Y14.0333
G01 Z0.0000 F254.00
G01 X10.5943 Y14.0976 F300.00
G01 X10.6276 Y14.1553
G01 X10.6747 Y14.2024
G01 X10.7323 Y14.2357
G01 X10.7967 Y14.2530
G01 X11.1790 Y14.2530
G01 X11.1790 Y14.0010
G01 X10.8296 Y14.0010
G01 X10.8290 Y13.8010
G01 X10.5770 Y13.8010
G01 X10.5770 Y14.0333
G00 Z2.5400
G00 X3.3930 Y6.2867
G01 Z0.0000 F254.00
G01 X3.3757 Y6.2223 F300.00
G01 X3.3424 Y6.1647
G01 X3.2953 Y6.1176
G01 X3.2376 Y6.0843
G01 X3.1733 Y6.0670
G01 X2.7410 Y6.0670
G01 X2.7410 Y6.3190
G01 X3.1404 Y6.3190
G01 X3.1410 Y6.5190
G01 X3.3930 Y6.5190
G01 X3.3930 Y6.2867
G00 Z2.5400
G00 X4.5467 Y5.9670
G01 Z0.0000 F254.00
G01 X4.4823 Y5.9843 F300.00
G01 X4.4247 Y6.0176
G01 X4.3776 Y6.0647
G01 X4.3443 Y6.1223
G01 X4.3270 Y6.1867
G01 X4.3270 Y6.5190
G01 X4.5790 Y6.5190
G01 X4.5790 Y6.2196
G01 X4.8290 Y6.2190
G01 X4.8290 Y5.9670
G01 X4.5467 Y5.9670
G00 Z2.5400
G00 X1.9067 Y6.0670
G01 Z0.0000 F254.00
G01 X1.8423 Y6.0843 F300.00
G01 X1.7847 Y6.1176
G01 X1.7376 Y6.1647
G01 X1.7043 Y6.2223
G01 X1.6870 Y6.2867
G01 X1.6870 Y6.5190
G01 X1.9390 Y6.5190
G01 X1.9390 Y6.3196
G01 X2.3390 Y6.3190
G01 X2.3390 Y6.0670
G01 X1.9067 Y6.0670
G00 Z2.5400
G00 X12.0633 Y14.2530
G01 Z0.0000 F254.00
G01 X12.1276 Y14.2357 F300.00
G01 X12.1853 Y14.2024
G01 X12.2324 Y14.1553
G01 X12.2657 Y14.0976
G01 X12.2830 Y14.0333
G01 X12.2830 Y13.8010
G01 X12.0310 Y13.8010
G01 X12.0310 Y14.0004
G01 X11.6810 Y14.0010
G01 X11.6810 Y14.2530
G01 X12.0633 Y14.2530
G00 Z2.5400
G00 X12.7772 Y18.8137
G01 Z0.0000 F254.00
G01 X12.8066 Y18.9991 F300.00
G01 X12.8646 Y19.1777
G01 X12.9498 Y19.3449
G01 X13.0602 Y19.4969
G01 X13.1929 Y19.6296
G01 X13.3449 Y19.7400
G01 X13.5121 Y19.8252
G01 X13.6907 Y19.8832
G01 X13.7150 Y19.8871
G01 X13.7150 Y19.6283
G01 X13.6956 Y19.6245
G01 X13.5244 Y19.5535
G01 X13.3703 Y19.4506
G01 X13.2392 Y19.3195
G01 X13.1363 Y19.1654
G01 X13.0653 Y18.9942
G01 X13.0292 Y18.8125
G01 X13.0292 Y18.0350
G01 X12.7772 Y18.0350
G01 X12.7772 Y18.8137
G00 Z2.5400
G00 X13.6907 Y15.6768
G01 Z0.0000 F254.00
G01 X13.5121 Y15.7348 F300.00
G01 X13.3449 Y15.8200
G01 X13.1929 Y15.9304
G01 X13.0602 Y16.0631
G01 X12.9498 Y16.2151
G01 X12.8646 Y16.3823
G01 X12.8066 Y16.5609
G01 X12.7772 Y16.7463
G01 X12.7772 Y17.5250
G01 X13.0292 Y17.5250
G01 X13.0292 Y16.7475
G01 X13.0653 Y16.5658
G01 X13.1363 Y16.3946
G01 X13.2392 Y16.2405
G01 X13.3703 Y16.1094
G01 X13.5244 Y16.0065
G01 X13.6956 Y15.9355
G01 X13.7150 Y15.9317
G01 X13.7150 Y15.6729
G01 X13.6907 Y15.6768
G00 Z2.5400
G00 X19.9908 Y16.7475
G01 Z0.0000 F254.00
G01 X19.9908 Y18.8125 F300.00
G01 X19.9547 Y18.9942
G01 X19.8837 Y19.1654
G01 X19.7808 Y19.3195
G01 X19.6497 Y19.4506
G01 X19.4956 Y19.5535
G01 X19.3244 Y19.6245
G01 X19.1427 Y19.6606
G01 X18.9573 Y19.6606
G01 X18.7756 Y19.6245
G01 X18.6044 Y19.5535
G01 X18.4503 Y19.4506
G01 X18.3192 Y19.3195
G01 X18.2163 Y19.1654
G01 X18.1453 Y18.9942
G01 X18.1092 Y18.8125
G01 X18.1092 Y16.7475
G01 X18.1453 Y16.5658
G01 X18.2163 Y16.3946
G01 X18.3192 Y16.2405
G01 X18.4503 Y16.1094
G01 X18.6044 Y16.0065
G01 X18.7756 Y15.9355
G01 X18.9573 Y15.8994
G01 X19.1427 Y15.8994
G01 X19.3244 Y15.9355
G01 X19.4956 Y16.0065
G01 X19.6497 Y16.1094
G01 X19.7808 Y16.2405
G01 X19.8837 Y16.3946
G01 X19.9547 Y16.5658
G01 X19.9908 Y16.7475
G00 Z2.5400
G00 X17.9949 Y6.0088
G01 Z0.0000 F254.00
G01 X17.9949 Y5.7285 F300.00
G01 X17.9955 Y5.7279
G01 X18.6359 Y5.7279
G01 X18.2990 Y5.3911
G01 X18.2990 Y4.7689
G01 X18.7389 Y4.3290
G01 X19.3611 Y4.3290
G01 X19.8010 Y4.7689
G01 X19.8010 Y5.3911
G01 X19.3939 Y5.7982
G01 X19.3939 Y6.0088
G01 X17.9955 Y6.0094
G00 Z2.5400
G00 X17.9949 Y6.5092
G01 Z0.0000 F254.00
G01 X17.9949 Y6.2289 F300.00
G01 X17.9955 Y6.2283
G01 X19.3933 Y6.2283
G01 X19.3939 Y6.2410
G01 X19.6193 Y6.2410
G01 X20.1920 Y5.6683
G01 X20.1920 Y5.3030
G01 X20.1755 Y5.2962
G01 X20.1038 Y5.2245
G01 X20.0650 Y5.1307
G01 X20.0650 Y3.9410
G01 X19.8196 Y3.9410
G01 X19.8190 Y2.8396
G01 X20.8204 Y2.8390
G01 X20.8210 Y3.9404
G01 X20.5750 Y3.9410
G01 X20.5750 Y5.1307
G01 X20.5362 Y5.2245
G01 X20.4645 Y5.2962
G01 X20.4480 Y5.3030
G01 X20.4480 Y5.7468
G01 X20.4285 Y5.7939
G01 X20.3925 Y5.8299
G01 X19.7448 Y6.4776
G01 X19.6978 Y6.4971
G01 X19.3939 Y6.4971
G01 X19.3939 Y6.5092
G01 X17.9955 Y6.5098
G00 Z2.5400
G00 X17.9949 Y7.0096
G01 Z0.0000 F254.00
G01 X17.9949 Y6.7293 F300.00
G01 X17.9955 Y6.7287
G01 X18.6923 Y6.7287
G01 X18.7185 Y6.7025
G01 X18.7556 Y6.6871
G01 X20.2400 Y6.6871
G01 X20.2475 Y6.6796
G01 X20.2945 Y6.6601
G01 X20.6788 Y6.6601
G01 X22.3590 Y4.9800
G01 X22.3590 Y4.1096
G01 X23.3604 Y4.1090
G01 X23.3610 Y5.2104
G01 X22.4900 Y5.2110
G01 X20.8404 Y6.8607
G01 X20.8044 Y6.8967
G01 X20.7573 Y6.9162
G01 X20.2945 Y6.9162
G01 X20.2475 Y6.8967
G01 X20.2400 Y6.8892
G01 X19.3939 Y6.8892
G01 X19.3939 Y7.0096
G01 X17.9955 Y7.0101
G00 Z2.5400
G00 X13.6261 Y9.2312
G01 Z0.0000 F254.00
G01 X13.6267 Y9.2306 F300.00
G01 X13.7465 Y9.2306
G01 X13.9654 Y9.0117
G01 X13.6267 Y9.0117
G01 X13.6261 Y8.7308
G01 X15.0245 Y8.7302
G01 X15.0251 Y9.0111
G01 X14.6858 Y9.0117
G01 X14.7329 Y9.0588
G01 X14.7999 Y9.1749
G01 X14.8149 Y9.2306
G01 X15.0245 Y9.2306
G01 X15.0251 Y9.5115
G01 X14.8149 Y9.5120
G01 X14.7999 Y9.5678
G01 X14.7329 Y9.6839
G01 X14.6583 Y9.7585
G01 X15.7288 Y10.8290
G01 X16.0104 Y10.8290
G01 X16.0110 Y11.1112
G01 X16.0173 Y11.1175
G01 X16.0843 Y11.2335
G01 X16.1190 Y11.3630
G01 X16.1190 Y11.4970
G01 X16.0843 Y11.6265
G01 X16.0173 Y11.7425
G01 X16.0110 Y11.7488
G01 X16.0110 Y12.0304
G01 X15.2096 Y12.0310
G01 X15.2090 Y11.7488
G01 X13.6575 Y10.1973
G01 X13.5627 Y10.1025
G01 X13.4957 Y9.9865
G01 X13.4610 Y9.8570
G01 X13.4610 Y9.6599
G01 X13.4957 Y9.5305
G01 X13.5627 Y9.4144
G01 X13.6261 Y9.3510
G01 X13.6261 Y9.2312
G00 Z2.5400
G00 X15.0245 Y8.2299
G01 Z0.0000 F254.00
G01 X15.0251 Y8.2304 F300.00
G01 X15.0251 Y8.5107
G01 X14.3868 Y8.5113
G01 X14.3561 Y8.5240
G01 X14.2889 Y8.5240
G01 X14.2582 Y8.5113
G01 X13.2957 Y8.5113
G01 X13.0777 Y8.7293
G01 X13.0797 Y8.7327
G01 X13.1074 Y8.8364
G01 X13.1074 Y8.9436
G01 X13.0797 Y9.0473
G01 X13.0260 Y9.1402
G01 X12.1810 Y9.9852
G01 X12.1810 Y10.4711
G01 X11.8374 Y10.8147
G01 X11.8374 Y11.1640
G01 X13.1326 Y11.1640
G01 X13.2555 Y11.1884
G01 X13.3713 Y11.2364
G01 X13.4754 Y11.3060
G01 X17.0040 Y14.8346
G01 X17.0736 Y14.9387
G01 X17.1216 Y15.0545
G01 X17.1460 Y15.1774
G01 X17.1460 Y16.1457
G01 X17.2408 Y16.2405
G01 X17.3437 Y16.3946
G01 X17.4147 Y16.5658
G01 X17.4508 Y16.7475
G01 X17.4508 Y18.8125
G01 X17.4147 Y18.9942
G01 X17.3437 Y19.1654
G01 X17.2408 Y19.3195
G01 X17.1097 Y19.4506
G01 X16.9556 Y19.5535
G01 X16.7844 Y19.6245
G01 X16.6027 Y19.6606
G01 X16.4173 Y19.6606
G01 X16.2356 Y19.6245
G01 X16.0644 Y19.5535
G01 X15.9103 Y19.4506
G01 X15.7792 Y19.3195
G01 X15.6763 Y19.1654
G01 X15.6053 Y18.9942
G01 X15.5692 Y18.8125
G01 X15.5692 Y16.7475
G01 X15.6053 Y16.5658
G01 X15.6763 Y16.3946
G01 X15.7792 Y16.2405
G01 X15.8740 Y16.1457
G01 X15.8740 Y15.5034
G01 X12.8066 Y12.4360
G01 X11.3674 Y12.4360
G01 X11.2445 Y12.4116
G01 X11.1287 Y12.3636
G01 X11.0246 Y12.2940
G01 X10.9360 Y12.2054
G01 X10.9330 Y12.2010
G01 X10.8296 Y12.2010
G01 X10.8290 Y12.0110
G01 X10.8184 Y11.9855
G01 X10.7940 Y11.8626
G01 X10.7940 Y11.7374
G01 X10.8184 Y11.6145
G01 X10.8290 Y11.5890
G01 X10.8290 Y11.3996
G01 X10.9330 Y11.3990
G01 X10.9360 Y11.3946
G01 X11.0226 Y11.3079
G01 X11.0226 Y10.8147
G01 X10.6790 Y10.4711
G01 X10.6790 Y9.8489
G01 X11.1189 Y9.4090
G01 X11.6048 Y9.4090
G01 X12.4498 Y8.5640
G01 X12.5427 Y8.5103
G01 X12.6464 Y8.4826
G01 X12.7536 Y8.4826
G01 X12.8573 Y8.5103
G01 X12.8607 Y8.5123
G01 X13.1452 Y8.2278
G01 X13.2016 Y8.2044
G01 X14.3372 Y8.2044
G01 X14.3936 Y8.2278
G01 X15.0245 Y8.2299
G00 Z2.5400
G00 X13.6261 Y7.5099
G01 Z0.0000 F254.00
G01 X13.6261 Y7.4978 F300.00
G01 X11.6585 Y7.4978
G01 X11.6114 Y7.4783
G01 X11.5979 Y7.4648
G01 X10.4962 Y7.4648
G01 X10.4082 Y7.5528
G01 X10.4150 Y7.5693
G01 X10.4150 Y7.6707
G01 X10.3762 Y7.7645
G01 X10.3045 Y7.8362
G01 X10.2107 Y7.8750
G01 X9.4728 Y7.8750
G01 X9.4536 Y7.9213
G01 X9.3840 Y8.0254
G01 X9.1125 Y8.2969
G01 X9.0687 Y8.3262
G01 X9.0395 Y8.3700
G01 X8.3710 Y9.0384
G01 X8.3710 Y9.2011
G01 X7.9311 Y9.6410
G01 X7.3089 Y9.6410
G01 X6.8690 Y9.2011
G01 X6.8690 Y8.5789
G01 X7.3089 Y8.1390
G01 X7.4716 Y8.1390
G01 X8.1400 Y7.4705
G01 X8.1838 Y7.4412
G01 X8.2131 Y7.3975
G01 X8.4846 Y7.1260
G01 X8.5887 Y7.0564
G01 X8.7045 Y7.0084
G01 X8.8274 Y6.9840
G01 X8.9526 Y6.9840
G01 X9.0755 Y7.0084
G01 X9.1913 Y7.0564
G01 X9.2954 Y7.1260
G01 X9.3840 Y7.2146
G01 X9.4536 Y7.3187
G01 X9.4728 Y7.3650
G01 X10.2107 Y7.3650
G01 X10.2272 Y7.3718
G01 X10.3707 Y7.2283
G01 X10.4177 Y7.2088
G01 X11.6764 Y7.2088
G01 X11.7235 Y7.2283
G01 X11.7370 Y7.2418
G01 X13.6261 Y7.2418
G01 X13.6261 Y7.2297
G01 X15.0245 Y7.2291
G01 X15.0251 Y7.5099
G01 X13.6267 Y7.5105
G00 Z2.5400
G00 X17.0090 Y12.0304
G01 Z0.0000 F254.00
G01 X17.0090 Y11.7488 F300.00
G01 X17.0027 Y11.7425
G01 X16.9357 Y11.6265
G01 X16.9010 Y11.4970
G01 X16.9010 Y11.3630
G01 X16.9357 Y11.2335
G01 X17.0027 Y11.1175
G01 X17.0090 Y11.1112
G01 X17.0090 Y10.8296
G01 X17.2912 Y10.8290
G01 X18.1854 Y9.9348
G01 X18.1854 Y9.5120
G01 X17.9955 Y9.5120
G01 X17.9949 Y9.2312
G01 X18.2051 Y9.2306
G01 X18.2201 Y9.1749
G01 X18.2871 Y9.0588
G01 X18.3342 Y9.0117
G01 X17.9955 Y9.0117
G01 X17.9949 Y8.7308
G01 X19.3933 Y8.7302
G01 X19.3939 Y9.0111
G01 X19.0546 Y9.0117
G01 X19.1017 Y9.0588
G01 X19.1687 Y9.1749
G01 X19.1837 Y9.2306
G01 X19.3933 Y9.2306
G01 X19.3939 Y9.5115
G01 X19.2034 Y9.5120
G01 X19.2034 Y10.2126
G01 X19.1687 Y10.3421
G01 X19.1017 Y10.4581
G01 X19.0069 Y10.5529
G01 X17.8110 Y11.7488
G01 X17.8110 Y12.0304
G01 X17.0096 Y12.0310
G00 Z2.5400
G00 X10.9296 Y4.1090
G01 Z0.0000 F254.00
G01 X11.9304 Y4.1090 F300.00
G01 X11.9310 Y4.1096
G01 X11.9310 Y4.2526
G01 X12.3336 Y4.2526
G01 X12.4373 Y4.2803
G01 X12.5302 Y4.3340
G01 X12.6060 Y4.4098
G01 X13.0260 Y4.8298
G01 X13.0797 Y4.9227
G01 X13.1074 Y5.0264
G01 X13.1074 Y5.1336
G01 X13.0797 Y5.2373
G01 X13.0645 Y5.2635
G01 X13.5417 Y5.7407
G01 X13.6261 Y5.7407
G01 X13.6261 Y5.7285
G01 X15.0245 Y5.7279
G01 X15.0251 Y6.0088
G01 X13.6267 Y6.0094
G01 X13.6261 Y5.9967
G01 X13.4632 Y5.9967
G01 X13.4162 Y5.9772
G01 X12.8835 Y5.4445
G01 X12.8573 Y5.4596
G01 X12.7536 Y5.4874
G01 X12.6464 Y5.4874
G01 X12.5427 Y5.4596
G01 X12.4498 Y5.4060
G01 X12.1112 Y5.0674
G01 X11.9310 Y5.0674
G01 X11.9310 Y5.2104
G01 X10.9296 Y5.2110
G01 X10.9290 Y4.1096
G00 Z2.5400
G00 X22.1904 Y9.6610
G01 Z0.0000 F254.00
G01 X20.9896 Y9.6610 F300.00
G01 X20.9890 Y9.6604
G01 X20.9890 Y9.5658
G01 X20.6497 Y9.5658
G01 X20.5720 Y9.5450
G01 X20.5022 Y9.5047
G01 X20.0753 Y9.0778
G01 X20.0350 Y9.0080
G01 X20.0142 Y8.9303
G01 X20.0142 Y8.8497
G01 X20.0320 Y8.7831
G01 X19.7475 Y8.4986
G01 X19.3939 Y8.4986
G01 X19.3939 Y8.5107
G01 X17.9955 Y8.5113
G01 X17.9949 Y8.2304
G01 X19.3933 Y8.2299
G01 X19.3939 Y8.2425
G01 X19.8260 Y8.2425
G01 X19.8731 Y8.2620
G01 X20.2131 Y8.6020
G01 X20.2797 Y8.5842
G01 X20.3603 Y8.5842
G01 X20.4380 Y8.6050
G01 X20.5078 Y8.6453
G01 X20.8167 Y8.9542
G01 X20.9890 Y8.9542
G01 X20.9890 Y8.8596
G01 X22.1904 Y8.8590
G01 X22.1910 Y9.6604
G00 Z2.5400
G00 X28.9725 Y18.7208
G01 Z0.0000 F254.00
G01 X26.9075 Y18.7208 F300.00
G01 X26.7258 Y18.6847
G01 X26.5546 Y18.6137
G01 X26.4005 Y18.5108
G01 X26.3057 Y18.4160
G01 X25.8261 Y18.4160
G01 X25.7111 Y18.5310
G01 X25.0889 Y18.5310
G01 X24.6490 Y18.0911
G01 X24.6490 Y17.4689
G01 X25.0889 Y17.0290
G01 X25.7111 Y17.0290
G01 X25.8261 Y17.1440
G01 X26.3057 Y17.1440
G01 X26.4005 Y17.0492
G01 X26.5546 Y16.9463
G01 X26.7258 Y16.8753
G01 X26.9075 Y16.8392
G01 X28.9725 Y16.8392
G01 X29.1542 Y16.8753
G01 X29.3254 Y16.9463
G01 X29.4795 Y17.0492
G01 X29.6106 Y17.1803
G01 X29.7135 Y17.3344
G01 X29.7845 Y17.5056
G01 X29.8206 Y17.6873
G01 X29.8206 Y17.8727
G01 X29.7845 Y18.0544
G01 X29.7135 Y18.2256
G01 X29.6106 Y18.3797
G01 X29.4795 Y18.5108
G01 X29.3254 Y18.6137
G01 X29.1542 Y18.6847
G01 X28.9725 Y18.7208
G00 Z2.5400
G00 X28.9725 Y13.6408
G01 Z0.0000 F254.00
G01 X26.9075 Y13.6408 F300.00
G01 X26.7258 Y13.6047
G01 X26.5546 Y13.5337
G01 X26.4005 Y13.4308
G01 X26.2694 Y13.2997
G01 X26.1665 Y13.1456
G01 X26.0955 Y12.9744
G01 X26.0594 Y12.7927
G01 X26.0594 Y12.6073
G01 X26.0955 Y12.4256
G01 X26.1665 Y12.2544
G01 X26.2694 Y12.1003
G01 X26.4005 Y11.9692
G01 X26.5546 Y11.8663
G01 X26.7258 Y11.7953
G01 X26.9075 Y11.7592
G01 X27.5326 Y11.7592
G01 X27.5326 Y11.5988
G01 X25.6012 Y9.6674
G01 X24.0764 Y9.6674
G01 X24.0525 Y9.6610
G01 X23.5296 Y9.6610
G01 X23.5290 Y8.8596
G01 X24.0525 Y8.8590
G01 X24.0764 Y8.8526
G01 X24.9926 Y8.8526
G01 X24.9926 Y7.8750
G01 X22.8093 Y7.8750
G01 X22.7928 Y7.8682
G01 X22.6823 Y7.9787
G01 X22.6353 Y7.9982
G01 X19.3939 Y7.9982
G01 X19.3939 Y8.0103
G01 X17.9955 Y8.0109
G01 X17.9949 Y7.7301
G01 X19.3933 Y7.7295
G01 X19.3939 Y7.7422
G01 X22.5568 Y7.7422
G01 X22.6118 Y7.6872
G01 X22.6050 Y7.6707
G01 X22.6050 Y7.5693
G01 X22.6438 Y7.4755
G01 X22.7155 Y7.4038
G01 X22.8093 Y7.3650
G01 X24.8990 Y7.3650
G01 X24.8990 Y6.6496
G01 X25.9004 Y6.6490
G01 X25.9010 Y7.7504
G01 X25.8074 Y7.7510
G01 X25.8074 Y8.8526
G01 X25.8236 Y8.8526
G01 X25.9273 Y8.8803
G01 X26.0202 Y8.9340
G01 X28.1902 Y11.1040
G01 X28.2660 Y11.1798
G01 X28.3197 Y11.2727
G01 X28.3474 Y11.3764
G01 X28.3474 Y11.7592
G01 X28.9725 Y11.7592
G01 X29.1542 Y11.7953
G01 X29.3254 Y11.8663
G01 X29.4795 Y11.9692
G01 X29.6106 Y12.1003
G01 X29.7135 Y12.2544
G01 X29.7845 Y12.4256
G01 X29.8206 Y12.6073
G01 X29.8206 Y12.7927
G01 X29.7845 Y12.9744
G01 X29.7135 Y13.1456
G01 X29.6106 Y13.2997
G01 X29.4795 Y13.4308
G01 X29.3254 Y13.5337
G01 X29.1542 Y13.6047
G01 X28.9725 Y13.6408
G00 Z2.5400
G00 X23.5290 Y10.6596
G01 Z0.0000 F254.00
G01 X23.5296 Y10.6590 F300.00
G01 X24.7304 Y10.6590
G01 X24.7310 Y10.8590
G01 X24.9830 Y10.8590
G01 X24.9830 Y10.7679
G01 X25.0025 Y10.7209
G01 X25.0385 Y10.6849
G01 X25.0855 Y10.6654
G01 X25.1603 Y10.6654
G01 X25.2074 Y10.6849
G01 X25.6324 Y11.1100
G01 X25.6679 Y11.1454
G01 X25.6872 Y11.1919
G01 X25.6874 Y11.2434
G01 X25.6685 Y11.2891
G01 X25.6319 Y11.3265
G01 X25.3566 Y11.6018
G01 X25.0614 Y12.3143
G01 X25.0614 Y13.0857
G01 X25.3566 Y13.7982
G01 X25.9020 Y14.3436
G01 X25.9541 Y14.3652
G01 X25.9691 Y14.3688
G01 X25.9774 Y14.3749
G01 X25.9869 Y14.3788
G01 X25.9978 Y14.3897
G01 X26.0103 Y14.3987
G01 X26.0157 Y14.4075
G01 X26.0230 Y14.4148
G01 X26.0289 Y14.4291
G01 X26.0369 Y14.4422
G01 X26.0385 Y14.4524
G01 X26.0425 Y14.4619
G01 X26.0425 Y14.4773
G01 X26.0449 Y14.4925
G01 X26.0425 Y14.5025
G01 X26.0425 Y14.5128
G01 X26.0366 Y14.5270
G01 X26.0330 Y14.5420
G01 X26.0269 Y14.5503
G01 X26.0230 Y14.5599
G01 X26.0121 Y14.5707
G01 X25.9800 Y14.6148
G01 X25.8948 Y14.7821
G01 X25.8368 Y14.9607
G01 X25.8329 Y14.9850
G01 X26.0917 Y14.9850
G01 X26.0955 Y14.9656
G01 X26.1665 Y14.7944
G01 X26.2694 Y14.6403
G01 X26.4005 Y14.5092
G01 X26.5546 Y14.4063
G01 X26.7258 Y14.3353
G01 X26.9075 Y14.2992
G01 X28.9725 Y14.2992
G01 X29.1542 Y14.3353
G01 X29.3254 Y14.4063
G01 X29.4795 Y14.5092
G01 X29.6106 Y14.6403
G01 X29.7135 Y14.7944
G01 X29.7845 Y14.9656
G01 X29.8206 Y15.1473
G01 X29.8206 Y15.3327
G01 X29.7845 Y15.5144
G01 X29.7135 Y15.6856
G01 X29.6106 Y15.8397
G01 X29.4795 Y15.9708
G01 X29.3254 Y16.0737
G01 X29.1542 Y16.1447
G01 X28.9725 Y16.1808
G01 X26.9075 Y16.1808
G01 X26.7258 Y16.1447
G01 X26.5546 Y16.0737
G01 X26.4005 Y15.9708
G01 X26.2694 Y15.8397
G01 X26.1665 Y15.6856
G01 X26.0955 Y15.5144
G01 X26.0917 Y15.4950
G01 X25.8329 Y15.4950
G01 X25.8368 Y15.5193
G01 X25.8948 Y15.6979
G01 X25.9605 Y15.8268
G01 X25.9642 Y15.8305
G01 X25.9720 Y15.8494
G01 X25.9813 Y15.8676
G01 X25.9817 Y15.8727
G01 X25.9837 Y15.8775
G01 X25.9837 Y15.8980
G01 X25.9853 Y15.9183
G01 X25.9837 Y15.9233
G01 X25.9837 Y15.9285
G01 X25.9758 Y15.9473
G01 X25.9695 Y15.9668
G01 X25.9662 Y15.9707
G01 X25.9642 Y15.9755
G01 X25.9497 Y15.9900
G01 X25.9365 Y16.0055
G01 X25.9318 Y16.0079
G01 X25.9282 Y16.0115
G01 X25.9093 Y16.0193
G01 X25.8911 Y16.0286
G01 X25.8859 Y16.0290
G01 X25.8811 Y16.0310
G01 X25.8607 Y16.0310
G01 X25.8403 Y16.0326
G01 X25.8354 Y16.0310
G01 X24.6755 Y16.0310
G01 X23.6510 Y17.0555
G01 X23.6510 Y18.5044
G01 X24.6755 Y19.5290
G01 X26.1563 Y19.5290
G01 X26.1594 Y19.5302
G01 X26.6145 Y19.7188
G01 X29.2655 Y19.7188
G01 X29.9030 Y19.4547
G01 X29.9030 Y19.0001
G01 X29.9412 Y18.9078
G01 X30.0118 Y18.8372
G01 X30.1041 Y18.7990
G01 X30.2039 Y18.7990
G01 X30.2962 Y18.8372
G01 X30.3668 Y18.9078
G01 X30.4050 Y19.0001
G01 X30.4050 Y20.4625
G01 X30.3855 Y20.5095
G01 X30.3495 Y20.5455
G01 X30.3025 Y20.5650
G01 X-0.1525 Y20.5650
G01 X-0.1995 Y20.5455
G01 X-0.2355 Y20.5095
G01 X-0.2550 Y20.4625
G01 X-0.2550 Y1.1175
G01 X-0.2355 Y1.0705
G01 X-0.1995 Y1.0345
G01 X-0.1525 Y1.0150
G01 X19.4645 Y1.0150
G01 X19.5115 Y1.0345
G01 X19.5475 Y1.0705
G01 X19.5670 Y1.1175
G01 X19.5670 Y1.4390
G01 X19.8190 Y1.4390
G01 X19.8190 Y1.1396
G01 X20.8204 Y1.1390
G01 X20.8210 Y1.4390
G01 X21.0730 Y1.4390
G01 X21.0730 Y1.1175
G01 X21.0925 Y1.0705
G01 X21.1285 Y1.0345
G01 X21.1755 Y1.0150
G01 X24.5445 Y1.0150
G01 X24.5915 Y1.0345
G01 X24.6275 Y1.0705
G01 X24.6470 Y1.1175
G01 X24.6470 Y1.4390
G01 X24.8990 Y1.4390
G01 X24.8990 Y1.1396
G01 X25.9004 Y1.1390
G01 X25.9010 Y1.4390
G01 X26.1530 Y1.4390
G01 X26.1530 Y1.1175
G01 X26.1725 Y1.0705
G01 X26.2085 Y1.0345
G01 X26.2555 Y1.0150
G01 X30.3025 Y1.0150
G01 X30.3495 Y1.0345
G01 X30.3855 Y1.0705
G01 X30.4050 Y1.1175
G01 X30.4050 Y11.1998
G01 X30.3861 Y11.2455
G01 X30.3495 Y11.2828
G01 X30.3030 Y11.3021
G01 X30.2515 Y11.3023
G01 X30.2058 Y11.2834
G01 X30.1685 Y11.2468
G01 X29.9780 Y11.0564
G01 X29.2655 Y10.7612
G01 X29.2442 Y10.7612
G01 X29.1985 Y10.7423
G01 X29.1612 Y10.7057
G01 X29.1314 Y10.6339
G01 X26.8249 Y8.3274
G01 X26.8054 Y8.2803
G01 X26.8054 Y8.1747
G01 X26.8990 Y7.9487
G01 X26.8990 Y6.4513
G01 X26.8871 Y6.4225
G01 X26.8807 Y6.4073
G01 X26.8676 Y6.3755
G01 X26.8676 Y6.3245
G01 X26.8837 Y6.2856
G01 X26.8871 Y6.2775
G01 X26.8990 Y6.2487
G01 X26.8990 Y4.7513
G01 X26.8054 Y4.5253
G01 X26.8054 Y4.3647
G01 X26.8990 Y4.1387
G01 X26.8990 Y2.6413
G01 X26.7469 Y2.2741
G01 X26.4659 Y1.9931
G01 X26.0987 Y1.8410
G01 X25.9010 Y1.8410
G01 X25.9010 Y2.2404
G01 X24.8996 Y2.2410
G01 X24.8990 Y1.8410
G01 X24.7013 Y1.8410
G01 X24.3341 Y1.9931
G01 X24.0531 Y2.2741
G01 X23.9010 Y2.6413
G01 X23.9010 Y3.0867
G01 X23.8821 Y3.1324
G01 X23.8455 Y3.1697
G01 X23.7990 Y3.1890
G01 X23.7475 Y3.1892
G01 X23.5587 Y3.1110
G01 X23.3610 Y3.1110
G01 X23.3610 Y3.5104
G01 X22.3596 Y3.5110
G01 X22.3590 Y3.1110
G01 X22.1613 Y3.1110
G01 X21.9725 Y3.1892
G01 X21.9215 Y3.1892
G01 X21.8745 Y3.1697
G01 X21.8385 Y3.1337
G01 X21.8190 Y3.0867
G01 X21.8190 Y2.6413
G01 X21.6669 Y2.2741
G01 X21.3859 Y1.9931
G01 X21.0187 Y1.8410
G01 X20.8210 Y1.8410
G01 X20.8210 Y2.2404
G01 X19.8196 Y2.2410
G01 X19.8190 Y1.8410
G01 X19.6213 Y1.8410
G01 X19.2541 Y1.9931
G01 X18.9731 Y2.2741
G01 X18.8210 Y2.6413
G01 X18.8210 Y3.2285
G01 X18.8015 Y3.2755
G01 X18.7655 Y3.3115
G01 X18.7185 Y3.3310
G01 X18.3255 Y3.3310
G01 X17.3010 Y4.3555
G01 X17.3010 Y4.9835
G01 X17.2815 Y5.0306
G01 X17.2455 Y5.0666
G01 X17.1490 Y5.1631
G01 X16.9969 Y5.5303
G01 X16.9969 Y5.7913
G01 X16.9774 Y5.8383
G01 X16.9414 Y5.8743
G01 X16.8944 Y5.8938
G01 X16.7650 Y5.8938
G01 X16.7650 Y6.1458
G01 X17.3867 Y6.1458
G01 X17.3873 Y9.0936
G01 X15.6333 Y9.0942
G01 X15.6327 Y6.9974
G01 X15.0251 Y6.9974
G01 X15.0251 Y7.0096
G01 X13.6267 Y7.0101
G01 X13.6261 Y6.7293
G01 X15.0245 Y6.7287
G01 X15.0251 Y6.7414
G01 X15.6327 Y6.7414
G01 X15.6327 Y6.1464
G01 X16.2550 Y6.1458
G01 X16.2550 Y5.8938
G01 X16.1256 Y5.8938
G01 X16.0786 Y5.8743
G01 X16.0426 Y5.8383
G01 X16.0231 Y5.7913
G01 X16.0231 Y5.5303
G01 X15.8710 Y5.1631
G01 X15.5900 Y4.8821
G01 X15.2228 Y4.7300
G01 X14.1363 Y4.7300
G01 X14.0892 Y4.7105
G01 X14.0538 Y4.6750
G01 X14.0337 Y4.6274
G01 X13.8914 Y4.2839
G01 X13.4714 Y3.8639
G01 X13.0761 Y3.4686
G01 X12.5595 Y3.2546
G01 X12.4754 Y3.2546
G01 X12.1287 Y3.1110
G01 X11.9310 Y3.1110
G01 X11.9310 Y3.5104
G01 X10.9296 Y3.5110
G01 X10.9290 Y3.1110
G01 X10.7313 Y3.1110
G01 X10.3641 Y3.2631
G01 X10.0831 Y3.5441
G01 X9.9310 Y3.9113
G01 X9.9310 Y4.9985
G01 X9.9115 Y5.0455
G01 X9.8755 Y5.0815
G01 X9.8285 Y5.1010
G01 X7.3716 Y5.1010
G01 X6.9125 Y5.2912
G01 X6.5612 Y5.6425
G01 X6.0406 Y6.1631
G01 X6.0363 Y6.1706
G01 X6.0227 Y6.1810
G01 X6.0106 Y6.1930
G01 X6.0027 Y6.1963
G01 X5.9958 Y6.2016
G01 X5.9794 Y6.2060
G01 X5.9636 Y6.2125
G01 X5.9550 Y6.2125
G01 X5.9466 Y6.2147
G01 X5.9297 Y6.2125
G01 X5.9127 Y6.2125
G01 X5.9047 Y6.2092
G01 X5.8962 Y6.2081
G01 X5.8814 Y6.1996
G01 X5.8656 Y6.1930
G01 X5.8595 Y6.1869
G01 X5.8521 Y6.1826
G01 X5.8417 Y6.1691
G01 X5.8296 Y6.1570
G01 X5.8263 Y6.1491
G01 X5.8211 Y6.1422
G01 X5.8166 Y6.1257
G01 X5.8140 Y6.1193
G01 X5.7824 Y6.0647
G01 X5.7353 Y6.0176
G01 X5.6776 Y5.9843
G01 X5.6133 Y5.9670
G01 X5.3310 Y5.9670
G01 X5.3310 Y6.2190
G01 X5.5804 Y6.2190
G01 X5.5810 Y7.3204
G01 X4.5796 Y7.3210
G01 X4.5790 Y6.9210
G01 X4.3813 Y6.9210
G01 X4.0141 Y7.0731
G01 X3.8609 Y7.2263
G01 X3.8254 Y7.2618
G01 X3.7778 Y7.2818
G01 X3.7269 Y7.2818
G01 X3.4485 Y7.1665
G01 X3.4125 Y7.1305
G01 X3.3930 Y7.0834
G01 X3.3930 Y6.9210
G01 X3.1410 Y6.9210
G01 X3.1410 Y7.1204
G01 X1.9396 Y7.1210
G01 X1.9390 Y6.9210
G01 X1.6870 Y6.9210
G01 X1.6870 Y7.0834
G01 X1.6681 Y7.1291
G01 X1.6315 Y7.1665
G01 X1.3741 Y7.2731
G01 X1.0931 Y7.5541
G01 X0.9410 Y7.9213
G01 X0.9410 Y9.1187
G01 X1.0931 Y9.4859
G01 X1.1151 Y9.5079
G01 X1.1226 Y9.5260
G01 X1.1346 Y9.5549
G01 X1.1346 Y9.5801
G01 X1.1346 Y9.6059
G01 X1.1346 Y11.7096
G01 X1.3486 Y12.2261
G01 X3.0139 Y13.8914
G01 X3.5304 Y14.1054
G01 X4.1470 Y14.1054
G01 X4.1941 Y14.1249
G01 X4.2301 Y14.1609
G01 X5.8515 Y15.7823
G01 X5.8710 Y15.8294
G01 X5.8710 Y15.9644
G01 X6.8955 Y16.9890
G01 X8.3444 Y16.9890
G01 X9.3690 Y15.9644
G01 X9.3690 Y14.5155
G01 X8.6890 Y13.8356
G01 X8.6649 Y13.8114
G01 X8.6530 Y13.7996
G01 X8.6335 Y13.7525
G01 X8.6335 Y13.7016
G01 X8.6530 Y13.6545
G01 X8.6890 Y13.6185
G01 X9.7009 Y12.6066
G01 X9.7363 Y12.5712
G01 X9.7828 Y12.5519
G01 X9.8343 Y12.5517
G01 X9.8800 Y12.5706
G01 X9.9174 Y12.6072
G01 X9.9831 Y12.7659
G01 X10.2641 Y13.0469
G01 X10.3911 Y13.0995
G01 X10.4165 Y13.1100
G01 X10.4382 Y13.1190
G01 X10.5044 Y13.1852
G01 X10.5215 Y13.1923
G01 X10.5333 Y13.2041
G01 X10.5575 Y13.2283
G01 X10.5621 Y13.2393
G01 X10.5770 Y13.2753
G01 X10.5770 Y13.3005
G01 X10.5770 Y13.3263
G01 X10.5770 Y13.3990
G01 X10.8290 Y13.3990
G01 X10.8290 Y13.1996
G01 X12.0304 Y13.1990
G01 X12.0310 Y13.4340
G01 X12.3656 Y13.4340
G01 X12.4127 Y13.4535
G01 X12.4443 Y13.4851
G01 X14.4415 Y15.4823
G01 X14.4570 Y15.4956
G01 X14.4594 Y15.5002
G01 X14.4631 Y15.5039
G01 X14.4709 Y15.5227
G01 X14.4802 Y15.5409
G01 X14.4806 Y15.5461
G01 X14.4825 Y15.5509
G01 X14.4825 Y15.5713
G01 X14.4842 Y15.5917
G01 X14.4825 Y15.5966
G01 X14.4825 Y15.6018
G01 X14.4747 Y15.6207
G01 X14.4684 Y15.6402
G01 X14.4650 Y15.6441
G01 X14.4631 Y15.6489
G01 X14.4486 Y15.6633
G01 X14.4353 Y15.6789
G01 X14.4307 Y15.6812
G01 X14.4270 Y15.6849
G01 X14.4082 Y15.6927
G01 X14.3900 Y15.7020
G01 X14.3848 Y15.7024
G01 X14.3800 Y15.7044
G01 X14.3596 Y15.7044
G01 X14.3392 Y15.7060
G01 X14.3343 Y15.7044
G01 X14.3291 Y15.7044
G01 X14.3102 Y15.6966
G01 X14.2493 Y15.6768
G01 X14.2250 Y15.6729
G01 X14.2250 Y15.9317
G01 X14.2444 Y15.9355
G01 X14.4156 Y16.0065
G01 X14.5697 Y16.1094
G01 X14.7008 Y16.2405
G01 X14.8037 Y16.3946
G01 X14.8747 Y16.5658
G01 X14.9108 Y16.7475
G01 X14.9108 Y18.8125
G01 X14.8747 Y18.9942
G01 X14.8037 Y19.1654
G01 X14.7008 Y19.3195
G01 X14.5697 Y19.4506
G01 X14.4156 Y19.5535
G01 X14.2444 Y19.6245
G01 X14.2250 Y19.6283
G01 X14.2250 Y19.8871
G01 X14.2493 Y19.8832
G01 X14.4279 Y19.8252
G01 X14.5952 Y19.7400
G01 X14.6392 Y19.7079
G01 X14.6501 Y19.6970
G01 X14.6597 Y19.6931
G01 X14.6680 Y19.6870
G01 X14.6830 Y19.6834
G01 X14.6972 Y19.6775
G01 X14.7075 Y19.6775
G01 X14.7175 Y19.6751
G01 X14.7327 Y19.6775
G01 X14.7481 Y19.6775
G01 X14.7576 Y19.6815
G01 X14.7678 Y19.6831
G01 X14.7809 Y19.6911
G01 X14.7952 Y19.6970
G01 X14.8025 Y19.7043
G01 X14.8112 Y19.7097
G01 X14.8203 Y19.7222
G01 X14.8312 Y19.7330
G01 X14.8351 Y19.7426
G01 X14.8412 Y19.7509
G01 X14.8448 Y19.7659
G01 X14.8664 Y19.8180
G01 X15.1113 Y20.0630
G01 X20.4487 Y20.0630
G01 X20.6936 Y19.8180
G01 X20.9888 Y19.1055
G01 X20.9888 Y16.4545
G01 X20.6936 Y15.7420
G01 X20.1482 Y15.1966
G01 X19.4357 Y14.9014
G01 X18.6643 Y14.9014
G01 X18.2975 Y15.0534
G01 X18.2465 Y15.0534
G01 X18.2271 Y15.0453
G01 X18.1995 Y15.0339
G01 X18.1829 Y15.0173
G01 X18.1635 Y14.9979
G01 X18.1440 Y14.9510
G01 X18.1440 Y14.9150
G01 X17.8952 Y14.3144
G01 X17.4356 Y13.8548
G01 X17.3996 Y13.8188
G01 X16.8103 Y13.2295
G01 X16.7908 Y13.1825
G01 X16.7908 Y13.1315
G01 X16.8103 Y13.0845
G01 X16.8463 Y13.0485
G01 X16.8934 Y13.0290
G01 X18.0087 Y13.0290
G01 X18.3759 Y12.8769
G01 X18.6569 Y12.5959
G01 X18.8090 Y12.2287
G01 X18.8090 Y12.1898
G01 X18.8279 Y12.1441
G01 X18.8645 Y12.1067
G01 X19.5480 Y11.4232
G01 X19.9720 Y10.9992
G01 X20.1538 Y10.5601
G01 X20.1898 Y10.5241
G01 X20.2169 Y10.5129
G01 X20.2369 Y10.5046
G01 X20.2878 Y10.5046
G01 X20.3042 Y10.5114
G01 X20.3349 Y10.5241
G01 X20.4307 Y10.5638
G01 X20.5615 Y10.5638
G01 X20.6815 Y10.6135
G01 X20.7175 Y10.6495
G01 X20.7370 Y10.6966
G01 X20.7370 Y10.8590
G01 X20.9890 Y10.8590
G01 X20.9890 Y10.6596
G01 X22.1904 Y10.6590
G01 X22.1910 Y10.8590
G01 X22.4430 Y10.8590
G01 X22.4430 Y10.6966
G01 X22.4619 Y10.6509
G01 X22.4985 Y10.6135
G01 X22.7559 Y10.5069
G01 X22.7869 Y10.4758
G01 X22.8148 Y10.4640
G01 X22.8345 Y10.4558
G01 X22.8855 Y10.4558
G01 X22.9239 Y10.4717
G01 X22.9325 Y10.4753
G01 X22.9641 Y10.5069
G01 X23.2215 Y10.6135
G01 X23.2575 Y10.6495
G01 X23.2770 Y10.6966
G01 X23.2770 Y10.8590
G01 X23.5290 Y10.8590
G01 X23.5290 Y10.6596
G00 Z2.5400
G00 X5.5804 Y9.0210
G01 Z0.0000 F254.00
G01 X5.4874 Y9.0210 F300.00
G01 X5.4874 Y10.0290
G01 X5.5804 Y10.0290
G01 X5.5810 Y11.1304
G01 X4.5796 Y11.1310
G01 X4.5790 Y10.0296
G01 X4.6726 Y10.0290
G01 X4.6726 Y9.0210
G01 X4.5796 Y9.0210
G01 X4.5790 Y7.9196
G01 X5.5804 Y7.9190
G01 X5.5810 Y8.0340
G01 X7.4072 Y6.2078
G01 X7.4778 Y6.1372
G01 X7.5701 Y6.0990
G01 X12.7499 Y6.0990
G01 X12.8422 Y6.1372
G01 X12.9128 Y6.2078
G01 X12.9187 Y6.2220
G01 X14.3320 Y6.2220
G01 X14.3473 Y6.2283
G01 X15.0245 Y6.2283
G01 X15.0251 Y6.5092
G01 X13.6267 Y6.5098
G01 X13.6261 Y6.4780
G01 X12.9187 Y6.4780
G01 X12.9128 Y6.4922
G01 X12.8422 Y6.5628
G01 X12.7499 Y6.6010
G01 X7.7240 Y6.6010
G01 X5.5810 Y8.7440
G01 X5.5810 Y9.0204
G00 Z2.5400
G00 X25.9004 Y3.9410
G01 Z0.0000 F254.00
G01 X25.8074 Y3.9410 F300.00
G01 X25.8074 Y4.9490
G01 X25.9004 Y4.9490
G01 X25.9010 Y6.0504
G01 X24.8996 Y6.0510
G01 X24.8990 Y5.7550
G01 X24.5700 Y5.7550
G01 X23.3816 Y6.9434
G01 X23.2879 Y6.9822
G01 X23.1864 Y6.9822
G01 X23.1700 Y6.9754
G01 X23.1535 Y6.9919
G01 X23.1064 Y7.0114
G01 X21.6844 Y7.0114
G01 X21.2174 Y7.4783
G01 X21.1704 Y7.4978
G01 X19.3939 Y7.4978
G01 X19.3939 Y7.5099
G01 X17.9955 Y7.5105
G01 X17.9949 Y7.2297
G01 X19.3933 Y7.2291
G01 X19.3939 Y7.2418
G01 X21.0919 Y7.2418
G01 X21.5588 Y6.7749
G01 X21.6059 Y6.7554
G01 X22.9822 Y6.7554
G01 X22.9822 Y6.6764
G01 X23.0210 Y6.5827
G01 X24.2482 Y5.3555
G01 X24.3199 Y5.2838
G01 X24.4136 Y5.2450
G01 X24.8990 Y5.2450
G01 X24.8990 Y4.9496
G01 X24.9926 Y4.9490
G01 X24.9926 Y3.9410
G01 X24.8996 Y3.9410
G01 X24.8990 Y2.8396
G01 X25.9004 Y2.8390
G01 X25.9010 Y3.9404
G00 Z2.5400
G00 X7.4099 Y10.6390
G01 Z0.0000 F254.00
G01 X7.4556 Y10.6579 F300.00
G01 X7.4570 Y10.6585
G01 X7.4930 Y10.6945
G01 X7.5122 Y10.7410
G01 X7.5125 Y10.7925
G01 X7.4935 Y10.8382
G01 X7.4570 Y10.8755
G01 X7.0574 Y11.2751
G01 X7.0103 Y11.2946
G01 X6.6815 Y11.2946
G01 X6.6345 Y11.2751
G01 X6.5985 Y11.2391
G01 X6.5790 Y11.1921
G01 X6.5790 Y10.6060
G01 X6.5979 Y10.5603
G01 X6.6345 Y10.5229
G01 X6.6806 Y10.5038
G01 X6.7325 Y10.5035
G01 X6.7782 Y10.5224
G01 X6.8155 Y10.5590
G01 X6.8955 Y10.6390
G01 X7.4099 Y10.6390
G00 Z2.5400
G00 X8.7486 Y9.6303
G01 Z0.0000 F254.00
G01 X8.7874 Y9.5365 F300.00
G01 X8.8591 Y9.4648
G01 X9.4648 Y8.8591
G01 X9.5365 Y8.7874
G01 X9.6303 Y8.7486
G01 X9.9408 Y8.7486
G01 X10.0155 Y8.6738
G01 X10.1093 Y8.6350
G01 X10.1262 Y8.6350
G01 X11.0641 Y7.6971
G01 X11.1392 Y7.6660
G01 X11.4706 Y7.6660
G01 X11.5457 Y7.6971
G01 X11.5908 Y7.7422
G01 X13.6261 Y7.7422
G01 X13.6261 Y7.7301
G01 X15.0245 Y7.7295
G01 X15.0251 Y8.0103
G01 X13.6267 Y8.0109
G01 X13.6261 Y7.9982
G01 X11.5908 Y7.9982
G01 X11.5457 Y8.0433
G01 X11.4706 Y8.0744
G01 X11.2644 Y8.0744
G01 X10.4150 Y8.9238
G01 X10.4150 Y8.9407
G01 X10.3762 Y9.0345
G01 X10.1909 Y9.2198
G01 X10.0971 Y9.2586
G01 X9.7866 Y9.2586
G01 X9.2586 Y9.7866
G01 X9.2586 Y11.2536
G01 X9.2697 Y11.2727
G01 X9.2974 Y11.3764
G01 X9.2974 Y11.4836
G01 X9.2697 Y11.5873
G01 X9.2160 Y11.6802
G01 X7.8702 Y13.0260
G01 X7.7773 Y13.0797
G01 X7.6736 Y13.1074
G01 X6.3869 Y13.1074
G01 X7.7684 Y14.4890
G01 X7.9311 Y14.4890
G01 X8.3710 Y14.9289
G01 X8.3710 Y15.5511
G01 X7.9311 Y15.9910
G01 X7.3089 Y15.9910
G01 X6.8690 Y15.5511
G01 X6.8690 Y15.3884
G01 X4.5880 Y13.1074
G01 X3.7564 Y13.1074
G01 X3.6527 Y13.0797
G01 X3.5598 Y13.0260
G01 X2.2140 Y11.6802
G01 X2.1603 Y11.5873
G01 X2.1326 Y11.4836
G01 X2.1326 Y8.9210
G01 X1.9396 Y8.9210
G01 X1.9390 Y8.1196
G01 X2.4625 Y8.1190
G01 X2.4864 Y8.1126
G01 X2.5936 Y8.1126
G01 X2.6175 Y8.1190
G01 X3.1404 Y8.1190
G01 X3.1410 Y8.9204
G01 X2.9474 Y8.9210
G01 X2.9474 Y11.2612
G01 X3.9788 Y12.2926
G01 X4.5790 Y12.2926
G01 X4.5790 Y11.7296
G01 X5.5804 Y11.7290
G01 X5.5810 Y12.2926
G01 X7.4512 Y12.2926
G01 X8.6398 Y11.1040
G01 X8.7327 Y11.0503
G01 X8.7486 Y11.0461
G01 X8.7486 Y9.6303
G00 Z2.5400
G00 Z12.7000
M05
M02
