(.../eduards/EAGLE/pcb-gcode/pcb-gcode.ulp)
(Copyright 2005 - 2012 by John Johnson)
(See readme.txt for licensing terms.)
(This file generated from the board:)
(.../New_Project/AFM_Power_board.brd)
(Current profile is .../pcb-gcode/profiles/generic.pp  )
(This file generated 12/14/23 4:16 PM)
(Settings from pcb-machine.h)
(  Tool Size)
(0.1200 )
(Z Axis Settings)
(  High     Up        Down     Drill)
(12.7000 	2.5400 	-0.1000 	-0.8128 )
(spindle on time = 3.0000)
(milling depth = -0.1000)
(text depth = -0.1270)
(tool change at 12.7000 15.2400 25.4000 )
(feed rate xy = F300.00 )
(feed rate z  = F254.00 )
(Settings from pcb-defaults.h)
(isolate min = 0.0254)
(isolate max = 0.1200)
(isolate step = 0.1200)
(Generated top outlines, top drill, )
(Unit of measure: mm)
( Tool|       Size       |  Min Sub |  Max Sub |   Count )
( T01  3.302mm 0.1300in 0.0000in 0.0000in )
( T02  0.800mm 0.0315in 0.0000in 0.0000in )
( T03  0.813mm 0.0320in 0.0000in 0.0000in )
( T04  1.000mm 0.0394in 0.0000in 0.0000in )
( T05  1.016mm 0.0400in 0.0000in 0.0000in )
( T06  1.118mm 0.0440in 0.0000in 0.0000in )
(Metric Mode)
G21
(Absolute Coordinates)
G90
M05
G00 Z25.4000 
G00 X12.7000 Y15.2400 
M06 T01  ; 3.3020 
G01 Z0.0000 F254.00 
M06 T01  ; 3.3020 
G00 Z2.5400 
M03
G04 P3.000000
G00 Z2.540000
G00 X36.5760 Y17.7800 
G01 Z-0.8128 F254.00 
G01 Z2.540000
(R2.5400  P1.000000)
M05
G00 Z25.4000 
M06 T02  ; 0.8000 
G01 Z0.0000 F254.00 
M06 T02  ; 0.8000 
G00 Z2.5400 
M03
G04 P3.000000
G00 Z2.540000
G00 X36.8300 Y30.4800 
G01 Z-0.8128 F254.00 
G01 Z2.540000
(R2.5400  P1.000000)
(G00 Z2.540000)
G00 X39.3700 Y30.4800 
G01 Z-0.812800
G01 Z2.540000
(G00 Z2.540000)
G00 X41.9100 Y30.4800 
G01 Z-0.812800
G01 Z2.540000
M05
G00 Z25.4000 
M06 T03  ; 0.8128 
G01 Z0.0000 F254.00 
M06 T03  ; 0.8128 
G00 Z2.5400 
M03
G04 P3.000000
G00 Z2.540000
G00 X40.6400 Y15.2400 
G01 Z-0.8128 F254.00 
G01 Z2.540000
(R2.5400  P1.000000)
(G00 Z2.540000)
G00 X40.6400 Y20.3200 
G01 Z-0.812800
G01 Z2.540000
(G00 Z2.540000)
G00 X45.7200 Y15.2400 
G01 Z-0.812800
G01 Z2.540000
(G00 Z2.540000)
G00 X45.7200 Y20.3200 
G01 Z-0.812800
G01 Z2.540000
(G00 Z2.540000)
G00 X10.1600 Y13.9700 
G01 Z-0.812800
G01 Z2.540000
(G00 Z2.540000)
G00 X10.1600 Y20.3200 
G01 Z-0.812800
G01 Z2.540000
(G00 Z2.540000)
G00 X15.2400 Y13.9700 
G01 Z-0.812800
G01 Z2.540000
(G00 Z2.540000)
G00 X15.2400 Y20.3200 
G01 Z-0.812800
G01 Z2.540000
(G00 Z2.540000)
G00 X24.1300 Y36.8300 
G01 Z-0.812800
G01 Z2.540000
(G00 Z2.540000)
G00 X24.1300 Y41.9100 
G01 Z-0.812800
G01 Z2.540000
(G00 Z2.540000)
G00 X25.4000 Y25.4000 
G01 Z-0.812800
G01 Z2.540000
(G00 Z2.540000)
G00 X29.2100 Y36.8300 
G01 Z-0.812800
G01 Z2.540000
(G00 Z2.540000)
G00 X29.2100 Y41.9100 
G01 Z-0.812800
G01 Z2.540000
(G00 Z2.540000)
G00 X30.4800 Y25.4000 
G01 Z-0.812800
G01 Z2.540000
M05
G00 Z25.4000 
M06 T04  ; 1.0000 
G01 Z0.0000 F254.00 
M06 T04  ; 1.0000 
G00 Z2.5400 
M03
G04 P3.000000
G00 Z2.540000
G00 X54.3500 Y30.5400 
G01 Z-0.8128 F254.00 
G01 Z2.540000
(R2.5400  P1.000000)
(G00 Z2.540000)
G00 X57.1500 Y32.8400 
G01 Z-0.812800
G01 Z2.540000
(G00 Z2.540000)
G00 X57.1500 Y27.9400 
G01 Z-0.812800
G01 Z2.540000
M05
G00 Z25.4000 
M06 T05  ; 1.0160 
G01 Z0.0000 F254.00 
M06 T05  ; 1.0160 
G00 Z2.5400 
M03
G04 P3.000000
G00 Z2.540000
G00 X31.7500 Y52.0700 
G01 Z-0.8128 F254.00 
G01 Z2.540000
(R2.5400  P1.000000)
(G00 Z2.540000)
G00 X33.2740 Y3.8100 
G01 Z-0.812800
G01 Z2.540000
(G00 Z2.540000)
G00 X34.2900 Y52.0700 
G01 Z-0.812800
G01 Z2.540000
(G00 Z2.540000)
G00 X35.8140 Y3.8100 
G01 Z-0.812800
G01 Z2.540000
(G00 Z2.540000)
G00 X36.8300 Y52.0700 
G01 Z-0.812800
G01 Z2.540000
(G00 Z2.540000)
G00 X38.3540 Y3.8100 
G01 Z-0.812800
G01 Z2.540000
(G00 Z2.540000)
G00 X39.3700 Y52.0700 
G01 Z-0.812800
G01 Z2.540000
(G00 Z2.540000)
G00 X40.8940 Y3.8100 
G01 Z-0.812800
G01 Z2.540000
(G00 Z2.540000)
G00 X41.9100 Y52.0700 
G01 Z-0.812800
G01 Z2.540000
(G00 Z2.540000)
G00 X43.4340 Y3.8100 
G01 Z-0.812800
G01 Z2.540000
(G00 Z2.540000)
G00 X45.9740 Y3.8100 
G01 Z-0.812800
G01 Z2.540000
(G00 Z2.540000)
G00 X48.5140 Y3.8100 
G01 Z-0.812800
G01 Z2.540000
(G00 Z2.540000)
G00 X51.0540 Y3.8100 
G01 Z-0.812800
G01 Z2.540000
(G00 Z2.540000)
G00 X54.6100 Y15.2400 
G01 Z-0.812800
G01 Z2.540000
(G00 Z2.540000)
G00 X54.6100 Y20.3200 
G01 Z-0.812800
G01 Z2.540000
(G00 Z2.540000)
G00 X6.3500 Y3.8100 
G01 Z-0.812800
G01 Z2.540000
(G00 Z2.540000)
G00 X6.3500 Y52.0700 
G01 Z-0.812800
G01 Z2.540000
(G00 Z2.540000)
G00 X8.8900 Y3.8100 
G01 Z-0.812800
G01 Z2.540000
(G00 Z2.540000)
G00 X8.8900 Y52.0700 
G01 Z-0.812800
G01 Z2.540000
(G00 Z2.540000)
G00 X11.4300 Y3.8100 
G01 Z-0.812800
G01 Z2.540000
(G00 Z2.540000)
G00 X11.4300 Y52.0700 
G01 Z-0.812800
G01 Z2.540000
(G00 Z2.540000)
G00 X11.4300 Y27.9400 
G01 Z-0.812800
G01 Z2.540000
(G00 Z2.540000)
G00 X13.9700 Y3.8100 
G01 Z-0.812800
G01 Z2.540000
(G00 Z2.540000)
G00 X13.9700 Y52.0700 
G01 Z-0.812800
G01 Z2.540000
(G00 Z2.540000)
G00 X13.9700 Y27.9400 
G01 Z-0.812800
G01 Z2.540000
(G00 Z2.540000)
G00 X16.5100 Y3.8100 
G01 Z-0.812800
G01 Z2.540000
(G00 Z2.540000)
G00 X16.5100 Y52.0700 
G01 Z-0.812800
G01 Z2.540000
(G00 Z2.540000)
G00 X16.5100 Y27.9400 
G01 Z-0.812800
G01 Z2.540000
(G00 Z2.540000)
G00 X19.0500 Y3.8100 
G01 Z-0.812800
G01 Z2.540000
(G00 Z2.540000)
G00 X19.0500 Y52.0700 
G01 Z-0.812800
G01 Z2.540000
(G00 Z2.540000)
G00 X21.5900 Y3.8100 
G01 Z-0.812800
G01 Z2.540000
(G00 Z2.540000)
G00 X24.1300 Y3.8100 
G01 Z-0.812800
G01 Z2.540000
(G00 Z2.540000)
G00 X24.1300 Y52.0700 
G01 Z-0.812800
G01 Z2.540000
(G00 Z2.540000)
G00 X26.6700 Y52.0700 
G01 Z-0.812800
G01 Z2.540000
(G00 Z2.540000)
G00 X28.1940 Y3.8100 
G01 Z-0.812800
G01 Z2.540000
(G00 Z2.540000)
G00 X29.2100 Y52.0700 
G01 Z-0.812800
G01 Z2.540000
(G00 Z2.540000)
G00 X30.7340 Y3.8100 
G01 Z-0.812800
G01 Z2.540000
M05
G00 Z25.4000 
M06 T06  ; 1.1176 
G01 Z0.0000 F254.00 
M06 T06  ; 1.1176 
G00 Z2.5400 
M03
G04 P3.000000
G00 Z2.540000
G00 X49.5300 Y52.0700 
G01 Z-0.8128 F254.00 
G01 Z2.540000
(R2.5400  P1.000000)
(G00 Z2.540000)
G00 X52.0700 Y52.0700 
G01 Z-0.812800
G01 Z2.540000
(G00 Z2.540000)
G00 X54.6100 Y52.0700 
G01 Z-0.812800
G01 Z2.540000
(G00 Z2.540000)
G00 X21.5900 Y15.2400 
G01 Z-0.812800
G01 Z2.540000
(G00 Z2.540000)
G00 X21.5900 Y17.7800 
G01 Z-0.812800
G01 Z2.540000
(G00 Z2.540000)
G00 X21.5900 Y20.3200 
G01 Z-0.812800
G01 Z2.540000
T01 
G00 Z12.7000 
M05
M02
