(.../eduards/EAGLE/pcb-gcode/pcb-gcode.ulp)
(Copyright 2005 - 2012 by John Johnson)
(See readme.txt for licensing terms.)
(This file generated from the board:)
(.../New_Project/AFM_QFM_input_patial.brd)
(Current profile is .../pcb-gcode/profiles/generic.pp  )
(This file generated 12/19/23 3:38 PM)
(Settings from pcb-machine.h)
(  Tool Size)
(0.1200 )
(Z Axis Settings)
(  High     Up        Down     Drill)
(12.7000 	2.5400 	-0.1000 	-0.8128 )
(spindle on time = 3.0000)
(milling depth = -0.1000)
(text depth = -0.1270)
(tool change at 12.7000 15.2400 25.4000 )
(feed rate xy = F300.00 )
(feed rate z  = F254.00 )
(Settings from pcb-defaults.h)
(isolate min = 0.0254)
(isolate max = 5.0000)
(isolate step = 0.1200)
(Generated top outlines, top drill, )
(Unit of measure: mm)
(Metric Mode)
G21
(Absolute Coordinates)
G90
G00 X0.0000 Y0.0000 
M03
G04 P3.000000
G00 Z2.5400 
G00 X13.5445 Y15.8130 
G01 Z-0.1000 F254.00 
G01 X13.3891 Y15.8922 F300.00 
G01 X13.2479 Y15.9948 
G01 X13.1246 Y16.1181 
G01 X13.0220 Y16.2593 
G01 X12.9428 Y16.4147 
G01 X12.8889 Y16.5807 
G01 X12.8616 Y16.7530 
G01 X12.8616 Y17.4406 
G01 X12.9448 Y17.4406 
G01 X12.9448 Y16.7392 
G01 X12.9842 Y16.5412 
G01 X13.0615 Y16.3546 
G01 X13.1737 Y16.1867 
G01 X13.3165 Y16.0439 
G01 X13.4844 Y15.9317 
G01 X13.6306 Y15.8711 
G01 X13.6306 Y15.7850 
G01 X13.5445 Y15.8130 
G00 Z2.5400 
G00 X12.8616 Y18.8070 
G01 Z-0.1000 F254.00 
G01 X12.8889 Y18.9793 F300.00 
G01 X12.9428 Y19.1453 
G01 X13.0220 Y19.3007 
G01 X13.1246 Y19.4419 
G01 X13.2479 Y19.5652 
G01 X13.3891 Y19.6678 
G01 X13.5445 Y19.7470 
G01 X13.6306 Y19.7750 
G01 X13.6306 Y19.6889 
G01 X13.4844 Y19.6283 
G01 X13.3165 Y19.5161 
G01 X13.1737 Y19.3733 
G01 X13.0615 Y19.2054 
G01 X12.9842 Y19.0188 
G01 X12.9448 Y18.8208 
G01 X12.9448 Y18.1194 
G01 X12.8616 Y18.1194 
G01 X12.8616 Y18.8070 
G00 Z2.5400 
G00 X10.6614 Y14.0222 
G01 Z-0.1000 F254.00 
G01 X10.6729 Y14.0651 F300.00 
G01 X10.6951 Y14.1035 
G01 X10.7265 Y14.1349 
G01 X10.7649 Y14.1571 
G01 X10.8078 Y14.1686 
G01 X11.0946 Y14.1686 
G01 X11.0946 Y14.0854 
G01 X10.8130 Y14.0854 
G01 X10.7816 Y14.0724 
G01 X10.7576 Y14.0484 
G01 X10.7446 Y14.0170 
G01 X10.7446 Y13.8854 
G01 X10.6614 Y13.8854 
G01 X10.6614 Y14.0222 
G00 Z2.5400 
G00 X3.1570 Y6.2346 
G01 Z-0.1000 F254.00 
G01 X3.1884 Y6.2476 F300.00 
G01 X3.2124 Y6.2716 
G01 X3.2254 Y6.3030 
G01 X3.2254 Y6.4346 
G01 X3.3086 Y6.4346 
G01 X3.3086 Y6.2978 
G01 X3.2971 Y6.2549 
G01 X3.2749 Y6.2165 
G01 X3.2435 Y6.1851 
G01 X3.2051 Y6.1629 
G01 X3.1622 Y6.1514 
G01 X2.8254 Y6.1514 
G01 X2.8254 Y6.2346 
G01 X3.1570 Y6.2346 
G00 Z2.5400 
G00 X1.8546 Y6.3030 
G01 Z-0.1000 F254.00 
G01 X1.8676 Y6.2716 F300.00 
G01 X1.8916 Y6.2476 
G01 X1.9230 Y6.2346 
G01 X2.2546 Y6.2346 
G01 X2.2546 Y6.1514 
G01 X1.9178 Y6.1514 
G01 X1.8749 Y6.1629 
G01 X1.8365 Y6.1851 
G01 X1.8051 Y6.2165 
G01 X1.7829 Y6.2549 
G01 X1.7714 Y6.2978 
G01 X1.7714 Y6.4346 
G01 X1.8546 Y6.4346 
G01 X1.8546 Y6.3030 
G00 Z2.5400 
G00 X12.0522 Y14.1686 
G01 Z-0.1000 F254.00 
G01 X12.0951 Y14.1571 F300.00 
G01 X12.1335 Y14.1349 
G01 X12.1649 Y14.1035 
G01 X12.1871 Y14.0651 
G01 X12.1986 Y14.0222 
G01 X12.1986 Y13.8854 
G01 X12.1154 Y13.8854 
G01 X12.1154 Y14.0170 
G01 X12.1024 Y14.0484 
G01 X12.0784 Y14.0724 
G01 X12.0470 Y14.0854 
G01 X11.7654 Y14.0854 
G01 X11.7654 Y14.1686 
G01 X12.0522 Y14.1686 
G00 Z2.5400 
G00 X10.9130 Y2.3246 
G01 Z-0.1000 F254.00 
G01 X11.0946 Y2.3246 F300.00 
G01 X11.0946 Y2.2414 
G01 X10.9078 Y2.2414 
G01 X10.8649 Y2.2529 
G01 X10.8265 Y2.2751 
G01 X10.7951 Y2.3065 
G01 X10.7729 Y2.3449 
G01 X10.7614 Y2.3878 
G01 X10.7614 Y2.6246 
G01 X10.8446 Y2.6246 
G01 X10.8446 Y2.3930 
G01 X10.8576 Y2.3616 
G01 X10.8816 Y2.3376 
G01 X10.9130 Y2.3246 
G00 Z2.5400 
G00 X11.9470 Y2.3246 
G01 Z-0.1000 F254.00 
G01 X11.9784 Y2.3376 F300.00 
G01 X12.0024 Y2.3616 
G01 X12.0154 Y2.3930 
G01 X12.0154 Y2.6246 
G01 X12.0986 Y2.6246 
G01 X12.0986 Y2.3878 
G01 X12.0871 Y2.3449 
G01 X12.0649 Y2.3065 
G01 X12.0335 Y2.2751 
G01 X11.9951 Y2.2529 
G01 X11.9522 Y2.2414 
G01 X11.7654 Y2.2414 
G01 X11.7654 Y2.3246 
G01 X11.9470 Y2.3246 
G00 Z2.5400 
G00 X20.9730 Y11.5454 
G01 Z-0.1000 F254.00 
G01 X20.9416 Y11.5324 F300.00 
G01 X20.9176 Y11.5084 
G01 X20.9046 Y11.4770 
G01 X20.9046 Y11.3454 
G01 X20.8214 Y11.3454 
G01 X20.8214 Y11.4822 
G01 X20.8329 Y11.5251 
G01 X20.8551 Y11.5635 
G01 X20.8865 Y11.5949 
G01 X20.9249 Y11.6171 
G01 X20.9678 Y11.6286 
G01 X21.3046 Y11.6286 
G01 X21.3046 Y11.5454 
G01 X20.9730 Y11.5454 
G00 Z2.5400 
G00 X22.2070 Y11.5454 
G01 Z-0.1000 F254.00 
G01 X21.8754 Y11.5454 F300.00 
G01 X21.8754 Y11.6286 
G01 X22.2122 Y11.6286 
G01 X22.2551 Y11.6171 
G01 X22.2935 Y11.5949 
G01 X22.3249 Y11.5635 
G01 X22.3471 Y11.5251 
G01 X22.3586 Y11.4822 
G01 X22.3586 Y11.3454 
G01 X22.2754 Y11.3454 
G01 X22.2754 Y11.4770 
G01 X22.2624 Y11.5084 
G01 X22.2384 Y11.5324 
G01 X22.2070 Y11.5454 
G00 Z2.5400 
G00 X22.3430 Y2.3246 
G01 Z-0.1000 F254.00 
G01 X22.5246 Y2.3246 F300.00 
G01 X22.5246 Y2.2414 
G01 X22.3378 Y2.2414 
G01 X22.2949 Y2.2529 
G01 X22.2565 Y2.2751 
G01 X22.2251 Y2.3065 
G01 X22.2029 Y2.3449 
G01 X22.1914 Y2.3878 
G01 X22.1914 Y2.6246 
G01 X22.2746 Y2.6246 
G01 X22.2746 Y2.3930 
G01 X22.2876 Y2.3616 
G01 X22.3116 Y2.3376 
G01 X22.3430 Y2.3246 
G00 Z2.5400 
G00 X23.3770 Y2.3246 
G01 Z-0.1000 F254.00 
G01 X23.4084 Y2.3376 F300.00 
G01 X23.4324 Y2.3616 
G01 X23.4454 Y2.3930 
G01 X23.4454 Y2.6246 
G01 X23.5286 Y2.6246 
G01 X23.5286 Y2.3878 
G01 X23.5171 Y2.3449 
G01 X23.4949 Y2.3065 
G01 X23.4635 Y2.2751 
G01 X23.4251 Y2.2529 
G01 X23.3822 Y2.2414 
G01 X23.1954 Y2.2414 
G01 X23.1954 Y2.3246 
G01 X23.3770 Y2.3246 
G00 Z2.5400 
G00 X4.5578 Y6.0514 
G01 Z-0.1000 F254.00 
G01 X4.5149 Y6.0629 F300.00 
G01 X4.4765 Y6.0851 
G01 X4.4451 Y6.1165 
G01 X4.4229 Y6.1549 
G01 X4.4114 Y6.1978 
G01 X4.4114 Y6.4346 
G01 X4.4946 Y6.4346 
G01 X4.4946 Y6.2030 
G01 X4.5076 Y6.1716 
G01 X4.5316 Y6.1476 
G01 X4.5630 Y6.1346 
G01 X4.7446 Y6.1346 
G01 X4.7446 Y6.0514 
G01 X4.5578 Y6.0514 
G00 Z2.5400 
G00 X23.5130 Y11.5454 
G01 Z-0.1000 F254.00 
G01 X23.4816 Y11.5324 F300.00 
G01 X23.4576 Y11.5084 
G01 X23.4446 Y11.4770 
G01 X23.4446 Y11.3454 
G01 X23.3614 Y11.3454 
G01 X23.3614 Y11.4822 
G01 X23.3729 Y11.5251 
G01 X23.3951 Y11.5635 
G01 X23.4265 Y11.5949 
G01 X23.4649 Y11.6171 
G01 X23.5078 Y11.6286 
G01 X23.8446 Y11.6286 
G01 X23.8446 Y11.5454 
G01 X23.5130 Y11.5454 
G00 Z2.5400 
G00 X24.7470 Y11.5454 
G01 Z-0.1000 F254.00 
G01 X24.4154 Y11.5454 F300.00 
G01 X24.4154 Y11.6286 
G01 X24.7522 Y11.6286 
G01 X24.7951 Y11.6171 
G01 X24.8335 Y11.5949 
G01 X24.8649 Y11.5635 
G01 X24.8871 Y11.5251 
G01 X24.8986 Y11.4822 
G01 X24.8986 Y11.3454 
G01 X24.8154 Y11.3454 
G01 X24.8154 Y11.4770 
G01 X24.8024 Y11.5084 
G01 X24.7784 Y11.5324 
G01 X24.7470 Y11.5454 
G00 Z2.5400 
G00 X6.6647 Y10.9590 
G01 Z-0.1000 F254.00 
G01 X6.5867 Y10.9267 F300.00 
G01 X6.5269 Y10.8669 
G01 X6.4946 Y10.7888 
G01 X6.4946 Y10.5892 
G01 X6.5269 Y10.5112 
G01 X6.5867 Y10.4514 
G01 X6.6647 Y10.4191 
G01 X6.7492 Y10.4191 
G01 X6.8273 Y10.4514 
G01 X7.0022 Y10.6263 
G01 X7.0345 Y10.7043 
G01 X7.0345 Y10.7888 
G01 X7.0022 Y10.8669 
G01 X6.9424 Y10.9267 
G01 X6.8644 Y10.9590 
G01 X6.7799 Y10.9590 
G01 X6.6647 Y10.9590 
G00 Z2.5400 
G00 X1.9230 Y8.0346 
G01 Z-0.1000 F254.00 
G01 X2.4514 Y8.0346 F300.00 
G01 X2.4752 Y8.0282 
G01 X2.6047 Y8.0282 
G01 X2.6286 Y8.0346 
G01 X3.1570 Y8.0346 
G01 X3.1884 Y8.0476 
G01 X3.2124 Y8.0716 
G01 X3.2254 Y8.1030 
G01 X3.2254 Y8.9370 
G01 X3.2124 Y8.9684 
G01 X3.1884 Y8.9924 
G01 X3.1570 Y9.0054 
G01 X3.0318 Y9.0054 
G01 X3.0318 Y11.2263 
G01 X3.5937 Y11.7882 
G01 X4.4946 Y11.7882 
G01 X4.4946 Y11.7130 
G01 X4.5076 Y11.6816 
G01 X4.5316 Y11.6576 
G01 X4.5630 Y11.6446 
G01 X5.5970 Y11.6446 
G01 X5.6284 Y11.6576 
G01 X5.6524 Y11.6816 
G01 X5.6654 Y11.7130 
G01 X5.6654 Y11.7882 
G01 X7.8363 Y11.7882 
G01 X8.5880 Y11.0365 
G01 X8.6642 Y10.9925 
G01 X8.6642 Y9.6363 
G01 X8.6873 Y9.5500 
G01 X8.7320 Y9.4726 
G01 X8.7952 Y9.4094 
G01 X9.4094 Y8.7952 
G01 X9.4726 Y8.7320 
G01 X9.5500 Y8.6873 
G01 X9.6363 Y8.6642 
G01 X9.9058 Y8.6642 
G01 X9.9516 Y8.6184 
G01 X10.0290 Y8.5737 
G01 X10.0825 Y8.5594 
G01 X11.0026 Y7.6393 
G01 X11.0684 Y7.6013 
G01 X11.1418 Y7.5816 
G01 X11.4680 Y7.5816 
G01 X11.5414 Y7.6013 
G01 X11.6072 Y7.6393 
G01 X11.6257 Y7.6578 
G01 X13.5794 Y7.6578 
G01 X13.6101 Y7.6451 
G01 X15.0411 Y7.6451 
G01 X15.0725 Y7.6581 
G01 X15.0965 Y7.6821 
G01 X15.1095 Y7.7135 
G01 X15.1095 Y8.0269 
G01 X15.0965 Y8.0583 
G01 X15.0725 Y8.0823 
G01 X15.0411 Y8.0953 
G01 X13.6101 Y8.0953 
G01 X13.5794 Y8.0826 
G01 X11.6257 Y8.0826 
G01 X11.6072 Y8.1011 
G01 X11.5414 Y8.1391 
G01 X11.4680 Y8.1588 
G01 X11.2994 Y8.1588 
G01 X10.4906 Y8.9675 
G01 X10.4763 Y9.0210 
G01 X10.4316 Y9.0984 
G01 X10.2548 Y9.2752 
G01 X10.1774 Y9.3199 
G01 X10.0911 Y9.3430 
G01 X9.8216 Y9.3430 
G01 X9.3430 Y9.8216 
G01 X9.3430 Y11.2310 
G01 X9.3483 Y11.2402 
G01 X9.3818 Y11.3653 
G01 X9.3818 Y11.4947 
G01 X9.3483 Y11.6198 
G01 X9.2835 Y11.7320 
G01 X8.4335 Y12.5820 
G01 X8.3420 Y12.6735 
G01 X8.2298 Y12.7383 
G01 X8.1047 Y12.7718 
G01 X6.1706 Y12.7718 
G01 X7.8034 Y14.4046 
G01 X7.9660 Y14.4046 
G01 X8.4554 Y14.8940 
G01 X8.4554 Y15.5860 
G01 X7.9660 Y16.0754 
G01 X7.2740 Y16.0754 
G01 X6.7846 Y15.5860 
G01 X6.7846 Y15.4234 
G01 X4.5204 Y13.1592 
G01 X4.4416 Y13.0412 
G01 X4.3873 Y12.9101 
G01 X4.3598 Y12.7718 
G01 X3.3253 Y12.7718 
G01 X3.2002 Y12.7383 
G01 X3.0880 Y12.6735 
G01 X2.2380 Y11.8235 
G01 X2.1465 Y11.7320 
G01 X2.0817 Y11.6198 
G01 X2.0482 Y11.4947 
G01 X2.0482 Y9.0054 
G01 X1.9230 Y9.0054 
G01 X1.8916 Y8.9924 
G01 X1.8676 Y8.9684 
G01 X1.8546 Y8.9370 
G01 X1.8546 Y8.1030 
G01 X1.8676 Y8.0716 
G01 X1.8916 Y8.0476 
G01 X1.9230 Y8.0346 
G00 Z2.5400 
G00 X23.5130 Y9.7454 
G01 Z-0.1000 F254.00 
G01 X23.4816 Y9.7324 F300.00 
G01 X23.4576 Y9.7084 
G01 X23.4446 Y9.6770 
G01 X23.4446 Y8.8430 
G01 X23.4576 Y8.8116 
G01 X23.4816 Y8.7876 
G01 X23.5130 Y8.7746 
G01 X24.0414 Y8.7746 
G01 X24.0653 Y8.7682 
G01 X24.9082 Y8.7682 
G01 X24.9082 Y7.9594 
G01 X22.8210 Y7.9594 
G01 X22.7301 Y8.0503 
G01 X22.6521 Y8.0826 
G01 X19.4406 Y8.0826 
G01 X19.4099 Y8.0953 
G01 X17.9789 Y8.0953 
G01 X17.9475 Y8.0823 
G01 X17.9235 Y8.0583 
G01 X17.9105 Y8.0269 
G01 X17.9105 Y7.7135 
G01 X17.9235 Y7.6821 
G01 X17.9475 Y7.6581 
G01 X17.9789 Y7.6451 
G01 X19.4099 Y7.6451 
G01 X19.4406 Y7.6578 
G01 X22.5206 Y7.6578 
G01 X22.5206 Y7.5753 
G01 X22.5437 Y7.4890 
G01 X22.5884 Y7.4116 
G01 X22.6516 Y7.3484 
G01 X22.7290 Y7.3037 
G01 X22.8153 Y7.2806 
G01 X24.8146 Y7.2806 
G01 X24.8146 Y6.6330 
G01 X24.8276 Y6.6016 
G01 X24.8516 Y6.5776 
G01 X24.8830 Y6.5646 
G01 X25.9170 Y6.5646 
G01 X25.9484 Y6.5776 
G01 X25.9724 Y6.6016 
G01 X25.9854 Y6.6330 
G01 X25.9854 Y7.7670 
G01 X25.9724 Y7.7984 
G01 X25.9484 Y7.8224 
G01 X25.9170 Y7.8354 
G01 X25.8918 Y7.8354 
G01 X25.8918 Y8.7835 
G01 X25.9598 Y8.8017 
G01 X26.0720 Y8.8665 
G01 X28.2420 Y11.0365 
G01 X28.3335 Y11.1280 
G01 X28.3983 Y11.2402 
G01 X28.4318 Y11.3653 
G01 X28.4318 Y11.6748 
G01 X28.9808 Y11.6748 
G01 X29.1788 Y11.7142 
G01 X29.3654 Y11.7915 
G01 X29.5333 Y11.9037 
G01 X29.6761 Y12.0465 
G01 X29.7883 Y12.2144 
G01 X29.8656 Y12.4010 
G01 X29.9050 Y12.5990 
G01 X29.9050 Y12.8010 
G01 X29.8656 Y12.9990 
G01 X29.7883 Y13.1856 
G01 X29.6761 Y13.3535 
G01 X29.5333 Y13.4963 
G01 X29.3654 Y13.6085 
G01 X29.1788 Y13.6858 
G01 X28.9808 Y13.7252 
G01 X26.8992 Y13.7252 
G01 X26.7012 Y13.6858 
G01 X26.5146 Y13.6085 
G01 X26.3467 Y13.4963 
G01 X26.2039 Y13.3535 
G01 X26.0917 Y13.1856 
G01 X26.0144 Y12.9990 
G01 X25.9750 Y12.8010 
G01 X25.9750 Y12.5990 
G01 X26.0144 Y12.4010 
G01 X26.0917 Y12.2144 
G01 X26.2039 Y12.0465 
G01 X26.3467 Y11.9037 
G01 X26.5146 Y11.7915 
G01 X26.7012 Y11.7142 
G01 X26.8992 Y11.6748 
G01 X27.4482 Y11.6748 
G01 X27.4482 Y11.6337 
G01 X25.5663 Y9.7518 
G01 X24.0653 Y9.7518 
G01 X24.0414 Y9.7454 
G01 X23.5130 Y9.7454 
G00 Z2.5400 
G00 X25.9170 Y4.0254 
G01 Z-0.1000 F254.00 
G01 X25.8918 Y4.0254 F300.00 
G01 X25.8918 Y4.8646 
G01 X25.9170 Y4.8646 
G01 X25.9484 Y4.8776 
G01 X25.9724 Y4.9016 
G01 X25.9854 Y4.9330 
G01 X25.9854 Y6.0670 
G01 X25.9724 Y6.0984 
G01 X25.9484 Y6.1224 
G01 X25.9170 Y6.1354 
G01 X24.8830 Y6.1354 
G01 X24.8516 Y6.1224 
G01 X24.8276 Y6.0984 
G01 X24.8146 Y6.0670 
G01 X24.8146 Y5.8354 
G01 X24.7829 Y5.8354 
G01 X24.0733 Y6.5450 
G01 X24.0655 Y6.5584 
G01 X23.5354 Y7.0886 
G01 X23.4580 Y7.1332 
G01 X23.3717 Y7.1564 
G01 X23.2823 Y7.1564 
G01 X23.1960 Y7.1332 
G01 X23.1278 Y7.0939 
G01 X23.1232 Y7.0958 
G01 X21.7193 Y7.0958 
G01 X21.2652 Y7.5499 
G01 X21.1872 Y7.5822 
G01 X19.4406 Y7.5822 
G01 X19.4099 Y7.5949 
G01 X17.9789 Y7.5949 
G01 X17.9475 Y7.5819 
G01 X17.9235 Y7.5579 
G01 X17.9105 Y7.5265 
G01 X17.9105 Y7.2131 
G01 X17.9235 Y7.1817 
G01 X17.9475 Y7.1577 
G01 X17.9789 Y7.1447 
G01 X19.4099 Y7.1447 
G01 X19.4406 Y7.1574 
G01 X21.0569 Y7.1574 
G01 X21.5110 Y6.7033 
G01 X21.5891 Y6.6710 
G01 X22.9930 Y6.6710 
G01 X23.1169 Y6.5471 
G01 X23.5856 Y6.0784 
G01 X23.5989 Y6.0707 
G01 X24.3756 Y5.2941 
G01 X24.4380 Y5.2316 
G01 X24.5145 Y5.1875 
G01 X24.5998 Y5.1646 
G01 X24.8146 Y5.1646 
G01 X24.8146 Y4.9330 
G01 X24.8276 Y4.9016 
G01 X24.8516 Y4.8776 
G01 X24.8830 Y4.8646 
G01 X24.9082 Y4.8646 
G01 X24.9082 Y4.0254 
G01 X24.8830 Y4.0254 
G01 X24.8516 Y4.0124 
G01 X24.8276 Y3.9884 
G01 X24.8146 Y3.9570 
G01 X24.8146 Y2.8230 
G01 X24.8276 Y2.7916 
G01 X24.8516 Y2.7676 
G01 X24.8830 Y2.7546 
G01 X25.9170 Y2.7546 
G01 X25.9484 Y2.7676 
G01 X25.9724 Y2.7916 
G01 X25.9854 Y2.8230 
G01 X25.9854 Y3.9570 
G01 X25.9724 Y3.9884 
G01 X25.9484 Y4.0124 
G01 X25.9170 Y4.0254 
G00 Z2.5400 
G00 X28.9808 Y18.8052 
G01 Z-0.1000 F254.00 
G01 X26.8992 Y18.8052 F300.00 
G01 X26.7012 Y18.7658 
G01 X26.5146 Y18.6885 
G01 X26.3467 Y18.5763 
G01 X26.2707 Y18.5004 
G01 X25.8610 Y18.5004 
G01 X25.7460 Y18.6154 
G01 X25.0540 Y18.6154 
G01 X24.5646 Y18.1260 
G01 X24.5646 Y17.4340 
G01 X25.0540 Y16.9446 
G01 X25.7460 Y16.9446 
G01 X25.8610 Y17.0596 
G01 X26.2707 Y17.0596 
G01 X26.3467 Y16.9837 
G01 X26.5146 Y16.8715 
G01 X26.7012 Y16.7942 
G01 X26.8992 Y16.7548 
G01 X28.9808 Y16.7548 
G01 X29.1788 Y16.7942 
G01 X29.3654 Y16.8715 
G01 X29.5333 Y16.9837 
G01 X29.6761 Y17.1265 
G01 X29.7883 Y17.2944 
G01 X29.8656 Y17.4810 
G01 X29.9050 Y17.6790 
G01 X29.9050 Y17.8810 
G01 X29.8656 Y18.0790 
G01 X29.7883 Y18.2656 
G01 X29.6761 Y18.4335 
G01 X29.5333 Y18.5763 
G01 X29.3654 Y18.6885 
G01 X29.1788 Y18.7658 
G01 X28.9808 Y18.8052 
G00 Z2.5400 
G00 X20.8370 Y4.0254 
G01 Z-0.1000 F254.00 
G01 X20.6594 Y4.0254 F300.00 
G01 X20.6594 Y5.1247 
G01 X20.6363 Y5.2110 
G01 X20.5916 Y5.2884 
G01 X20.5324 Y5.3476 
G01 X20.5324 Y5.7636 
G01 X20.5001 Y5.8417 
G01 X20.4403 Y5.9014 
G01 X19.7926 Y6.5491 
G01 X19.7145 Y6.5814 
G01 X19.4406 Y6.5814 
G01 X19.4099 Y6.5941 
G01 X17.9789 Y6.5941 
G01 X17.9475 Y6.5811 
G01 X17.9235 Y6.5571 
G01 X17.9105 Y6.5257 
G01 X17.9105 Y6.2124 
G01 X17.9235 Y6.1810 
G01 X17.9475 Y6.1570 
G01 X17.9789 Y6.1440 
G01 X19.4099 Y6.1440 
G01 X19.4406 Y6.1566 
G01 X19.5843 Y6.1566 
G01 X20.1076 Y5.6334 
G01 X20.1076 Y5.3476 
G01 X20.0484 Y5.2884 
G01 X20.0037 Y5.2110 
G01 X19.9806 Y5.1247 
G01 X19.9806 Y4.0254 
G01 X19.8030 Y4.0254 
G01 X19.7716 Y4.0124 
G01 X19.7476 Y3.9884 
G01 X19.7346 Y3.9570 
G01 X19.7346 Y2.8230 
G01 X19.7476 Y2.7916 
G01 X19.7716 Y2.7676 
G01 X19.8030 Y2.7546 
G01 X20.8370 Y2.7546 
G01 X20.8684 Y2.7676 
G01 X20.8924 Y2.7916 
G01 X20.9054 Y2.8230 
G01 X20.9054 Y3.9570 
G01 X20.8924 Y3.9884 
G01 X20.8684 Y4.0124 
G01 X20.8370 Y4.0254 
G00 Z2.5400 
G00 X22.3430 Y4.0246 
G01 Z-0.1000 F254.00 
G01 X23.3770 Y4.0246 F300.00 
G01 X23.4084 Y4.0376 
G01 X23.4324 Y4.0616 
G01 X23.4454 Y4.0930 
G01 X23.4454 Y5.2270 
G01 X23.4324 Y5.2584 
G01 X23.4084 Y5.2824 
G01 X23.3770 Y5.2954 
G01 X22.5250 Y5.2954 
G01 X20.9119 Y6.9085 
G01 X20.8522 Y6.9682 
G01 X20.7741 Y7.0005 
G01 X20.2778 Y7.0005 
G01 X20.2126 Y6.9735 
G01 X19.4783 Y6.9735 
G01 X19.4783 Y7.0261 
G01 X19.4653 Y7.0575 
G01 X19.4413 Y7.0815 
G01 X19.4099 Y7.0945 
G01 X17.9789 Y7.0945 
G01 X17.9475 Y7.0815 
G01 X17.9235 Y7.0575 
G01 X17.9105 Y7.0261 
G01 X17.9105 Y6.7127 
G01 X17.9235 Y6.6814 
G01 X17.9475 Y6.6573 
G01 X17.9789 Y6.6443 
G01 X18.6573 Y6.6443 
G01 X18.6707 Y6.6310 
G01 X18.7388 Y6.6028 
G01 X20.2126 Y6.6028 
G01 X20.2778 Y6.5758 
G01 X20.6439 Y6.5758 
G01 X22.2746 Y4.9450 
G01 X22.2746 Y4.0930 
G01 X22.2876 Y4.0616 
G01 X22.3116 Y4.0376 
G01 X22.3430 Y4.0246 
G00 Z2.5400 
G00 X15.1246 Y12.0470 
G01 Z-0.1000 F254.00 
G01 X15.1246 Y11.7838 F300.00 
G01 X13.5917 Y10.2509 
G01 X13.5091 Y10.1683 
G01 X13.4441 Y10.0711 
G01 X13.3994 Y9.9631 
G01 X13.3766 Y9.8484 
G01 X13.3766 Y9.6685 
G01 X13.3994 Y9.5538 
G01 X13.4441 Y9.4459 
G01 X13.5091 Y9.3487 
G01 X13.5417 Y9.3160 
G01 X13.5417 Y9.2146 
G01 X13.5547 Y9.1833 
G01 X13.5787 Y9.1592 
G01 X13.6101 Y9.1462 
G01 X13.7115 Y9.1462 
G01 X13.7617 Y9.0960 
G01 X13.6101 Y9.0960 
G01 X13.5787 Y9.0830 
G01 X13.5547 Y9.0590 
G01 X13.5417 Y9.0276 
G01 X13.5417 Y8.7143 
G01 X13.5547 Y8.6829 
G01 X13.5787 Y8.6589 
G01 X13.6101 Y8.6459 
G01 X15.0411 Y8.6459 
G01 X15.0725 Y8.6589 
G01 X15.0965 Y8.6829 
G01 X15.1095 Y8.7143 
G01 X15.1095 Y9.0276 
G01 X15.0965 Y9.0590 
G01 X15.0725 Y9.0830 
G01 X15.0411 Y9.0960 
G01 X14.8539 Y9.0960 
G01 X14.8747 Y9.1462 
G01 X15.0411 Y9.1462 
G01 X15.0725 Y9.1592 
G01 X15.0965 Y9.1833 
G01 X15.1095 Y9.2146 
G01 X15.1095 Y9.5280 
G01 X15.0965 Y9.5594 
G01 X15.0725 Y9.5834 
G01 X15.0411 Y9.5964 
G01 X14.8747 Y9.5964 
G01 X14.8515 Y9.6524 
G01 X14.7865 Y9.7496 
G01 X14.7777 Y9.7585 
G01 X15.7638 Y10.7446 
G01 X16.0270 Y10.7446 
G01 X16.0584 Y10.7576 
G01 X16.0824 Y10.7816 
G01 X16.0954 Y10.8130 
G01 X16.0954 Y11.0884 
G01 X16.1359 Y11.1489 
G01 X16.1806 Y11.2569 
G01 X16.2034 Y11.3716 
G01 X16.2034 Y11.4884 
G01 X16.1806 Y11.6031 
G01 X16.1359 Y11.7111 
G01 X16.0954 Y11.7716 
G01 X16.0954 Y12.0470 
G01 X16.0824 Y12.0784 
G01 X16.0584 Y12.1024 
G01 X16.0270 Y12.1154 
G01 X15.1930 Y12.1154 
G01 X15.1616 Y12.1024 
G01 X15.1376 Y12.0784 
G01 X15.1246 Y12.0470 
G00 Z2.5400 
G00 X13.6101 Y5.6436 
G01 Z-0.1000 F254.00 
G01 X15.0411 Y5.6436 F300.00 
G01 X15.0725 Y5.6566 
G01 X15.0965 Y5.6806 
G01 X15.1095 Y5.7120 
G01 X15.1095 Y6.0254 
G01 X15.0965 Y6.0567 
G01 X15.0725 Y6.0808 
G01 X15.0411 Y6.0938 
G01 X13.6101 Y6.0938 
G01 X13.5795 Y6.0811 
G01 X13.4464 Y6.0811 
G01 X13.3684 Y6.0487 
G01 X12.8647 Y5.5450 
G01 X12.7647 Y5.5718 
G01 X12.6353 Y5.5718 
G01 X12.5102 Y5.5383 
G01 X12.3980 Y5.4735 
G01 X12.0763 Y5.1518 
G01 X12.0154 Y5.1518 
G01 X12.0154 Y5.2270 
G01 X12.0024 Y5.2584 
G01 X11.9784 Y5.2824 
G01 X11.9470 Y5.2954 
G01 X10.9130 Y5.2954 
G01 X10.8816 Y5.2824 
G01 X10.8576 Y5.2584 
G01 X10.8446 Y5.2270 
G01 X10.8446 Y4.0930 
G01 X10.8576 Y4.0616 
G01 X10.8816 Y4.0376 
G01 X10.9130 Y4.0246 
G01 X11.9470 Y4.0246 
G01 X11.9784 Y4.0376 
G01 X12.0024 Y4.0616 
G01 X12.0154 Y4.0930 
G01 X12.0154 Y4.1682 
G01 X12.3447 Y4.1682 
G01 X12.4698 Y4.2017 
G01 X12.5820 Y4.2665 
G01 X12.6735 Y4.3580 
G01 X13.0935 Y4.7780 
G01 X13.1583 Y4.8902 
G01 X13.1918 Y5.0152 
G01 X13.1918 Y5.1447 
G01 X13.1650 Y5.2447 
G01 X13.5766 Y5.6563 
G01 X13.5795 Y5.6563 
G01 X13.6101 Y5.6436 
G00 Z2.5400 
G00 X15.0411 Y6.1440 
G01 Z-0.1000 F254.00 
G01 X15.0725 Y6.1570 F300.00 
G01 X15.0965 Y6.1810 
G01 X15.1095 Y6.2124 
G01 X15.1095 Y6.5257 
G01 X15.0965 Y6.5571 
G01 X15.0725 Y6.5811 
G01 X15.0411 Y6.5941 
G01 X13.6101 Y6.5941 
G01 X13.5787 Y6.5811 
G01 X13.5600 Y6.5624 
G01 X11.6976 Y6.5624 
G01 X11.6384 Y6.6216 
G01 X11.5610 Y6.6663 
G01 X11.4747 Y6.6894 
G01 X7.7606 Y6.6894 
G01 X5.6654 Y8.7846 
G01 X5.6654 Y9.0370 
G01 X5.6524 Y9.0684 
G01 X5.6284 Y9.0924 
G01 X5.5970 Y9.1054 
G01 X5.5718 Y9.1054 
G01 X5.5718 Y9.9446 
G01 X5.5970 Y9.9446 
G01 X5.6284 Y9.9576 
G01 X5.6524 Y9.9816 
G01 X5.6654 Y10.0130 
G01 X5.6654 Y11.1470 
G01 X5.6524 Y11.1784 
G01 X5.6284 Y11.2024 
G01 X5.5970 Y11.2154 
G01 X4.5630 Y11.2154 
G01 X4.5316 Y11.2024 
G01 X4.5076 Y11.1784 
G01 X4.4946 Y11.1470 
G01 X4.4946 Y10.0130 
G01 X4.5076 Y9.9816 
G01 X4.5316 Y9.9576 
G01 X4.5630 Y9.9446 
G01 X4.5882 Y9.9446 
G01 X4.5882 Y9.1054 
G01 X4.5630 Y9.1054 
G01 X4.5316 Y9.0924 
G01 X4.5076 Y9.0684 
G01 X4.4946 Y9.0370 
G01 X4.4946 Y7.9030 
G01 X4.5076 Y7.8716 
G01 X4.5316 Y7.8476 
G01 X4.5630 Y7.8346 
G01 X5.5970 Y7.8346 
G01 X5.6284 Y7.8476 
G01 X5.6354 Y7.8546 
G01 X7.4116 Y6.0784 
G01 X7.4890 Y6.0337 
G01 X7.5753 Y6.0106 
G01 X11.4747 Y6.0106 
G01 X11.5610 Y6.0337 
G01 X11.6384 Y6.0784 
G01 X11.6976 Y6.1376 
G01 X14.0122 Y6.1376 
G01 X14.0276 Y6.1440 
G01 X15.0411 Y6.1440 
G00 Z2.5400 
G00 X13.6101 Y7.1447 
G01 Z-0.1000 F254.00 
G01 X15.0411 Y7.1447 F300.00 
G01 X15.0725 Y7.1577 
G01 X15.0965 Y7.1817 
G01 X15.1095 Y7.2131 
G01 X15.1095 Y7.5265 
G01 X15.0965 Y7.5579 
G01 X15.0725 Y7.5819 
G01 X15.0411 Y7.5949 
G01 X13.6101 Y7.5949 
G01 X13.5794 Y7.5822 
G01 X11.6417 Y7.5822 
G01 X11.5636 Y7.5499 
G01 X10.5312 Y7.5492 
G01 X10.4994 Y7.5810 
G01 X10.4994 Y7.6647 
G01 X10.4763 Y7.7510 
G01 X10.4316 Y7.8284 
G01 X10.3684 Y7.8916 
G01 X10.2910 Y7.9363 
G01 X10.2047 Y7.9594 
G01 X9.5292 Y7.9594 
G01 X9.4496 Y8.0792 
G01 X9.1663 Y8.3625 
G01 X9.1296 Y8.3870 
G01 X9.1050 Y8.4238 
G01 X8.4554 Y9.0734 
G01 X8.4554 Y9.2360 
G01 X7.9660 Y9.7254 
G01 X7.2740 Y9.7254 
G01 X6.7846 Y9.2360 
G01 X6.7846 Y8.5440 
G01 X7.2740 Y8.0546 
G01 X7.4366 Y8.0546 
G01 X8.0862 Y7.4050 
G01 X8.1230 Y7.3804 
G01 X8.1475 Y7.3437 
G01 X8.4308 Y7.0604 
G01 X8.5488 Y6.9816 
G01 X8.6799 Y6.9273 
G01 X8.8190 Y6.8996 
G01 X8.9610 Y6.8996 
G01 X9.1001 Y6.9273 
G01 X9.2312 Y6.9816 
G01 X9.3492 Y7.0604 
G01 X9.4496 Y7.1608 
G01 X9.5284 Y7.2788 
G01 X10.1990 Y7.2806 
G01 X10.3229 Y7.1567 
G01 X10.4010 Y7.1244 
G01 X11.6932 Y7.1244 
G01 X11.7713 Y7.1567 
G01 X13.5794 Y7.1574 
G01 X13.6101 Y7.1447 
G00 Z2.5400 
G00 X15.0411 Y8.1455 
G01 Z-0.1000 F254.00 
G01 X15.0725 Y8.1585 F300.00 
G01 X15.0965 Y8.1825 
G01 X15.1095 Y8.2139 
G01 X15.1095 Y8.5273 
G01 X15.0965 Y8.5586 
G01 X15.0725 Y8.5827 
G01 X15.0411 Y8.5957 
G01 X14.4036 Y8.5957 
G01 X14.3729 Y8.6084 
G01 X14.2721 Y8.6084 
G01 X14.2414 Y8.5957 
G01 X13.3306 Y8.5957 
G01 X13.1726 Y8.7537 
G01 X13.1918 Y8.8253 
G01 X13.1918 Y8.9547 
G01 X13.1583 Y9.0798 
G01 X13.0935 Y9.1920 
G01 X12.2654 Y10.0201 
G01 X12.2654 Y10.5060 
G01 X11.9218 Y10.8496 
G01 X11.9218 Y11.0796 
G01 X13.1410 Y11.0796 
G01 X13.2801 Y11.1073 
G01 X13.4112 Y11.1616 
G01 X13.5292 Y11.2404 
G01 X17.0696 Y14.7808 
G01 X17.1484 Y14.8988 
G01 X17.2027 Y15.0299 
G01 X17.2304 Y15.1690 
G01 X17.2304 Y16.1107 
G01 X17.3063 Y16.1867 
G01 X17.4185 Y16.3546 
G01 X17.4958 Y16.5412 
G01 X17.5352 Y16.7392 
G01 X17.5352 Y18.8208 
G01 X17.4958 Y19.0188 
G01 X17.4185 Y19.2054 
G01 X17.3063 Y19.3733 
G01 X17.1635 Y19.5161 
G01 X16.9956 Y19.6283 
G01 X16.8090 Y19.7056 
G01 X16.6110 Y19.7450 
G01 X16.4090 Y19.7450 
G01 X16.2110 Y19.7056 
G01 X16.0244 Y19.6283 
G01 X15.8565 Y19.5161 
G01 X15.7137 Y19.3733 
G01 X15.6015 Y19.2054 
G01 X15.5242 Y19.0188 
G01 X15.4848 Y18.8208 
G01 X15.4848 Y16.7392 
G01 X15.5242 Y16.5412 
G01 X15.6015 Y16.3546 
G01 X15.7137 Y16.1867 
G01 X15.7896 Y16.1107 
G01 X15.7896 Y15.5384 
G01 X12.7716 Y12.5204 
G01 X11.3590 Y12.5204 
G01 X11.2199 Y12.4927 
G01 X11.0888 Y12.4384 
G01 X10.9708 Y12.3596 
G01 X10.8966 Y12.2854 
G01 X10.8130 Y12.2854 
G01 X10.7816 Y12.2724 
G01 X10.7576 Y12.2484 
G01 X10.7446 Y12.2170 
G01 X10.7446 Y12.0278 
G01 X10.7373 Y12.0101 
G01 X10.7096 Y11.8710 
G01 X10.7096 Y11.7290 
G01 X10.7373 Y11.5899 
G01 X10.7446 Y11.5722 
G01 X10.7446 Y11.3830 
G01 X10.7576 Y11.3516 
G01 X10.7816 Y11.3276 
G01 X10.8130 Y11.3146 
G01 X10.8966 Y11.3146 
G01 X10.9382 Y11.2730 
G01 X10.9382 Y10.8496 
G01 X10.5946 Y10.5060 
G01 X10.5946 Y9.8140 
G01 X11.0840 Y9.3246 
G01 X11.5699 Y9.3246 
G01 X12.3980 Y8.4965 
G01 X12.5102 Y8.4317 
G01 X12.6353 Y8.3982 
G01 X12.7647 Y8.3982 
G01 X12.8363 Y8.4174 
G01 X13.0974 Y8.1563 
G01 X13.1848 Y8.1201 
G01 X14.3540 Y8.1201 
G01 X14.4153 Y8.1455 
G01 X15.0411 Y8.1455 
G00 Z2.5400 
G00 X17.9105 Y9.0276 
G01 Z-0.1000 F254.00 
G01 X17.9105 Y8.7143 F300.00 
G01 X17.9235 Y8.6829 
G01 X17.9475 Y8.6589 
G01 X17.9789 Y8.6459 
G01 X19.4099 Y8.6459 
G01 X19.4413 Y8.6589 
G01 X19.4653 Y8.6829 
G01 X19.4783 Y8.7143 
G01 X19.4783 Y9.0276 
G01 X19.4653 Y9.0590 
G01 X19.4413 Y9.0830 
G01 X19.4099 Y9.0960 
G01 X19.2227 Y9.0960 
G01 X19.2434 Y9.1462 
G01 X19.4099 Y9.1462 
G01 X19.4413 Y9.1592 
G01 X19.4653 Y9.1833 
G01 X19.4783 Y9.2146 
G01 X19.4783 Y9.5280 
G01 X19.4653 Y9.5594 
G01 X19.4413 Y9.5834 
G01 X19.4099 Y9.5964 
G01 X19.2878 Y9.5964 
G01 X19.2878 Y10.2040 
G01 X19.2650 Y10.3187 
G01 X19.2203 Y10.4267 
G01 X19.1553 Y10.5239 
G01 X19.0727 Y10.6065 
G01 X17.8954 Y11.7838 
G01 X17.8954 Y12.0470 
G01 X17.8824 Y12.0784 
G01 X17.8584 Y12.1024 
G01 X17.8270 Y12.1154 
G01 X16.9930 Y12.1154 
G01 X16.9616 Y12.1024 
G01 X16.9376 Y12.0784 
G01 X16.9246 Y12.0470 
G01 X16.9246 Y11.7716 
G01 X16.8841 Y11.7111 
G01 X16.8394 Y11.6031 
G01 X16.8166 Y11.4884 
G01 X16.8166 Y11.3716 
G01 X16.8394 Y11.2569 
G01 X16.8841 Y11.1489 
G01 X16.9246 Y11.0884 
G01 X16.9246 Y10.8130 
G01 X16.9376 Y10.7816 
G01 X16.9616 Y10.7576 
G01 X16.9930 Y10.7446 
G01 X17.2562 Y10.7446 
G01 X18.1010 Y9.8998 
G01 X18.1010 Y9.5964 
G01 X17.9789 Y9.5964 
G01 X17.9475 Y9.5834 
G01 X17.9235 Y9.5594 
G01 X17.9105 Y9.5280 
G01 X17.9105 Y9.2146 
G01 X17.9235 Y9.1833 
G01 X17.9475 Y9.1592 
G01 X17.9789 Y9.1462 
G01 X18.1453 Y9.1462 
G01 X18.1661 Y9.0960 
G01 X17.9789 Y9.0960 
G01 X17.9475 Y9.0830 
G01 X17.9235 Y9.0590 
G01 X17.9105 Y9.0276 
G00 Z2.5400 
G00 X17.9105 Y8.5273 
G01 Z-0.1000 F254.00 
G01 X17.9105 Y8.2139 F300.00 
G01 X17.9235 Y8.1825 
G01 X17.9475 Y8.1585 
G01 X17.9789 Y8.1455 
G01 X19.4099 Y8.1455 
G01 X19.4405 Y8.1582 
G01 X19.8428 Y8.1582 
G01 X19.9209 Y8.1905 
G01 X20.2383 Y8.5079 
G01 X20.2686 Y8.4998 
G01 X20.3714 Y8.4998 
G01 X20.4706 Y8.5264 
G01 X20.5596 Y8.5778 
G01 X20.8516 Y8.8698 
G01 X20.9046 Y8.8698 
G01 X20.9046 Y8.8430 
G01 X20.9176 Y8.8116 
G01 X20.9416 Y8.7876 
G01 X20.9730 Y8.7746 
G01 X22.2070 Y8.7746 
G01 X22.2384 Y8.7876 
G01 X22.2624 Y8.8116 
G01 X22.2754 Y8.8430 
G01 X22.2754 Y9.6770 
G01 X22.2624 Y9.7084 
G01 X22.2384 Y9.7324 
G01 X22.2070 Y9.7454 
G01 X20.9730 Y9.7454 
G01 X20.9416 Y9.7324 
G01 X20.9176 Y9.7084 
G01 X20.9046 Y9.6770 
G01 X20.9046 Y9.6502 
G01 X20.6386 Y9.6502 
G01 X20.5394 Y9.6236 
G01 X20.4504 Y9.5722 
G01 X20.3778 Y9.4996 
G01 X20.0078 Y9.1296 
G01 X19.9564 Y9.0406 
G01 X19.9298 Y8.9414 
G01 X19.9298 Y8.8386 
G01 X19.9379 Y8.8083 
G01 X19.7126 Y8.5830 
G01 X19.4405 Y8.5830 
G01 X19.4099 Y8.5957 
G01 X17.9789 Y8.5957 
G01 X17.9475 Y8.5827 
G01 X17.9235 Y8.5586 
G01 X17.9105 Y8.5273 
G00 Z2.5400 
G00 X17.9105 Y6.0254 
G01 Z-0.1000 F254.00 
G01 X17.9105 Y5.7120 F300.00 
G01 X17.9235 Y5.6806 
G01 X17.9475 Y5.6566 
G01 X17.9789 Y5.6436 
G01 X18.4321 Y5.6436 
G01 X18.2146 Y5.4260 
G01 X18.2146 Y4.7340 
G01 X18.7040 Y4.2446 
G01 X19.3960 Y4.2446 
G01 X19.8854 Y4.7340 
G01 X19.8854 Y5.4260 
G01 X19.4783 Y5.8331 
G01 X19.4783 Y6.0254 
G01 X19.4653 Y6.0567 
G01 X19.4413 Y6.0808 
G01 X19.4099 Y6.0938 
G01 X17.9789 Y6.0938 
G01 X17.9475 Y6.0808 
G01 X17.9235 Y6.0567 
G01 X17.9105 Y6.0254 
G00 Z2.5400 
G00 X20.0752 Y16.7392 
G01 Z-0.1000 F254.00 
G01 X20.0752 Y18.8208 F300.00 
G01 X20.0358 Y19.0188 
G01 X19.9585 Y19.2054 
G01 X19.8463 Y19.3733 
G01 X19.7035 Y19.5161 
G01 X19.5356 Y19.6283 
G01 X19.3490 Y19.7056 
G01 X19.1510 Y19.7450 
G01 X18.9490 Y19.7450 
G01 X18.7510 Y19.7056 
G01 X18.5644 Y19.6283 
G01 X18.3965 Y19.5161 
G01 X18.2537 Y19.3733 
G01 X18.1415 Y19.2054 
G01 X18.0642 Y19.0188 
G01 X18.0248 Y18.8208 
G01 X18.0248 Y16.7392 
G01 X18.0642 Y16.5412 
G01 X18.1415 Y16.3546 
G01 X18.2537 Y16.1867 
G01 X18.3965 Y16.0439 
G01 X18.5644 Y15.9317 
G01 X18.7510 Y15.8544 
G01 X18.9490 Y15.8150 
G01 X19.1510 Y15.8150 
G01 X19.3490 Y15.8544 
G01 X19.5356 Y15.9317 
G01 X19.7035 Y16.0439 
G01 X19.8463 Y16.1867 
G01 X19.9585 Y16.3546 
G01 X20.0358 Y16.5412 
G01 X20.0752 Y16.7392 
G00 Z2.5400 
G00 X28.6285 Y10.2504 
G01 Z-0.1000 F254.00 
G01 X26.7533 Y8.3752 F300.00 
G01 X26.7210 Y8.2971 
G01 X26.7210 Y8.1579 
G01 X26.7465 Y8.0964 
G01 X26.7533 Y8.0798 
G01 X26.8146 Y7.9319 
G01 X26.8146 Y6.4681 
G01 X26.8076 Y6.4511 
G01 X26.7832 Y6.3923 
G01 X26.7832 Y6.3077 
G01 X26.8107 Y6.2412 
G01 X26.8146 Y6.2319 
G01 X26.8146 Y4.7681 
G01 X26.7533 Y4.6202 
G01 X26.7480 Y4.6072 
G01 X26.7210 Y4.5421 
G01 X26.7210 Y4.3479 
G01 X26.7465 Y4.2864 
G01 X26.7533 Y4.2698 
G01 X26.8146 Y4.1219 
G01 X26.8146 Y2.6581 
G01 X26.6754 Y2.3219 
G01 X26.4181 Y2.0646 
G01 X26.0819 Y1.9254 
G01 X25.9854 Y1.9254 
G01 X25.9854 Y2.2570 
G01 X25.9724 Y2.2884 
G01 X25.9484 Y2.3124 
G01 X25.9170 Y2.3254 
G01 X24.8830 Y2.3254 
G01 X24.8516 Y2.3124 
G01 X24.8276 Y2.2884 
G01 X24.8146 Y2.2570 
G01 X24.8146 Y1.9254 
G01 X24.7181 Y1.9254 
G01 X24.3819 Y2.0646 
G01 X24.1246 Y2.3219 
G01 X23.9854 Y2.6581 
G01 X23.9854 Y3.1035 
G01 X23.9724 Y3.1349 
G01 X23.9531 Y3.1815 
G01 X23.8933 Y3.2413 
G01 X23.8152 Y3.2736 
G01 X23.7307 Y3.2736 
G01 X23.6909 Y3.2571 
G01 X23.6527 Y3.2413 
G01 X23.5419 Y3.1954 
G01 X23.4454 Y3.1954 
G01 X23.4454 Y3.5270 
G01 X23.4324 Y3.5584 
G01 X23.4084 Y3.5824 
G01 X23.3770 Y3.5954 
G01 X22.3430 Y3.5954 
G01 X22.3116 Y3.5824 
G01 X22.2876 Y3.5584 
G01 X22.2746 Y3.5270 
G01 X22.2746 Y3.1954 
G01 X22.1781 Y3.1954 
G01 X22.0673 Y3.2413 
G01 X22.0314 Y3.2561 
G01 X21.9892 Y3.2736 
G01 X21.9047 Y3.2736 
G01 X21.8267 Y3.2413 
G01 X21.7669 Y3.1815 
G01 X21.7484 Y3.1367 
G01 X21.7346 Y3.1035 
G01 X21.7346 Y2.6581 
G01 X21.5954 Y2.3219 
G01 X21.3381 Y2.0646 
G01 X21.0019 Y1.9254 
G01 X20.9054 Y1.9254 
G01 X20.9054 Y2.2570 
G01 X20.8924 Y2.2884 
G01 X20.8684 Y2.3124 
G01 X20.8370 Y2.3254 
G01 X19.8030 Y2.3254 
G01 X19.7716 Y2.3124 
G01 X19.7476 Y2.2884 
G01 X19.7346 Y2.2570 
G01 X19.7346 Y1.9254 
G01 X19.6381 Y1.9254 
G01 X19.3019 Y2.0646 
G01 X19.0446 Y2.3219 
G01 X18.9054 Y2.6581 
G01 X18.9054 Y3.2452 
G01 X18.8731 Y3.3233 
G01 X18.8133 Y3.3831 
G01 X18.7352 Y3.4154 
G01 X18.3605 Y3.4154 
G01 X17.3854 Y4.3905 
G01 X17.3854 Y5.0003 
G01 X17.3531 Y5.0784 
G01 X17.2933 Y5.1381 
G01 X17.2205 Y5.2109 
G01 X17.0813 Y5.5470 
G01 X17.0813 Y5.8080 
G01 X17.0490 Y5.8861 
G01 X16.9892 Y5.9459 
G01 X16.9111 Y5.9782 
G01 X16.8494 Y5.9782 
G01 X16.8494 Y6.0614 
G01 X17.4033 Y6.0614 
G01 X17.4347 Y6.0744 
G01 X17.4587 Y6.0984 
G01 X17.4717 Y6.1298 
G01 X17.4717 Y9.1102 
G01 X17.4587 Y9.1416 
G01 X17.4347 Y9.1656 
G01 X17.4033 Y9.1786 
G01 X15.6167 Y9.1786 
G01 X15.5853 Y9.1656 
G01 X15.5613 Y9.1416 
G01 X15.5483 Y9.1102 
G01 X15.5483 Y7.0818 
G01 X15.0718 Y7.0818 
G01 X15.0411 Y7.0945 
G01 X13.6101 Y7.0945 
G01 X13.5787 Y7.0815 
G01 X13.5547 Y7.0575 
G01 X13.5417 Y7.0261 
G01 X13.5417 Y6.7127 
G01 X13.5547 Y6.6814 
G01 X13.5787 Y6.6573 
G01 X13.6101 Y6.6443 
G01 X15.0411 Y6.6443 
G01 X15.0718 Y6.6570 
G01 X15.5483 Y6.6570 
G01 X15.5483 Y6.1298 
G01 X15.5613 Y6.0984 
G01 X15.5853 Y6.0744 
G01 X15.6167 Y6.0614 
G01 X16.1706 Y6.0614 
G01 X16.1706 Y5.9782 
G01 X16.1088 Y5.9782 
G01 X16.0308 Y5.9459 
G01 X15.9710 Y5.8861 
G01 X15.9387 Y5.8080 
G01 X15.9387 Y5.5470 
G01 X15.7995 Y5.2109 
G01 X15.5422 Y4.9536 
G01 X15.2060 Y4.8144 
G01 X14.1195 Y4.8144 
G01 X14.0414 Y4.7820 
G01 X13.9817 Y4.7223 
G01 X13.8199 Y4.3317 
G01 X13.3999 Y3.9117 
G01 X13.0283 Y3.5401 
G01 X12.5428 Y3.3390 
G01 X12.4586 Y3.3390 
G01 X12.3994 Y3.3145 
G01 X12.3805 Y3.3067 
G01 X12.1119 Y3.1954 
G01 X12.0154 Y3.1954 
G01 X12.0154 Y3.5270 
G01 X12.0024 Y3.5584 
G01 X11.9784 Y3.5824 
G01 X11.9470 Y3.5954 
G01 X10.9130 Y3.5954 
G01 X10.8816 Y3.5824 
G01 X10.8576 Y3.5584 
G01 X10.8446 Y3.5270 
G01 X10.8446 Y3.1954 
G01 X10.7481 Y3.1954 
G01 X10.4119 Y3.3346 
G01 X10.1546 Y3.5919 
G01 X10.0154 Y3.9281 
G01 X10.0154 Y5.0112 
G01 X9.9831 Y5.0893 
G01 X9.9233 Y5.1491 
G01 X9.8452 Y5.1814 
G01 X7.3875 Y5.1814 
G01 X6.9580 Y5.3593 
G01 X6.1069 Y6.2105 
G01 X6.0997 Y6.2229 
G01 X6.0773 Y6.2401 
G01 X6.0572 Y6.2601 
G01 X6.0440 Y6.2656 
G01 X6.0327 Y6.2743 
G01 X6.0053 Y6.2816 
G01 X5.9792 Y6.2924 
G01 X5.9649 Y6.2924 
G01 X5.9510 Y6.2961 
G01 X5.9230 Y6.2924 
G01 X5.8947 Y6.2924 
G01 X5.8815 Y6.2870 
G01 X5.8673 Y6.2851 
G01 X5.8428 Y6.2709 
G01 X5.8166 Y6.2601 
G01 X5.8065 Y6.2500 
G01 X5.7941 Y6.2428 
G01 X5.7769 Y6.2204 
G01 X5.7723 Y6.2158 
G01 X5.7569 Y6.2004 
G01 X5.7514 Y6.1871 
G01 X5.7427 Y6.1758 
G01 X5.7371 Y6.1549 
G01 X5.7149 Y6.1165 
G01 X5.6835 Y6.0851 
G01 X5.6451 Y6.0629 
G01 X5.6022 Y6.0514 
G01 X5.4154 Y6.0514 
G01 X5.4154 Y6.1346 
G01 X5.5970 Y6.1346 
G01 X5.6284 Y6.1476 
G01 X5.6524 Y6.1716 
G01 X5.6654 Y6.2030 
G01 X5.6654 Y7.3370 
G01 X5.6524 Y7.3684 
G01 X5.6284 Y7.3924 
G01 X5.5970 Y7.4054 
G01 X4.5630 Y7.4054 
G01 X4.5316 Y7.3924 
G01 X4.5076 Y7.3684 
G01 X4.4946 Y7.3370 
G01 X4.4946 Y7.0054 
G01 X4.3981 Y7.0054 
G01 X4.0619 Y7.1446 
G01 X3.9324 Y7.2741 
G01 X3.8765 Y7.3300 
G01 X3.8727 Y7.3339 
G01 X3.7946 Y7.3662 
G01 X3.7101 Y7.3662 
G01 X3.6321 Y7.3339 
G01 X3.4007 Y7.2380 
G01 X3.3409 Y7.1783 
G01 X3.3224 Y7.1335 
G01 X3.3086 Y7.1002 
G01 X3.3086 Y7.0054 
G01 X3.2254 Y7.0054 
G01 X3.2254 Y7.1370 
G01 X3.2124 Y7.1684 
G01 X3.1884 Y7.1924 
G01 X3.1570 Y7.2054 
G01 X1.9230 Y7.2054 
G01 X1.8916 Y7.1924 
G01 X1.8676 Y7.1684 
G01 X1.8546 Y7.1370 
G01 X1.8546 Y7.0054 
G01 X1.7714 Y7.0054 
G01 X1.7714 Y7.1002 
G01 X1.7584 Y7.1316 
G01 X1.7391 Y7.1783 
G01 X1.6793 Y7.2380 
G01 X1.6754 Y7.2396 
G01 X1.4219 Y7.3446 
G01 X1.1646 Y7.6019 
G01 X1.0254 Y7.9381 
G01 X1.0254 Y9.1019 
G01 X1.1646 Y9.4381 
G01 X1.1867 Y9.4601 
G01 X1.2190 Y9.5382 
G01 X1.2190 Y11.6928 
G01 X1.4201 Y12.1783 
G01 X1.8515 Y12.6096 
G01 X2.6417 Y13.3999 
G01 X3.1272 Y13.6010 
G01 X3.7438 Y13.6010 
G01 X3.8219 Y13.6333 
G01 X3.8816 Y13.6931 
G01 X5.9231 Y15.7345 
G01 X5.9554 Y15.8126 
G01 X5.9554 Y15.9295 
G01 X6.9305 Y16.9046 
G01 X8.3095 Y16.9046 
G01 X9.2846 Y15.9295 
G01 X9.2846 Y14.5505 
G01 X8.5803 Y13.8462 
G01 X8.5337 Y13.7996 
G01 X8.5205 Y13.7864 
G01 X8.4882 Y13.7084 
G01 X8.4882 Y13.6239 
G01 X8.5196 Y13.5480 
G01 X8.5803 Y13.4860 
G01 X8.6583 Y13.4537 
G01 X8.7883 Y13.3999 
G01 X9.1680 Y13.0201 
G01 X9.6288 Y12.5594 
G01 X9.6804 Y12.5078 
G01 X9.6885 Y12.4996 
G01 X9.7666 Y12.4673 
G01 X9.8511 Y12.4673 
G01 X9.9269 Y12.4987 
G01 X9.9889 Y12.5594 
G01 X10.0212 Y12.6375 
G01 X10.0546 Y12.7181 
G01 X10.3119 Y12.9754 
G01 X10.4079 Y13.0151 
G01 X10.4694 Y13.0406 
G01 X10.4860 Y13.0475 
G01 X10.5522 Y13.1137 
G01 X10.5693 Y13.1208 
G01 X10.6050 Y13.1564 
G01 X10.6290 Y13.1805 
G01 X10.6488 Y13.2283 
G01 X10.6614 Y13.2586 
G01 X10.6614 Y13.3006 
G01 X10.6614 Y13.3146 
G01 X10.7446 Y13.3146 
G01 X10.7446 Y13.1830 
G01 X10.7576 Y13.1516 
G01 X10.7816 Y13.1276 
G01 X10.8130 Y13.1146 
G01 X12.0470 Y13.1146 
G01 X12.0784 Y13.1276 
G01 X12.1024 Y13.1516 
G01 X12.1154 Y13.1830 
G01 X12.1154 Y13.3496 
G01 X12.3824 Y13.3496 
G01 X12.4605 Y13.3819 
G01 X12.4924 Y13.4139 
G01 X14.4988 Y15.4203 
G01 X14.5246 Y15.4423 
G01 X14.5285 Y15.4500 
G01 X14.5346 Y15.4561 
G01 X14.5476 Y15.4874 
G01 X14.5630 Y15.5176 
G01 X14.5636 Y15.5262 
G01 X14.5669 Y15.5341 
G01 X14.5669 Y15.5680 
G01 X14.5696 Y15.6018 
G01 X14.5669 Y15.6100 
G01 X14.5669 Y15.6186 
G01 X14.5540 Y15.6499 
G01 X14.5435 Y15.6822 
G01 X14.5379 Y15.6887 
G01 X14.5346 Y15.6967 
G01 X14.5106 Y15.7207 
G01 X14.4886 Y15.7464 
G01 X14.4809 Y15.7503 
G01 X14.4748 Y15.7564 
G01 X14.4435 Y15.7694 
G01 X14.4133 Y15.7848 
G01 X14.4047 Y15.7855 
G01 X14.3968 Y15.7888 
G01 X14.3629 Y15.7888 
G01 X14.3291 Y15.7914 
G01 X14.3209 Y15.7888 
G01 X14.3123 Y15.7888 
G01 X14.3094 Y15.7876 
G01 X14.3094 Y15.8711 
G01 X14.4556 Y15.9317 
G01 X14.6235 Y16.0439 
G01 X14.7663 Y16.1867 
G01 X14.8785 Y16.3546 
G01 X14.9558 Y16.5412 
G01 X14.9952 Y16.7392 
G01 X14.9952 Y18.8208 
G01 X14.9558 Y19.0188 
G01 X14.8785 Y19.2054 
G01 X14.7663 Y19.3733 
G01 X14.6235 Y19.5161 
G01 X14.4556 Y19.6283 
G01 X14.3094 Y19.6889 
G01 X14.3094 Y19.7750 
G01 X14.3955 Y19.7470 
G01 X14.5509 Y19.6678 
G01 X14.5843 Y19.6435 
G01 X14.6023 Y19.6255 
G01 X14.6181 Y19.6190 
G01 X14.6320 Y19.6089 
G01 X14.6568 Y19.6029 
G01 X14.6804 Y19.5932 
G01 X14.6975 Y19.5932 
G01 X14.7141 Y19.5892 
G01 X14.7394 Y19.5932 
G01 X14.7649 Y19.5932 
G01 X14.7807 Y19.5997 
G01 X14.7976 Y19.6024 
G01 X14.8194 Y19.6157 
G01 X14.8430 Y19.6255 
G01 X14.8551 Y19.6376 
G01 X14.8696 Y19.6465 
G01 X14.8847 Y19.6672 
G01 X14.9027 Y19.6852 
G01 X14.9093 Y19.7010 
G01 X14.9193 Y19.7149 
G01 X14.9253 Y19.7397 
G01 X14.9379 Y19.7702 
G01 X15.1463 Y19.9786 
G01 X20.4137 Y19.9786 
G01 X20.6221 Y19.7702 
G01 X20.9044 Y19.0887 
G01 X20.9044 Y16.4713 
G01 X20.6221 Y15.7898 
G01 X20.1004 Y15.2681 
G01 X19.4189 Y14.9858 
G01 X18.6811 Y14.9858 
G01 X18.3923 Y15.1054 
G01 X18.3584 Y15.1195 
G01 X18.3142 Y15.1378 
G01 X18.2297 Y15.1378 
G01 X18.1517 Y15.1054 
G01 X18.0919 Y15.0457 
G01 X18.0693 Y14.9911 
G01 X18.0596 Y14.9676 
G01 X18.0596 Y14.9318 
G01 X17.8237 Y14.3622 
G01 X17.3878 Y13.9263 
G01 X17.3280 Y13.8666 
G01 X16.7388 Y13.2773 
G01 X16.7064 Y13.1992 
G01 X16.7064 Y13.1147 
G01 X16.7388 Y13.0367 
G01 X16.7985 Y12.9769 
G01 X16.8766 Y12.9446 
G01 X17.9919 Y12.9446 
G01 X18.3281 Y12.8054 
G01 X18.5854 Y12.5481 
G01 X18.7246 Y12.2119 
G01 X18.7246 Y12.1730 
G01 X18.7560 Y12.0971 
G01 X18.8167 Y12.0352 
G01 X19.5002 Y11.3516 
G01 X19.9004 Y10.9514 
G01 X20.0500 Y10.5904 
G01 X20.0569 Y10.5737 
G01 X20.0823 Y10.5123 
G01 X20.1421 Y10.4526 
G01 X20.1545 Y10.4474 
G01 X20.2201 Y10.4202 
G01 X20.3046 Y10.4202 
G01 X20.3383 Y10.4342 
G01 X20.3827 Y10.4526 
G01 X20.4474 Y10.4794 
G01 X20.5782 Y10.4794 
G01 X20.6563 Y10.5117 
G01 X20.7293 Y10.5420 
G01 X20.7891 Y10.6017 
G01 X20.8076 Y10.6465 
G01 X20.8214 Y10.6798 
G01 X20.8214 Y10.7746 
G01 X20.9046 Y10.7746 
G01 X20.9046 Y10.6430 
G01 X20.9176 Y10.6116 
G01 X20.9416 Y10.5876 
G01 X20.9730 Y10.5746 
G01 X22.2070 Y10.5746 
G01 X22.2384 Y10.5876 
G01 X22.2624 Y10.6116 
G01 X22.2754 Y10.6430 
G01 X22.2754 Y10.7746 
G01 X22.3586 Y10.7746 
G01 X22.3586 Y10.6798 
G01 X22.3716 Y10.6484 
G01 X22.3909 Y10.6017 
G01 X22.4507 Y10.5420 
G01 X22.4572 Y10.5393 
G01 X22.7081 Y10.4354 
G01 X22.7397 Y10.4038 
G01 X22.7808 Y10.3867 
G01 X22.8177 Y10.3714 
G01 X22.8595 Y10.3714 
G01 X22.9022 Y10.3714 
G01 X22.9202 Y10.3789 
G01 X22.9803 Y10.4037 
G01 X23.0097 Y10.4332 
G01 X23.2693 Y10.5420 
G01 X23.3291 Y10.6017 
G01 X23.3476 Y10.6465 
G01 X23.3614 Y10.6798 
G01 X23.3614 Y10.7746 
G01 X23.4446 Y10.7746 
G01 X23.4446 Y10.6430 
G01 X23.4576 Y10.6116 
G01 X23.4816 Y10.5876 
G01 X23.5130 Y10.5746 
G01 X24.7470 Y10.5746 
G01 X24.7784 Y10.5876 
G01 X24.8024 Y10.6116 
G01 X24.8154 Y10.6430 
G01 X24.8154 Y10.7746 
G01 X24.8986 Y10.7746 
G01 X24.8986 Y10.7511 
G01 X24.9309 Y10.6731 
G01 X24.9907 Y10.6133 
G01 X25.0687 Y10.5810 
G01 X25.1771 Y10.5810 
G01 X25.2552 Y10.6133 
G01 X25.3149 Y10.6731 
G01 X25.6797 Y11.0379 
G01 X25.7394 Y11.0976 
G01 X25.7718 Y11.1757 
G01 X25.7718 Y11.2602 
G01 X25.7450 Y11.3247 
G01 X25.7394 Y11.3382 
G01 X25.4281 Y11.6496 
G01 X25.1458 Y12.3311 
G01 X25.1458 Y13.0689 
G01 X25.4281 Y13.7504 
G01 X25.9498 Y14.2721 
G01 X25.9803 Y14.2847 
G01 X26.0051 Y14.2907 
G01 X26.0189 Y14.3007 
G01 X26.0347 Y14.3073 
G01 X26.0528 Y14.3253 
G01 X26.0735 Y14.3403 
G01 X26.0824 Y14.3549 
G01 X26.0945 Y14.3670 
G01 X26.1043 Y14.3906 
G01 X26.1176 Y14.4124 
G01 X26.1203 Y14.4293 
G01 X26.1268 Y14.4451 
G01 X26.1268 Y14.4706 
G01 X26.1308 Y14.4959 
G01 X26.1268 Y14.5125 
G01 X26.1268 Y14.5296 
G01 X26.1171 Y14.5532 
G01 X26.1111 Y14.5780 
G01 X26.1010 Y14.5919 
G01 X26.0945 Y14.6077 
G01 X26.0764 Y14.6257 
G01 X26.0522 Y14.6591 
G01 X25.9730 Y14.8145 
G01 X25.9450 Y14.9006 
G01 X26.0311 Y14.9006 
G01 X26.0917 Y14.7544 
G01 X26.2039 Y14.5865 
G01 X26.3467 Y14.4437 
G01 X26.5146 Y14.3315 
G01 X26.7012 Y14.2542 
G01 X26.8992 Y14.2148 
G01 X28.9808 Y14.2148 
G01 X29.1788 Y14.2542 
G01 X29.3654 Y14.3315 
G01 X29.5333 Y14.4437 
G01 X29.6761 Y14.5865 
G01 X29.7883 Y14.7544 
G01 X29.8656 Y14.9410 
G01 X29.9050 Y15.1390 
G01 X29.9050 Y15.3410 
G01 X29.8656 Y15.5390 
G01 X29.7883 Y15.7256 
G01 X29.6761 Y15.8935 
G01 X29.5333 Y16.0363 
G01 X29.3654 Y16.1485 
G01 X29.1788 Y16.2258 
G01 X28.9808 Y16.2652 
G01 X26.8992 Y16.2652 
G01 X26.7012 Y16.2258 
G01 X26.5146 Y16.1485 
G01 X26.3467 Y16.0363 
G01 X26.2039 Y15.8935 
G01 X26.0917 Y15.7256 
G01 X26.0311 Y15.5794 
G01 X25.9450 Y15.5794 
G01 X25.9730 Y15.6655 
G01 X26.0296 Y15.7766 
G01 X26.0357 Y15.7827 
G01 X26.0487 Y15.8140 
G01 X26.0641 Y15.8442 
G01 X26.0648 Y15.8528 
G01 X26.0680 Y15.8608 
G01 X26.0680 Y15.8947 
G01 X26.0707 Y15.9285 
G01 X26.0680 Y15.9366 
G01 X26.0680 Y15.9452 
G01 X26.0551 Y15.9766 
G01 X26.0446 Y16.0088 
G01 X26.0390 Y16.0154 
G01 X26.0357 Y16.0233 
G01 X26.0117 Y16.0473 
G01 X25.9897 Y16.0731 
G01 X25.9821 Y16.0770 
G01 X25.9760 Y16.0831 
G01 X25.9446 Y16.0960 
G01 X25.9144 Y16.1114 
G01 X25.9058 Y16.1121 
G01 X25.8979 Y16.1154 
G01 X25.8640 Y16.1154 
G01 X25.8302 Y16.1181 
G01 X25.8220 Y16.1154 
G01 X24.7105 Y16.1154 
G01 X23.7354 Y17.0905 
G01 X23.7354 Y18.4695 
G01 X24.7105 Y19.4446 
G01 X26.1731 Y19.4446 
G01 X26.2512 Y19.4769 
G01 X26.6313 Y19.6344 
G01 X29.2487 Y19.6344 
G01 X29.8186 Y19.3983 
G01 X29.8186 Y19.0058 
G01 X29.8415 Y18.9205 
G01 X29.8856 Y18.8441 
G01 X29.9481 Y18.7816 
G01 X30.0245 Y18.7375 
G01 X30.1098 Y18.7146 
G01 X30.1982 Y18.7146 
G01 X30.2835 Y18.7375 
G01 X30.3599 Y18.7816 
G01 X30.4224 Y18.8441 
G01 X30.4665 Y18.9205 
G01 X30.4894 Y19.0058 
G01 X30.4894 Y20.4792 
G01 X30.4571 Y20.5573 
G01 X30.3973 Y20.6171 
G01 X30.3192 Y20.6494 
G01 X-0.1692 Y20.6494 
G01 X-0.2473 Y20.6171 
G01 X-0.3071 Y20.5573 
G01 X-0.3394 Y20.4792 
G01 X-0.3394 Y1.1007 
G01 X-0.3071 Y1.0227 
G01 X-0.2473 Y0.9629 
G01 X-0.1692 Y0.9306 
G01 X19.4812 Y0.9306 
G01 X19.5593 Y0.9629 
G01 X19.6191 Y1.0227 
G01 X19.6514 Y1.1007 
G01 X19.6514 Y1.3546 
G01 X19.7346 Y1.3546 
G01 X19.7346 Y1.1230 
G01 X19.7476 Y1.0916 
G01 X19.7716 Y1.0676 
G01 X19.8030 Y1.0546 
G01 X20.8370 Y1.0546 
G01 X20.8684 Y1.0676 
G01 X20.8924 Y1.0916 
G01 X20.9054 Y1.1230 
G01 X20.9054 Y1.3546 
G01 X20.9886 Y1.3546 
G01 X20.9886 Y1.1007 
G01 X21.0209 Y1.0227 
G01 X21.0807 Y0.9629 
G01 X21.1587 Y0.9306 
G01 X24.5612 Y0.9306 
G01 X24.6393 Y0.9629 
G01 X24.6991 Y1.0227 
G01 X24.7314 Y1.1007 
G01 X24.7314 Y1.3546 
G01 X24.8146 Y1.3546 
G01 X24.8146 Y1.1230 
G01 X24.8276 Y1.0916 
G01 X24.8516 Y1.0676 
G01 X24.8830 Y1.0546 
G01 X25.9170 Y1.0546 
G01 X25.9484 Y1.0676 
G01 X25.9724 Y1.0916 
G01 X25.9854 Y1.1230 
G01 X25.9854 Y1.3546 
G01 X26.0686 Y1.3546 
G01 X26.0686 Y1.1007 
G01 X26.1009 Y1.0227 
G01 X26.1607 Y0.9629 
G01 X26.2387 Y0.9306 
G01 X30.3192 Y0.9306 
G01 X30.3973 Y0.9629 
G01 X30.4571 Y1.0227 
G01 X30.4894 Y1.1007 
G01 X30.4894 Y11.2166 
G01 X30.4764 Y11.2480 
G01 X30.4571 Y11.2946 
G01 X30.3973 Y11.3544 
G01 X30.3192 Y11.3867 
G01 X30.2347 Y11.3867 
G01 X30.2033 Y11.3737 
G01 X30.1567 Y11.3544 
G01 X30.0969 Y11.2946 
G01 X29.9302 Y11.1279 
G01 X29.2487 Y10.8456 
G01 X29.2274 Y10.8456 
G01 X29.1960 Y10.8326 
G01 X29.1494 Y10.8133 
G01 X29.0896 Y10.7535 
G01 X29.0599 Y10.6817 
G01 X28.6285 Y10.2504 
G00 Z2.5400 
G00 Z12.7000 
M05
M02
