(.../eduards/EAGLE/pcb-gcode/pcb-gcode.ulp)
(Copyright 2005 - 2012 by John Johnson)
(See readme.txt for licensing terms.)
(This file generated from the board:)
(.../New_Project/AFM_Power_board.brd)
(Current profile is .../pcb-gcode/profiles/generic.pp  )
(This file generated 4/3/24 12:28 AM)
(Settings from pcb-machine.h)
(  Tool Size)
(0.0000 )
(Z Axis Settings)
(  High     Up        Down     Drill)
(12.7000 	2.5400 	-0.0200 	-0.8128 )
(spindle on time = 3.0000)
(milling depth = 0.0000)
(text depth = -0.1270)
(tool change at 12.7000 15.2400 25.4000 )
(feed rate xy = F300.00 )
(feed rate z  = F254.00 )
(Settings from pcb-defaults.h)
(isolate min = 0.0010)
(isolate max = 2.0000)
(isolate step = 0.1200)
(Generated top outlines, top drill, )
(Unit of measure: mm)
(Metric Mode)
G21
(Absolute Coordinates)
G90
G00 X0.0000 Y0.0000 
M03
G04 P3.000000
G00 Z2.5400 
G00 X18.4062 Y40.9729 
G01 Z-0.0200 F254.00 
G01 X18.2492 Y40.9079 F300.00 
G01 X18.2321 Y40.8907 
G01 X17.3920 Y40.0507 
G01 X17.0993 Y39.7580 
G01 X16.7169 Y39.5996 
G01 X13.1800 Y39.5996 
G01 X13.1576 Y39.5903 
G01 X13.1415 Y39.5742 
G01 X12.2585 Y39.5742 
G01 X11.6342 Y40.1985 
G01 X11.6342 Y41.0815 
G01 X12.2585 Y41.7058 
G01 X13.1415 Y41.7058 
G01 X13.1576 Y41.6897 
G01 X13.1800 Y41.6804 
G01 X16.0659 Y41.6804 
G01 X16.0883 Y41.6897 
G01 X16.7610 Y42.3623 
G01 X16.7779 Y42.3792 
G01 X16.8429 Y42.5361 
G01 X17.1538 Y42.8471 
G01 X17.5601 Y43.0154 
G01 X17.9999 Y43.0154 
G01 X18.4062 Y42.8471 
G01 X18.7171 Y42.5361 
G01 X18.8854 Y42.1299 
G01 X18.8854 Y41.6901 
G01 X18.7171 Y41.2838 
G01 X18.4062 Y40.9729 
G00 Z2.5400 
G00 X18.4810 Y41.8410 
G01 Z-0.0200 F254.00 
G01 X18.4810 Y41.9790 F300.00 
G01 X18.4541 Y42.1145 
G01 X18.4012 Y42.2421 
G01 X18.3245 Y42.3569 
G01 X18.2269 Y42.4545 
G01 X18.1121 Y42.5312 
G01 X17.9845 Y42.5841 
G01 X17.8490 Y42.6110 
G01 X17.7110 Y42.6110 
G01 X17.5755 Y42.5841 
G01 X17.4479 Y42.5312 
G01 X17.3331 Y42.4545 
G01 X17.2355 Y42.3569 
G01 X17.1588 Y42.2421 
G01 X17.1207 Y42.1502 
G01 X16.2466 Y41.2760 
G01 X12.9994 Y41.2760 
G01 X12.9740 Y41.3014 
G01 X12.4260 Y41.3014 
G01 X12.0386 Y40.9140 
G01 X12.0386 Y40.3660 
G01 X12.4260 Y39.9786 
G01 X12.9740 Y39.9786 
G01 X12.9994 Y40.0040 
G01 X16.5726 Y40.0040 
G01 X16.6955 Y40.0284 
G01 X16.8113 Y40.0764 
G01 X16.9154 Y40.1460 
G01 X17.0040 Y40.2346 
G01 X18.0202 Y41.2507 
G01 X18.1121 Y41.2888 
G01 X18.2269 Y41.3655 
G01 X18.3245 Y41.4631 
G01 X18.4012 Y41.5779 
G01 X18.4541 Y41.7055 
G01 X18.4810 Y41.8410 
G00 Z2.5400 
G00 X34.9161 Y34.6229 
G01 Z-0.0200 F254.00 
G01 X34.5099 Y34.4546 F300.00 
G01 X34.0701 Y34.4546 
G01 X33.6638 Y34.6229 
G01 X33.3529 Y34.9338 
G01 X33.1846 Y35.3401 
G01 X33.1846 Y35.7799 
G01 X33.3529 Y36.1862 
G01 X33.6638 Y36.4971 
G01 X34.0701 Y36.6654 
G01 X34.5099 Y36.6654 
G01 X34.9162 Y36.4971 
G01 X35.2271 Y36.1862 
G01 X35.3954 Y35.7799 
G01 X35.3954 Y35.3401 
G01 X35.2271 Y34.9338 
G01 X34.9161 Y34.6229 
G00 Z2.5400 
G00 X34.9910 Y35.4910 
G01 Z-0.0200 F254.00 
G01 X34.9910 Y35.6290 F300.00 
G01 X34.9641 Y35.7645 
G01 X34.9112 Y35.8921 
G01 X34.8345 Y36.0069 
G01 X34.7369 Y36.1045 
G01 X34.6221 Y36.1812 
G01 X34.4945 Y36.2341 
G01 X34.3590 Y36.2610 
G01 X34.2210 Y36.2610 
G01 X34.0855 Y36.2341 
G01 X33.9579 Y36.1812 
G01 X33.8431 Y36.1045 
G01 X33.7455 Y36.0069 
G01 X33.6688 Y35.8921 
G01 X33.6159 Y35.7645 
G01 X33.5890 Y35.6290 
G01 X33.5890 Y35.4910 
G01 X33.6159 Y35.3555 
G01 X33.6688 Y35.2279 
G01 X33.7455 Y35.1131 
G01 X33.8431 Y35.0155 
G01 X33.9579 Y34.9388 
G01 X34.0855 Y34.8859 
G01 X34.2210 Y34.8590 
G01 X34.3590 Y34.8590 
G01 X34.4945 Y34.8859 
G01 X34.6221 Y34.9388 
G01 X34.7369 Y35.0155 
G01 X34.8345 Y35.1131 
G01 X34.9112 Y35.2279 
G01 X34.9641 Y35.3555 
G01 X34.9910 Y35.4910 
G00 Z2.5400 
G00 X10.2896 Y3.3020 
G01 Z-0.0200 F254.00 
G01 X10.6680 Y3.6804 F300.00 
G01 X11.1624 Y3.8852 
G01 X11.6976 Y3.8852 
G01 X12.1920 Y3.6804 
G01 X12.5704 Y3.3020 
G01 X12.6483 Y3.1140 
G01 X12.6654 Y3.0968 
G01 X12.6879 Y3.0875 
G01 X12.7121 Y3.0875 
G01 X12.7346 Y3.0968 
G01 X12.7517 Y3.1140 
G01 X12.7610 Y3.1364 
G01 X12.8296 Y3.3020 
G01 X13.2080 Y3.6804 
G01 X13.7024 Y3.8852 
G01 X14.2376 Y3.8852 
G01 X14.7320 Y3.6804 
G01 X15.1104 Y3.3020 
G01 X15.1883 Y3.1140 
G01 X15.2054 Y3.0968 
G01 X15.2279 Y3.0875 
G01 X15.2521 Y3.0875 
G01 X15.2746 Y3.0968 
G01 X15.2917 Y3.1140 
G01 X15.3010 Y3.1364 
G01 X15.3696 Y3.3020 
G01 X15.7480 Y3.6804 
G01 X16.2424 Y3.8852 
G01 X16.7776 Y3.8852 
G01 X17.2720 Y3.6804 
G01 X17.6504 Y3.3020 
G01 X17.7283 Y3.1140 
G01 X17.7454 Y3.0968 
G01 X17.7679 Y3.0875 
G01 X17.7921 Y3.0875 
G01 X17.8146 Y3.0968 
G01 X17.8317 Y3.1140 
G01 X17.8410 Y3.1364 
G01 X17.9096 Y3.3020 
G01 X18.2880 Y3.6804 
G01 X18.7824 Y3.8852 
G01 X19.3176 Y3.8852 
G01 X19.8120 Y3.6804 
G01 X20.1904 Y3.3020 
G01 X20.2683 Y3.1140 
G01 X20.2854 Y3.0968 
G01 X20.3079 Y3.0875 
G01 X20.3321 Y3.0875 
G01 X20.3546 Y3.0968 
G01 X20.3717 Y3.1140 
G01 X20.3810 Y3.1364 
G01 X20.4496 Y3.3020 
G01 X20.8280 Y3.6804 
G01 X21.3224 Y3.8852 
G01 X21.8576 Y3.8852 
G01 X22.3520 Y3.6804 
G01 X22.7304 Y3.3020 
G01 X22.8083 Y3.1140 
G01 X22.8254 Y3.0968 
G01 X22.8479 Y3.0875 
G01 X22.8721 Y3.0875 
G01 X22.8946 Y3.0968 
G01 X22.9117 Y3.1140 
G01 X22.9210 Y3.1364 
G01 X22.9896 Y3.3020 
G01 X23.3680 Y3.6804 
G01 X23.8624 Y3.8852 
G01 X24.3976 Y3.8852 
G01 X24.8920 Y3.6804 
G01 X25.2704 Y3.3020 
G01 X25.3483 Y3.1140 
G01 X25.3654 Y3.0968 
G01 X25.3879 Y3.0875 
G01 X25.4121 Y3.0875 
G01 X25.4346 Y3.0968 
G01 X25.4517 Y3.1140 
G01 X25.4610 Y3.1364 
G01 X25.5296 Y3.3020 
G01 X25.9080 Y3.6804 
G01 X26.4024 Y3.8852 
G01 X26.9376 Y3.8852 
G01 X27.4320 Y3.6804 
G01 X27.8104 Y3.3020 
G01 X28.0152 Y2.8076 
G01 X28.0152 Y2.2724 
G01 X27.8104 Y1.7780 
G01 X27.4320 Y1.3996 
G01 X26.9376 Y1.1948 
G01 X26.4024 Y1.1948 
G01 X25.9080 Y1.3996 
G01 X25.5296 Y1.7780 
G01 X25.4610 Y1.9436 
G01 X25.4519 Y1.9655 
G01 X25.4346 Y1.9832 
G01 X25.4121 Y1.9925 
G01 X25.3879 Y1.9925 
G01 X25.3654 Y1.9832 
G01 X25.3483 Y1.9660 
G01 X25.2704 Y1.7780 
G01 X24.8920 Y1.3996 
G01 X24.3976 Y1.1948 
G01 X23.8624 Y1.1948 
G01 X23.3680 Y1.3996 
G01 X22.9896 Y1.7780 
G01 X22.9210 Y1.9436 
G01 X22.9119 Y1.9655 
G01 X22.8946 Y1.9832 
G01 X22.8721 Y1.9925 
G01 X22.8479 Y1.9925 
G01 X22.8254 Y1.9832 
G01 X22.8083 Y1.9660 
G01 X22.7304 Y1.7780 
G01 X22.3520 Y1.3996 
G01 X21.8576 Y1.1948 
G01 X21.3224 Y1.1948 
G01 X20.8280 Y1.3996 
G01 X20.4496 Y1.7780 
G01 X20.3810 Y1.9436 
G01 X20.3719 Y1.9655 
G01 X20.3546 Y1.9832 
G01 X20.3321 Y1.9925 
G01 X20.3079 Y1.9925 
G01 X20.2854 Y1.9832 
G01 X20.2683 Y1.9660 
G01 X20.1904 Y1.7780 
G01 X19.8120 Y1.3996 
G01 X19.3176 Y1.1948 
G01 X18.7824 Y1.1948 
G01 X18.2880 Y1.3996 
G01 X17.9096 Y1.7780 
G01 X17.8410 Y1.9436 
G01 X17.8319 Y1.9655 
G01 X17.8146 Y1.9832 
G01 X17.7921 Y1.9925 
G01 X17.7679 Y1.9925 
G01 X17.7454 Y1.9832 
G01 X17.7283 Y1.9660 
G01 X17.6504 Y1.7780 
G01 X17.2720 Y1.3996 
G01 X16.7776 Y1.1948 
G01 X16.2424 Y1.1948 
G01 X15.7480 Y1.3996 
G01 X15.3696 Y1.7780 
G01 X15.3010 Y1.9436 
G01 X15.2919 Y1.9655 
G01 X15.2746 Y1.9832 
G01 X15.2521 Y1.9925 
G01 X15.2279 Y1.9925 
G01 X15.2054 Y1.9832 
G01 X15.1883 Y1.9660 
G01 X15.1104 Y1.7780 
G01 X14.7320 Y1.3996 
G01 X14.2376 Y1.1948 
G01 X13.7024 Y1.1948 
G01 X13.2080 Y1.3996 
G01 X12.8296 Y1.7780 
G01 X12.7610 Y1.9436 
G01 X12.7519 Y1.9655 
G01 X12.7346 Y1.9832 
G01 X12.7121 Y1.9925 
G01 X12.6879 Y1.9925 
G01 X12.6654 Y1.9832 
G01 X12.6483 Y1.9660 
G01 X12.5704 Y1.7780 
G01 X12.1920 Y1.3996 
G01 X11.6976 Y1.1948 
G01 X11.1624 Y1.1948 
G01 X10.6680 Y1.3996 
G01 X10.2896 Y1.7780 
G01 X10.2210 Y1.9436 
G01 X10.2119 Y1.9655 
G01 X10.1946 Y1.9832 
G01 X10.1721 Y1.9925 
G01 X10.1479 Y1.9925 
G01 X10.1254 Y1.9832 
G01 X10.1083 Y1.9660 
G01 X10.0304 Y1.7780 
G01 X9.6520 Y1.3996 
G01 X9.1576 Y1.1948 
G01 X8.6224 Y1.1948 
G01 X8.1280 Y1.3996 
G01 X7.7496 Y1.7780 
G01 X7.5448 Y2.2724 
G01 X7.5448 Y2.8076 
G01 X7.7496 Y3.3020 
G01 X8.1280 Y3.6804 
G01 X8.6224 Y3.8852 
G01 X9.1576 Y3.8852 
G01 X9.6520 Y3.6804 
G01 X10.0304 Y3.3020 
G01 X10.1083 Y3.1140 
G01 X10.1254 Y3.0968 
G01 X10.1479 Y3.0875 
G01 X10.1721 Y3.0875 
G01 X10.1946 Y3.0968 
G01 X10.2117 Y3.1140 
G01 X10.2210 Y3.1364 
G01 X10.2896 Y3.3020 
G00 Z2.5400 
G00 X27.6108 Y2.4473 
G01 Z-0.0200 F254.00 
G01 X27.6108 Y2.6327 F300.00 
G01 X27.5747 Y2.8144 
G01 X27.5037 Y2.9856 
G01 X27.4008 Y3.1397 
G01 X27.2697 Y3.2708 
G01 X27.1156 Y3.3737 
G01 X26.9444 Y3.4447 
G01 X26.7627 Y3.4808 
G01 X26.5773 Y3.4808 
G01 X26.3956 Y3.4447 
G01 X26.2244 Y3.3737 
G01 X26.0703 Y3.2708 
G01 X25.9392 Y3.1397 
G01 X25.8363 Y2.9856 
G01 X25.7653 Y2.8144 
G01 X25.7292 Y2.6327 
G01 X25.7292 Y2.4473 
G01 X25.7653 Y2.2656 
G01 X25.8363 Y2.0944 
G01 X25.9392 Y1.9403 
G01 X26.0703 Y1.8092 
G01 X26.2244 Y1.7063 
G01 X26.3956 Y1.6353 
G01 X26.5773 Y1.5992 
G01 X26.7627 Y1.5992 
G01 X26.9444 Y1.6353 
G01 X27.1156 Y1.7063 
G01 X27.2697 Y1.8092 
G01 X27.4008 Y1.9403 
G01 X27.5037 Y2.0944 
G01 X27.5747 Y2.2656 
G01 X27.6108 Y2.4473 
G00 Z2.5400 
G00 X25.0708 Y2.4473 
G01 Z-0.0200 F254.00 
G01 X25.0708 Y2.6327 F300.00 
G01 X25.0347 Y2.8144 
G01 X24.9637 Y2.9856 
G01 X24.8608 Y3.1397 
G01 X24.7297 Y3.2708 
G01 X24.5756 Y3.3737 
G01 X24.4044 Y3.4447 
G01 X24.2227 Y3.4808 
G01 X24.0373 Y3.4808 
G01 X23.8556 Y3.4447 
G01 X23.6844 Y3.3737 
G01 X23.5303 Y3.2708 
G01 X23.3992 Y3.1397 
G01 X23.2963 Y2.9856 
G01 X23.2253 Y2.8144 
G01 X23.1892 Y2.6327 
G01 X23.1892 Y2.4473 
G01 X23.2253 Y2.2656 
G01 X23.2963 Y2.0944 
G01 X23.3992 Y1.9403 
G01 X23.5303 Y1.8092 
G01 X23.6844 Y1.7063 
G01 X23.8556 Y1.6353 
G01 X24.0373 Y1.5992 
G01 X24.2227 Y1.5992 
G01 X24.4044 Y1.6353 
G01 X24.5756 Y1.7063 
G01 X24.7297 Y1.8092 
G01 X24.8608 Y1.9403 
G01 X24.9637 Y2.0944 
G01 X25.0347 Y2.2656 
G01 X25.0708 Y2.4473 
G00 Z2.5400 
G00 X22.5308 Y2.4473 
G01 Z-0.0200 F254.00 
G01 X22.5308 Y2.6327 F300.00 
G01 X22.4947 Y2.8144 
G01 X22.4237 Y2.9856 
G01 X22.3208 Y3.1397 
G01 X22.1897 Y3.2708 
G01 X22.0356 Y3.3737 
G01 X21.8644 Y3.4447 
G01 X21.6827 Y3.4808 
G01 X21.4973 Y3.4808 
G01 X21.3156 Y3.4447 
G01 X21.1444 Y3.3737 
G01 X20.9903 Y3.2708 
G01 X20.8592 Y3.1397 
G01 X20.7563 Y2.9856 
G01 X20.6853 Y2.8144 
G01 X20.6492 Y2.6327 
G01 X20.6492 Y2.4473 
G01 X20.6853 Y2.2656 
G01 X20.7563 Y2.0944 
G01 X20.8592 Y1.9403 
G01 X20.9903 Y1.8092 
G01 X21.1444 Y1.7063 
G01 X21.3156 Y1.6353 
G01 X21.4973 Y1.5992 
G01 X21.6827 Y1.5992 
G01 X21.8644 Y1.6353 
G01 X22.0356 Y1.7063 
G01 X22.1897 Y1.8092 
G01 X22.3208 Y1.9403 
G01 X22.4237 Y2.0944 
G01 X22.4947 Y2.2656 
G01 X22.5308 Y2.4473 
G00 Z2.5400 
G00 X19.9908 Y2.4473 
G01 Z-0.0200 F254.00 
G01 X19.9908 Y2.6327 F300.00 
G01 X19.9547 Y2.8144 
G01 X19.8837 Y2.9856 
G01 X19.7808 Y3.1397 
G01 X19.6497 Y3.2708 
G01 X19.4956 Y3.3737 
G01 X19.3244 Y3.4447 
G01 X19.1427 Y3.4808 
G01 X18.9573 Y3.4808 
G01 X18.7756 Y3.4447 
G01 X18.6044 Y3.3737 
G01 X18.4503 Y3.2708 
G01 X18.3192 Y3.1397 
G01 X18.2163 Y2.9856 
G01 X18.1453 Y2.8144 
G01 X18.1092 Y2.6327 
G01 X18.1092 Y2.4473 
G01 X18.1453 Y2.2656 
G01 X18.2163 Y2.0944 
G01 X18.3192 Y1.9403 
G01 X18.4503 Y1.8092 
G01 X18.6044 Y1.7063 
G01 X18.7756 Y1.6353 
G01 X18.9573 Y1.5992 
G01 X19.1427 Y1.5992 
G01 X19.3244 Y1.6353 
G01 X19.4956 Y1.7063 
G01 X19.6497 Y1.8092 
G01 X19.7808 Y1.9403 
G01 X19.8837 Y2.0944 
G01 X19.9547 Y2.2656 
G01 X19.9908 Y2.4473 
G00 Z2.5400 
G00 X17.4508 Y2.4473 
G01 Z-0.0200 F254.00 
G01 X17.4508 Y2.6327 F300.00 
G01 X17.4147 Y2.8144 
G01 X17.3437 Y2.9856 
G01 X17.2408 Y3.1397 
G01 X17.1097 Y3.2708 
G01 X16.9556 Y3.3737 
G01 X16.7844 Y3.4447 
G01 X16.6027 Y3.4808 
G01 X16.4173 Y3.4808 
G01 X16.2356 Y3.4447 
G01 X16.0644 Y3.3737 
G01 X15.9103 Y3.2708 
G01 X15.7792 Y3.1397 
G01 X15.6763 Y2.9856 
G01 X15.6053 Y2.8144 
G01 X15.5692 Y2.6327 
G01 X15.5692 Y2.4473 
G01 X15.6053 Y2.2656 
G01 X15.6763 Y2.0944 
G01 X15.7792 Y1.9403 
G01 X15.9103 Y1.8092 
G01 X16.0644 Y1.7063 
G01 X16.2356 Y1.6353 
G01 X16.4173 Y1.5992 
G01 X16.6027 Y1.5992 
G01 X16.7844 Y1.6353 
G01 X16.9556 Y1.7063 
G01 X17.1097 Y1.8092 
G01 X17.2408 Y1.9403 
G01 X17.3437 Y2.0944 
G01 X17.4147 Y2.2656 
G01 X17.4508 Y2.4473 
G00 Z2.5400 
G00 X14.9108 Y2.4473 
G01 Z-0.0200 F254.00 
G01 X14.9108 Y2.6327 F300.00 
G01 X14.8747 Y2.8144 
G01 X14.8037 Y2.9856 
G01 X14.7008 Y3.1397 
G01 X14.5697 Y3.2708 
G01 X14.4156 Y3.3737 
G01 X14.2444 Y3.4447 
G01 X14.0627 Y3.4808 
G01 X13.8773 Y3.4808 
G01 X13.6956 Y3.4447 
G01 X13.5244 Y3.3737 
G01 X13.3703 Y3.2708 
G01 X13.2392 Y3.1397 
G01 X13.1363 Y2.9856 
G01 X13.0653 Y2.8144 
G01 X13.0292 Y2.6327 
G01 X13.0292 Y2.4473 
G01 X13.0653 Y2.2656 
G01 X13.1363 Y2.0944 
G01 X13.2392 Y1.9403 
G01 X13.3703 Y1.8092 
G01 X13.5244 Y1.7063 
G01 X13.6956 Y1.6353 
G01 X13.8773 Y1.5992 
G01 X14.0627 Y1.5992 
G01 X14.2444 Y1.6353 
G01 X14.4156 Y1.7063 
G01 X14.5697 Y1.8092 
G01 X14.7008 Y1.9403 
G01 X14.8037 Y2.0944 
G01 X14.8747 Y2.2656 
G01 X14.9108 Y2.4473 
G00 Z2.5400 
G00 X12.3708 Y2.4473 
G01 Z-0.0200 F254.00 
G01 X12.3708 Y2.6327 F300.00 
G01 X12.3347 Y2.8144 
G01 X12.2637 Y2.9856 
G01 X12.1608 Y3.1397 
G01 X12.0297 Y3.2708 
G01 X11.8756 Y3.3737 
G01 X11.7044 Y3.4447 
G01 X11.5227 Y3.4808 
G01 X11.3373 Y3.4808 
G01 X11.1556 Y3.4447 
G01 X10.9844 Y3.3737 
G01 X10.8303 Y3.2708 
G01 X10.6992 Y3.1397 
G01 X10.5963 Y2.9856 
G01 X10.5253 Y2.8144 
G01 X10.4892 Y2.6327 
G01 X10.4892 Y2.4473 
G01 X10.5253 Y2.2656 
G01 X10.5963 Y2.0944 
G01 X10.6992 Y1.9403 
G01 X10.8303 Y1.8092 
G01 X10.9844 Y1.7063 
G01 X11.1556 Y1.6353 
G01 X11.3373 Y1.5992 
G01 X11.5227 Y1.5992 
G01 X11.7044 Y1.6353 
G01 X11.8756 Y1.7063 
G01 X12.0297 Y1.8092 
G01 X12.1608 Y1.9403 
G01 X12.2637 Y2.0944 
G01 X12.3347 Y2.2656 
G01 X12.3708 Y2.4473 
G00 Z2.5400 
G00 X9.8308 Y2.4473 
G01 Z-0.0200 F254.00 
G01 X9.8308 Y2.6327 F300.00 
G01 X9.7947 Y2.8144 
G01 X9.7237 Y2.9856 
G01 X9.6208 Y3.1397 
G01 X9.4897 Y3.2708 
G01 X9.3356 Y3.3737 
G01 X9.1644 Y3.4447 
G01 X8.9827 Y3.4808 
G01 X8.7973 Y3.4808 
G01 X8.6156 Y3.4447 
G01 X8.4444 Y3.3737 
G01 X8.2903 Y3.2708 
G01 X8.1592 Y3.1397 
G01 X8.0563 Y2.9856 
G01 X7.9853 Y2.8144 
G01 X7.9492 Y2.6327 
G01 X7.9492 Y2.4473 
G01 X7.9853 Y2.2656 
G01 X8.0563 Y2.0944 
G01 X8.1592 Y1.9403 
G01 X8.2903 Y1.8092 
G01 X8.4444 Y1.7063 
G01 X8.6156 Y1.6353 
G01 X8.7973 Y1.5992 
G01 X8.9827 Y1.5992 
G01 X9.1644 Y1.6353 
G01 X9.3356 Y1.7063 
G01 X9.4897 Y1.8092 
G01 X9.6208 Y1.9403 
G01 X9.7237 Y2.0944 
G01 X9.7947 Y2.2656 
G01 X9.8308 Y2.4473 
G00 Z2.5400 
G00 X3.4534 Y28.8317 
G01 Z-0.0200 F254.00 
G01 X2.9183 Y28.2966 F300.00 
G01 X2.6610 Y28.2966 
G01 X2.6610 Y28.5486 
G01 X2.8140 Y28.5486 
G01 X3.2014 Y28.9360 
G01 X3.2014 Y29.0890 
G01 X3.4534 Y29.0890 
G01 X3.4534 Y28.8317 
G00 Z2.5400 
G00 X1.6266 Y29.5883 
G01 Z-0.0200 F254.00 
G01 X2.1617 Y30.1234 F300.00 
G01 X2.4190 Y30.1234 
G01 X2.4190 Y29.8714 
G01 X2.2660 Y29.8714 
G01 X1.8786 Y29.4840 
G01 X1.8786 Y29.3310 
G01 X1.6266 Y29.3310 
G01 X1.6266 Y29.5883 
G00 Z2.5400 
G00 X1.6266 Y29.0890 
G01 Z-0.0200 F254.00 
G01 X1.8786 Y29.0890 F300.00 
G01 X1.8786 Y28.9360 
G01 X2.2660 Y28.5486 
G01 X2.4190 Y28.5486 
G01 X2.4190 Y28.2966 
G01 X2.1617 Y28.2966 
G01 X1.6266 Y28.8317 
G01 X1.6266 Y29.0890 
G00 Z2.5400 
G00 X2.9183 Y30.1234 
G01 Z-0.0200 F254.00 
G01 X3.4534 Y29.5883 F300.00 
G01 X3.4534 Y29.3310 
G01 X3.2014 Y29.3310 
G01 X3.2014 Y29.4840 
G01 X2.8140 Y29.8714 
G01 X2.6610 Y29.8714 
G01 X2.6610 Y30.1234 
G01 X2.9183 Y30.1234 
G00 Z2.5400 
G00 X3.4534 Y14.8617 
G01 Z-0.0200 F254.00 
G01 X2.9183 Y14.3266 F300.00 
G01 X2.6610 Y14.3266 
G01 X2.6610 Y14.5786 
G01 X2.8140 Y14.5786 
G01 X3.2014 Y14.9660 
G01 X3.2014 Y15.1190 
G01 X3.4534 Y15.1190 
G01 X3.4534 Y14.8617 
G00 Z2.5400 
G00 X1.6266 Y15.6183 
G01 Z-0.0200 F254.00 
G01 X2.1617 Y16.1534 F300.00 
G01 X2.4190 Y16.1534 
G01 X2.4190 Y15.9014 
G01 X2.2660 Y15.9014 
G01 X1.8786 Y15.5140 
G01 X1.8786 Y15.3610 
G01 X1.6266 Y15.3610 
G01 X1.6266 Y15.6183 
G00 Z2.5400 
G00 X1.6266 Y15.1190 
G01 Z-0.0200 F254.00 
G01 X1.8786 Y15.1190 F300.00 
G01 X1.8786 Y14.9660 
G01 X2.2660 Y14.5786 
G01 X2.4190 Y14.5786 
G01 X2.4190 Y14.3266 
G01 X2.1617 Y14.3266 
G01 X1.6266 Y14.8617 
G01 X1.6266 Y15.1190 
G00 Z2.5400 
G00 X2.9183 Y16.1534 
G01 Z-0.0200 F254.00 
G01 X3.4534 Y15.6183 F300.00 
G01 X3.4534 Y15.3610 
G01 X3.2014 Y15.3610 
G01 X3.2014 Y15.5140 
G01 X2.8140 Y15.9014 
G01 X2.6610 Y15.9014 
G01 X2.6610 Y16.1534 
G01 X2.9183 Y16.1534 
G00 Z2.5400 
G00 X16.9129 Y29.7804 
G01 Z-0.0200 F254.00 
G01 X17.1504 Y29.5429 F300.00 
G01 X17.1504 Y28.6991 
G01 X17.1597 Y28.6766 
G01 X17.1768 Y28.6595 
G01 X17.1993 Y28.6502 
G01 X20.2637 Y28.6502 
G01 X20.2862 Y28.6595 
G01 X20.3033 Y28.6766 
G01 X20.3221 Y28.6954 
G01 X21.4079 Y28.6954 
G01 X21.4520 Y28.6513 
G01 X21.4689 Y28.6344 
G01 X21.4911 Y28.6252 
G01 X21.5156 Y28.6251 
G01 X21.5381 Y28.6344 
G01 X21.5552 Y28.6515 
G01 X21.7257 Y28.8220 
G01 X22.1080 Y28.9804 
G01 X24.9200 Y28.9804 
G01 X24.9424 Y28.9897 
G01 X24.9585 Y29.0058 
G01 X25.8415 Y29.0058 
G01 X25.8576 Y28.9897 
G01 X25.8800 Y28.9804 
G01 X30.0000 Y28.9804 
G01 X30.0224 Y28.9897 
G01 X30.0385 Y29.0058 
G01 X30.9215 Y29.0058 
G01 X31.5458 Y28.3815 
G01 X31.5458 Y28.3587 
G01 X31.5551 Y28.3362 
G01 X31.5722 Y28.3191 
G01 X32.1716 Y27.7197 
G01 X32.1941 Y27.7104 
G01 X35.4879 Y27.7104 
G01 X35.5103 Y27.7197 
G01 X35.5275 Y27.7368 
G01 X35.7803 Y27.9897 
G01 X35.7896 Y28.0121 
G01 X35.7896 Y29.4169 
G01 X35.9480 Y29.7993 
G01 X37.2180 Y31.0693 
G01 X37.5107 Y31.3620 
G01 X37.8930 Y31.5204 
G01 X38.9799 Y31.5204 
G01 X39.0024 Y31.5297 
G01 X39.0193 Y31.5466 
G01 X39.0247 Y31.5593 
G01 X39.5607 Y32.0953 
G01 X40.2610 Y32.3854 
G01 X41.0190 Y32.3854 
G01 X41.7193 Y32.0953 
G01 X42.2553 Y31.5593 
G01 X42.5454 Y30.8590 
G01 X42.5454 Y30.1010 
G01 X42.2553 Y29.4007 
G01 X41.7193 Y28.8647 
G01 X41.0190 Y28.5746 
G01 X40.2610 Y28.5746 
G01 X39.5607 Y28.8647 
G01 X39.0247 Y29.4007 
G01 X39.0201 Y29.4117 
G01 X39.0024 Y29.4303 
G01 X38.9799 Y29.4396 
G01 X38.5441 Y29.4396 
G01 X38.5216 Y29.4303 
G01 X38.5045 Y29.4132 
G01 X37.8797 Y28.7883 
G01 X37.8704 Y28.7659 
G01 X37.8704 Y28.0121 
G01 X37.8797 Y27.9897 
G01 X38.2503 Y27.6190 
G01 X38.5054 Y27.0033 
G01 X38.5054 Y26.4791 
G01 X38.5147 Y26.4566 
G01 X38.5318 Y26.4395 
G01 X38.9820 Y25.9893 
G01 X39.1404 Y25.6069 
G01 X39.1404 Y25.1930 
G01 X38.9820 Y24.8107 
G01 X38.6893 Y24.5180 
G01 X38.3069 Y24.3596 
G01 X37.8930 Y24.3596 
G01 X37.5107 Y24.5180 
G01 X37.0433 Y24.9853 
G01 X37.0209 Y24.9946 
G01 X36.4967 Y24.9946 
G01 X35.8810 Y25.2497 
G01 X35.5103 Y25.6203 
G01 X35.4879 Y25.6296 
G01 X31.5430 Y25.6296 
G01 X31.1607 Y25.7880 
G01 X30.0838 Y26.8649 
G01 X30.0613 Y26.8742 
G01 X30.0385 Y26.8742 
G01 X30.0224 Y26.8903 
G01 X30.0000 Y26.8996 
G01 X25.8800 Y26.8996 
G01 X25.8576 Y26.8903 
G01 X25.8415 Y26.8742 
G01 X24.9585 Y26.8742 
G01 X24.9424 Y26.8903 
G01 X24.9200 Y26.8996 
G01 X22.1080 Y26.8996 
G01 X21.7257 Y27.0580 
G01 X21.5381 Y27.2456 
G01 X21.5156 Y27.2549 
G01 X21.4913 Y27.2549 
G01 X21.4689 Y27.2456 
G01 X21.4518 Y27.2285 
G01 X21.4079 Y27.1846 
G01 X20.3221 Y27.1846 
G01 X20.2862 Y27.2205 
G01 X20.2637 Y27.2298 
G01 X17.1993 Y27.2298 
G01 X17.1768 Y27.2205 
G01 X17.1597 Y27.2034 
G01 X17.1504 Y27.1809 
G01 X17.1504 Y27.0571 
G01 X16.9129 Y26.8196 
G01 X15.6271 Y26.8196 
G01 X15.3896 Y27.0571 
G01 X15.3896 Y29.5429 
G01 X15.6271 Y29.7804 
G01 X16.9129 Y29.7804 
G00 Z2.5400 
G00 X42.1410 Y30.3619 
G01 Z-0.0200 F254.00 
G01 X42.1410 Y30.5981 F300.00 
G01 X42.1041 Y30.8315 
G01 X42.0310 Y31.0562 
G01 X41.9238 Y31.2667 
G01 X41.7849 Y31.4578 
G01 X41.6178 Y31.6249 
G01 X41.4267 Y31.7638 
G01 X41.2162 Y31.8710 
G01 X40.9915 Y31.9441 
G01 X40.7581 Y31.9810 
G01 X40.5219 Y31.9810 
G01 X40.2885 Y31.9441 
G01 X40.0638 Y31.8710 
G01 X39.8533 Y31.7638 
G01 X39.6622 Y31.6249 
G01 X39.4951 Y31.4578 
G01 X39.3562 Y31.2667 
G01 X39.2794 Y31.1160 
G01 X38.0374 Y31.1160 
G01 X37.9145 Y31.0916 
G01 X37.7987 Y31.0436 
G01 X37.6946 Y30.9740 
G01 X37.6060 Y30.8854 
G01 X36.4246 Y29.7040 
G01 X36.3360 Y29.6154 
G01 X36.2664 Y29.5113 
G01 X36.2184 Y29.3955 
G01 X36.1940 Y29.2726 
G01 X36.1940 Y27.7724 
G01 X36.1638 Y27.7571 
G01 X36.0020 Y27.6395 
G01 X35.8605 Y27.4980 
G01 X35.7429 Y27.3362 
G01 X35.7276 Y27.3060 
G01 X32.0134 Y27.3060 
G01 X31.1414 Y28.1780 
G01 X31.1414 Y28.2140 
G01 X30.7540 Y28.6014 
G01 X30.2060 Y28.6014 
G01 X30.1806 Y28.5760 
G01 X25.6994 Y28.5760 
G01 X25.6740 Y28.6014 
G01 X25.1260 Y28.6014 
G01 X25.1006 Y28.5760 
G01 X22.2524 Y28.5760 
G01 X22.1295 Y28.5516 
G01 X22.0137 Y28.5036 
G01 X21.9096 Y28.4340 
G01 X21.8210 Y28.3454 
G01 X21.7514 Y28.2413 
G01 X21.7034 Y28.1255 
G01 X21.6790 Y28.0026 
G01 X21.6790 Y27.8774 
G01 X21.7034 Y27.7545 
G01 X21.7514 Y27.6387 
G01 X21.8210 Y27.5346 
G01 X21.9096 Y27.4460 
G01 X22.0137 Y27.3764 
G01 X22.1295 Y27.3284 
G01 X22.2524 Y27.3040 
G01 X25.1006 Y27.3040 
G01 X25.1260 Y27.2786 
G01 X25.6740 Y27.2786 
G01 X25.6994 Y27.3040 
G01 X30.1806 Y27.3040 
G01 X30.2060 Y27.2786 
G01 X30.2420 Y27.2786 
G01 X31.3446 Y26.1760 
G01 X31.4487 Y26.1064 
G01 X31.5645 Y26.0584 
G01 X31.6874 Y26.0340 
G01 X35.7276 Y26.0340 
G01 X35.7429 Y26.0038 
G01 X35.8605 Y25.8420 
G01 X36.0020 Y25.7005 
G01 X36.1638 Y25.5829 
G01 X36.3421 Y25.4921 
G01 X36.5324 Y25.4303 
G01 X36.7300 Y25.3990 
G01 X36.9300 Y25.3990 
G01 X37.1276 Y25.4303 
G01 X37.1598 Y25.4407 
G01 X37.6946 Y24.9060 
G01 X37.7987 Y24.8364 
G01 X37.9145 Y24.7884 
G01 X38.0374 Y24.7640 
G01 X38.1626 Y24.7640 
G01 X38.2855 Y24.7884 
G01 X38.4013 Y24.8364 
G01 X38.5054 Y24.9060 
G01 X38.5940 Y24.9946 
G01 X38.6636 Y25.0987 
G01 X38.7116 Y25.2145 
G01 X38.7360 Y25.3374 
G01 X38.7360 Y25.4626 
G01 X38.7116 Y25.5855 
G01 X38.6636 Y25.7013 
G01 X38.5940 Y25.8054 
G01 X38.0593 Y26.3402 
G01 X38.0697 Y26.3724 
G01 X38.1010 Y26.5700 
G01 X38.1010 Y26.7700 
G01 X38.0697 Y26.9676 
G01 X38.0079 Y27.1579 
G01 X37.9171 Y27.3362 
G01 X37.7995 Y27.4980 
G01 X37.6580 Y27.6395 
G01 X37.4962 Y27.7571 
G01 X37.4660 Y27.7724 
G01 X37.4660 Y28.9466 
G01 X38.3634 Y29.8440 
G01 X39.2794 Y29.8440 
G01 X39.3562 Y29.6933 
G01 X39.4951 Y29.5022 
G01 X39.6622 Y29.3351 
G01 X39.8533 Y29.1962 
G01 X40.0638 Y29.0890 
G01 X40.2885 Y29.0159 
G01 X40.5219 Y28.9790 
G01 X40.7581 Y28.9790 
G01 X40.9915 Y29.0159 
G01 X41.2162 Y29.0890 
G01 X41.4267 Y29.1962 
G01 X41.6178 Y29.3351 
G01 X41.7849 Y29.5022 
G01 X41.9238 Y29.6933 
G01 X42.0310 Y29.9038 
G01 X42.1041 Y30.1285 
G01 X42.1410 Y30.3619 
G00 Z2.5400 
G00 X15.7940 Y29.3754 
G01 Z-0.0200 F254.00 
G01 X15.7940 Y27.2246 F300.00 
G01 X15.7946 Y27.2240 
G01 X16.7454 Y27.2240 
G01 X16.7460 Y27.6342 
G01 X20.4890 Y27.6342 
G01 X20.4890 Y27.5896 
G01 X21.2404 Y27.5890 
G01 X21.2410 Y28.2904 
G01 X20.4896 Y28.2910 
G01 X20.4890 Y28.2458 
G01 X16.7567 Y28.2458 
G01 X16.7460 Y28.2565 
G01 X16.7460 Y29.3754 
G01 X15.7946 Y29.3760 
G00 Z2.5400 
G00 X43.3446 Y35.7879 
G01 Z-0.0200 F254.00 
G01 X43.5821 Y36.0254 F300.00 
G01 X45.3179 Y36.0254 
G01 X45.3736 Y35.9697 
G01 X45.3960 Y35.9604 
G01 X48.4407 Y35.9604 
G01 X48.4632 Y35.9697 
G01 X48.4803 Y35.9868 
G01 X48.4896 Y36.0093 
G01 X48.4896 Y37.0369 
G01 X48.6480 Y37.4193 
G01 X52.7507 Y41.5220 
G01 X53.1330 Y41.6804 
G01 X55.4312 Y41.6804 
G01 X55.4536 Y41.6897 
G01 X55.4707 Y41.7068 
G01 X55.5106 Y41.7466 
G01 X55.9903 Y41.9454 
G01 X58.3097 Y41.9454 
G01 X58.7894 Y41.7466 
G01 X59.1566 Y41.3794 
G01 X59.3554 Y40.8997 
G01 X59.3554 Y40.3803 
G01 X59.2795 Y40.1973 
G01 X59.2705 Y40.1753 
G01 X59.2703 Y40.1506 
G01 X59.2795 Y40.1281 
G01 X59.2883 Y40.1194 
G01 X59.2967 Y40.1110 
G01 X59.3189 Y40.1018 
G01 X59.3434 Y40.1017 
G01 X59.3658 Y40.1110 
G01 X59.6903 Y40.2454 
G01 X60.2097 Y40.2454 
G01 X60.6894 Y40.0466 
G01 X61.0566 Y39.6794 
G01 X61.2554 Y39.1997 
G01 X61.2554 Y36.8803 
G01 X61.0566 Y36.4006 
G01 X60.6894 Y36.0333 
G01 X60.2097 Y35.8346 
G01 X59.6903 Y35.8346 
G01 X59.4285 Y35.9431 
G01 X59.4043 Y35.9431 
G01 X59.3818 Y35.9338 
G01 X59.3647 Y35.9166 
G01 X59.3554 Y35.8942 
G01 X59.3554 Y35.4803 
G01 X59.1566 Y35.0006 
G01 X58.7894 Y34.6334 
G01 X58.3097 Y34.4346 
G01 X58.2393 Y34.4346 
G01 X58.2168 Y34.4253 
G01 X58.1997 Y34.4082 
G01 X58.1904 Y34.3857 
G01 X58.1904 Y23.1241 
G01 X58.1997 Y23.1016 
G01 X58.2168 Y23.0845 
G01 X58.5766 Y22.7247 
G01 X58.5991 Y22.7154 
G01 X59.5797 Y22.7154 
G01 X60.0594 Y22.5166 
G01 X60.4266 Y22.1494 
G01 X60.6254 Y21.6697 
G01 X60.6254 Y21.1503 
G01 X60.4266 Y20.6706 
G01 X60.0594 Y20.3034 
G01 X59.5797 Y20.1046 
G01 X58.5991 Y20.1046 
G01 X58.5766 Y20.0953 
G01 X58.5595 Y20.0782 
G01 X56.9347 Y18.4533 
G01 X56.9254 Y18.4309 
G01 X56.9254 Y17.9503 
G01 X56.8495 Y17.7673 
G01 X56.8405 Y17.7453 
G01 X56.8403 Y17.7205 
G01 X56.8495 Y17.6981 
G01 X56.8583 Y17.6894 
G01 X56.8667 Y17.6810 
G01 X56.8889 Y17.6718 
G01 X56.9134 Y17.6717 
G01 X56.9358 Y17.6810 
G01 X57.2603 Y17.8154 
G01 X59.5797 Y17.8154 
G01 X60.0594 Y17.6166 
G01 X60.4266 Y17.2494 
G01 X60.6254 Y16.7697 
G01 X60.6254 Y16.2503 
G01 X60.4266 Y15.7706 
G01 X60.0594 Y15.4034 
G01 X59.5797 Y15.2046 
G01 X59.5093 Y15.2046 
G01 X59.4868 Y15.1953 
G01 X59.4697 Y15.1782 
G01 X59.4604 Y15.1557 
G01 X59.4604 Y15.0330 
G01 X59.3020 Y14.6507 
G01 X55.6597 Y11.0083 
G01 X55.6504 Y10.9859 
G01 X55.6504 Y8.6830 
G01 X55.4920 Y8.3007 
G01 X54.2220 Y7.0307 
G01 X53.9293 Y6.7380 
G01 X53.5469 Y6.5796 
G01 X51.8631 Y6.5796 
G01 X51.4807 Y6.7380 
G01 X47.6707 Y10.5480 
G01 X47.3780 Y10.8407 
G01 X47.2196 Y11.2230 
G01 X47.2196 Y12.2507 
G01 X47.2103 Y12.2732 
G01 X47.1932 Y12.2903 
G01 X47.1707 Y12.2996 
G01 X45.3960 Y12.2996 
G01 X45.3736 Y12.2903 
G01 X45.3565 Y12.2732 
G01 X45.3179 Y12.2346 
G01 X43.5821 Y12.2346 
G01 X43.3446 Y12.4721 
G01 X43.3446 Y14.2079 
G01 X43.5821 Y14.4454 
G01 X45.3179 Y14.4454 
G01 X45.3736 Y14.3897 
G01 X45.3960 Y14.3804 
G01 X47.3140 Y14.3804 
G01 X47.3364 Y14.3897 
G01 X47.3535 Y14.4068 
G01 X47.3921 Y14.4454 
G01 X49.1279 Y14.4454 
G01 X49.3654 Y14.2079 
G01 X49.3654 Y12.4721 
G01 X49.3097 Y12.4164 
G01 X49.3004 Y12.3940 
G01 X49.3004 Y11.8741 
G01 X49.3097 Y11.8516 
G01 X49.3268 Y11.8345 
G01 X52.4916 Y8.6697 
G01 X52.5141 Y8.6604 
G01 X52.8959 Y8.6604 
G01 X52.9183 Y8.6697 
G01 X52.9355 Y8.6868 
G01 X53.5603 Y9.3116 
G01 X53.5696 Y9.3341 
G01 X53.5696 Y11.6369 
G01 X53.7280 Y12.0193 
G01 X54.0207 Y12.3120 
G01 X56.9421 Y15.2334 
G01 X56.9590 Y15.2503 
G01 X56.9681 Y15.2724 
G01 X56.9682 Y15.2970 
G01 X56.9590 Y15.3194 
G01 X56.9502 Y15.3281 
G01 X56.9418 Y15.3366 
G01 X56.7806 Y15.4034 
G01 X56.4134 Y15.7706 
G01 X56.2146 Y16.2503 
G01 X56.2146 Y16.7697 
G01 X56.2905 Y16.9527 
G01 X56.2995 Y16.9747 
G01 X56.2997 Y16.9994 
G01 X56.2905 Y17.0219 
G01 X56.2817 Y17.0306 
G01 X56.2733 Y17.0390 
G01 X56.2511 Y17.0482 
G01 X56.2266 Y17.0483 
G01 X56.2042 Y17.0390 
G01 X55.8797 Y16.9046 
G01 X55.3603 Y16.9046 
G01 X54.8805 Y17.1034 
G01 X54.5134 Y17.4705 
G01 X54.3658 Y17.8267 
G01 X54.3487 Y17.8439 
G01 X54.3262 Y17.8531 
G01 X54.0007 Y17.9880 
G01 X53.7080 Y18.2807 
G01 X53.5496 Y18.6630 
G01 X53.5496 Y19.0769 
G01 X53.7080 Y19.4593 
G01 X54.0007 Y19.7520 
G01 X54.0124 Y19.7568 
G01 X54.0219 Y19.7608 
G01 X54.0348 Y19.7661 
G01 X54.0520 Y19.7833 
G01 X54.2607 Y19.9920 
G01 X54.2657 Y19.9941 
G01 X54.2882 Y20.0034 
G01 X54.3053 Y20.0205 
G01 X54.3146 Y20.0430 
G01 X54.3146 Y20.2697 
G01 X54.5134 Y20.7494 
G01 X54.8303 Y21.0664 
G01 X54.8396 Y21.0888 
G01 X54.8396 Y21.1459 
G01 X54.8303 Y21.1683 
G01 X54.8132 Y21.1855 
G01 X54.6783 Y21.3203 
G01 X54.6559 Y21.3296 
G01 X54.3056 Y21.3296 
G01 X53.7431 Y21.5626 
G01 X53.3126 Y21.9931 
G01 X53.0796 Y22.5556 
G01 X53.0796 Y23.1644 
G01 X53.3126 Y23.7269 
G01 X53.7431 Y24.1574 
G01 X54.3056 Y24.3904 
G01 X54.9144 Y24.3904 
G01 X55.4769 Y24.1574 
G01 X55.9074 Y23.7269 
G01 X55.9969 Y23.5109 
G01 X56.0140 Y23.4937 
G01 X56.0365 Y23.4844 
G01 X56.0607 Y23.4844 
G01 X56.0832 Y23.4937 
G01 X56.1003 Y23.5109 
G01 X56.1096 Y23.5333 
G01 X56.1096 Y34.3857 
G01 X56.1003 Y34.4082 
G01 X56.0832 Y34.4253 
G01 X56.0607 Y34.4346 
G01 X55.9903 Y34.4346 
G01 X55.5106 Y34.6334 
G01 X55.1434 Y35.0006 
G01 X54.9446 Y35.4803 
G01 X54.9446 Y35.9997 
G01 X55.1434 Y36.4794 
G01 X55.5106 Y36.8466 
G01 X55.9903 Y37.0454 
G01 X56.9709 Y37.0454 
G01 X56.9933 Y37.0547 
G01 X57.0105 Y37.0718 
G01 X58.6353 Y38.6966 
G01 X58.6446 Y38.7191 
G01 X58.6446 Y39.1997 
G01 X58.7205 Y39.3827 
G01 X58.7295 Y39.4047 
G01 X58.7297 Y39.4294 
G01 X58.7205 Y39.4519 
G01 X58.7117 Y39.4606 
G01 X58.7033 Y39.4690 
G01 X58.6811 Y39.4782 
G01 X58.6566 Y39.4783 
G01 X58.6342 Y39.4690 
G01 X58.3097 Y39.3346 
G01 X55.9903 Y39.3346 
G01 X55.5106 Y39.5333 
G01 X55.4536 Y39.5903 
G01 X55.4312 Y39.5996 
G01 X53.7841 Y39.5996 
G01 X53.7616 Y39.5903 
G01 X53.7445 Y39.5732 
G01 X50.5797 Y36.4083 
G01 X50.5704 Y36.3859 
G01 X50.5704 Y35.8660 
G01 X50.5797 Y35.8436 
G01 X50.5968 Y35.8265 
G01 X50.6354 Y35.7879 
G01 X50.6354 Y34.0521 
G01 X50.3979 Y33.8146 
G01 X48.6621 Y33.8146 
G01 X48.6064 Y33.8703 
G01 X48.5840 Y33.8796 
G01 X45.3960 Y33.8796 
G01 X45.3736 Y33.8703 
G01 X45.3565 Y33.8532 
G01 X45.3179 Y33.8146 
G01 X43.5821 Y33.8146 
G01 X43.3446 Y34.0521 
G01 X43.3446 Y35.7879 
G00 Z2.5400 
G00 X43.7496 Y34.2190 
G01 Z-0.0200 F254.00 
G01 X45.1504 Y34.2190 F300.00 
G01 X45.1510 Y34.2196 
G01 X45.1510 Y34.2840 
G01 X48.8290 Y34.2840 
G01 X48.8290 Y34.2196 
G01 X50.2304 Y34.2190 
G01 X50.2310 Y35.6204 
G01 X50.1660 Y35.6210 
G01 X50.1660 Y36.5665 
G01 X53.6034 Y40.0040 
G01 X55.6118 Y40.0040 
G01 X55.6756 Y39.9401 
G01 X55.8232 Y39.8415 
G01 X55.9872 Y39.7736 
G01 X56.1613 Y39.7390 
G01 X58.1387 Y39.7390 
G01 X58.3128 Y39.7736 
G01 X58.4768 Y39.8415 
G01 X58.6244 Y39.9401 
G01 X58.7499 Y40.0656 
G01 X58.8485 Y40.2132 
G01 X58.9164 Y40.3772 
G01 X58.9510 Y40.5513 
G01 X58.9510 Y40.7287 
G01 X58.9164 Y40.9028 
G01 X58.8485 Y41.0668 
G01 X58.7499 Y41.2144 
G01 X58.6244 Y41.3399 
G01 X58.4768 Y41.4385 
G01 X58.3128 Y41.5064 
G01 X58.1387 Y41.5410 
G01 X56.1613 Y41.5410 
G01 X55.9872 Y41.5064 
G01 X55.8232 Y41.4385 
G01 X55.6756 Y41.3399 
G01 X55.6118 Y41.2760 
G01 X53.2774 Y41.2760 
G01 X53.1545 Y41.2516 
G01 X53.0387 Y41.2036 
G01 X52.9346 Y41.1340 
G01 X49.0360 Y37.2354 
G01 X48.9664 Y37.1313 
G01 X48.9184 Y37.0155 
G01 X48.8940 Y36.8926 
G01 X48.8940 Y35.6210 
G01 X48.8296 Y35.6210 
G01 X48.8290 Y35.5560 
G01 X45.1510 Y35.5560 
G01 X45.1510 Y35.6204 
G01 X43.7496 Y35.6210 
G01 X43.7490 Y34.2196 
G00 Z2.5400 
G00 X47.5596 Y12.6390 
G01 Z-0.0200 F254.00 
G01 X47.6240 Y12.6390 F300.00 
G01 X47.6240 Y11.3674 
G01 X47.6484 Y11.2445 
G01 X47.6964 Y11.1287 
G01 X47.7660 Y11.0246 
G01 X47.8546 Y10.9360 
G01 X51.6646 Y7.1260 
G01 X51.7687 Y7.0564 
G01 X51.8845 Y7.0084 
G01 X52.0074 Y6.9840 
G01 X53.4026 Y6.9840 
G01 X53.5255 Y7.0084 
G01 X53.6413 Y7.0564 
G01 X53.7454 Y7.1260 
G01 X53.8340 Y7.2146 
G01 X55.1040 Y8.4846 
G01 X55.1736 Y8.5887 
G01 X55.2216 Y8.7045 
G01 X55.2460 Y8.8274 
G01 X55.2460 Y11.1666 
G01 X58.9140 Y14.8346 
G01 X58.9836 Y14.9387 
G01 X59.0316 Y15.0545 
G01 X59.0560 Y15.1774 
G01 X59.0560 Y15.6090 
G01 X59.4087 Y15.6090 
G01 X59.5828 Y15.6436 
G01 X59.7468 Y15.7115 
G01 X59.8944 Y15.8101 
G01 X60.0199 Y15.9356 
G01 X60.1185 Y16.0832 
G01 X60.1864 Y16.2472 
G01 X60.2210 Y16.4213 
G01 X60.2210 Y16.5987 
G01 X60.1864 Y16.7728 
G01 X60.1185 Y16.9368 
G01 X60.0199 Y17.0844 
G01 X59.8944 Y17.2099 
G01 X59.7468 Y17.3085 
G01 X59.5828 Y17.3764 
G01 X59.4087 Y17.4110 
G01 X57.4313 Y17.4110 
G01 X57.2572 Y17.3764 
G01 X57.0932 Y17.3085 
G01 X56.9456 Y17.2099 
G01 X56.8201 Y17.0844 
G01 X56.7215 Y16.9368 
G01 X56.6536 Y16.7728 
G01 X56.6190 Y16.5987 
G01 X56.6190 Y16.4213 
G01 X56.6536 Y16.2472 
G01 X56.7215 Y16.0832 
G01 X56.8201 Y15.9356 
G01 X56.9456 Y15.8101 
G01 X57.0932 Y15.7115 
G01 X57.2572 Y15.6436 
G01 X57.4313 Y15.6090 
G01 X57.7840 Y15.6090 
G01 X57.7840 Y15.5034 
G01 X54.2046 Y11.9240 
G01 X54.1160 Y11.8354 
G01 X54.0464 Y11.7313 
G01 X53.9984 Y11.6155 
G01 X53.9740 Y11.4926 
G01 X53.9740 Y9.1534 
G01 X53.0766 Y8.2560 
G01 X52.3334 Y8.2560 
G01 X48.8960 Y11.6934 
G01 X48.8960 Y12.6390 
G01 X48.9604 Y12.6390 
G01 X48.9610 Y14.0404 
G01 X47.5596 Y14.0410 
G01 X47.5590 Y13.9760 
G01 X45.1510 Y13.9760 
G01 X45.1510 Y14.0404 
G01 X43.7496 Y14.0410 
G01 X43.7490 Y12.6396 
G01 X45.1504 Y12.6390 
G01 X45.1510 Y12.7040 
G01 X47.5590 Y12.7040 
G01 X47.5590 Y12.6396 
G00 Z2.5400 
G00 X55.7360 Y22.7714 
G01 Z-0.0200 F254.00 
G01 X55.7360 Y22.9486 F300.00 
G01 X55.7083 Y23.1237 
G01 X55.6535 Y23.2922 
G01 X55.5731 Y23.4502 
G01 X55.4689 Y23.5936 
G01 X55.3436 Y23.7189 
G01 X55.2002 Y23.8231 
G01 X55.0422 Y23.9035 
G01 X54.8737 Y23.9583 
G01 X54.6986 Y23.9860 
G01 X54.5214 Y23.9860 
G01 X54.3463 Y23.9583 
G01 X54.1778 Y23.9035 
G01 X54.0198 Y23.8231 
G01 X53.8764 Y23.7189 
G01 X53.7511 Y23.5936 
G01 X53.6469 Y23.4502 
G01 X53.5665 Y23.2922 
G01 X53.5117 Y23.1237 
G01 X53.4840 Y22.9486 
G01 X53.4840 Y22.7714 
G01 X53.5117 Y22.5963 
G01 X53.5665 Y22.4278 
G01 X53.6469 Y22.2698 
G01 X53.7511 Y22.1264 
G01 X53.8764 Y22.0011 
G01 X54.0198 Y21.8969 
G01 X54.1778 Y21.8165 
G01 X54.3463 Y21.7617 
G01 X54.5214 Y21.7340 
G01 X54.6986 Y21.7340 
G01 X54.8177 Y21.7528 
G01 X55.2440 Y21.3266 
G01 X55.2440 Y20.8295 
G01 X55.1932 Y20.8085 
G01 X55.0456 Y20.7099 
G01 X54.9201 Y20.5844 
G01 X54.8215 Y20.4368 
G01 X54.7536 Y20.2728 
G01 X54.7190 Y20.0987 
G01 X54.7190 Y19.7324 
G01 X54.6645 Y19.7216 
G01 X54.5487 Y19.6736 
G01 X54.4446 Y19.6040 
G01 X54.2448 Y19.4043 
G01 X54.1846 Y19.3640 
G01 X54.0960 Y19.2754 
G01 X54.0264 Y19.1713 
G01 X53.9784 Y19.0555 
G01 X53.9540 Y18.9326 
G01 X53.9540 Y18.8074 
G01 X53.9784 Y18.6845 
G01 X54.0264 Y18.5687 
G01 X54.0960 Y18.4646 
G01 X54.1846 Y18.3760 
G01 X54.2887 Y18.3064 
G01 X54.4045 Y18.2584 
G01 X54.5274 Y18.2340 
G01 X54.7190 Y18.2340 
G01 X54.7190 Y18.1213 
G01 X54.7536 Y17.9472 
G01 X54.8215 Y17.7832 
G01 X54.9201 Y17.6356 
G01 X55.0456 Y17.5101 
G01 X55.1932 Y17.4115 
G01 X55.3572 Y17.3436 
G01 X55.5313 Y17.3090 
G01 X55.7087 Y17.3090 
G01 X55.8828 Y17.3436 
G01 X56.0468 Y17.4115 
G01 X56.1944 Y17.5101 
G01 X56.3199 Y17.6356 
G01 X56.4185 Y17.7832 
G01 X56.4864 Y17.9472 
G01 X56.5210 Y18.1213 
G01 X56.5210 Y18.6116 
G01 X58.4184 Y20.5090 
G01 X59.4087 Y20.5090 
G01 X59.5828 Y20.5436 
G01 X59.7468 Y20.6115 
G01 X59.8944 Y20.7101 
G01 X60.0199 Y20.8356 
G01 X60.1185 Y20.9832 
G01 X60.1864 Y21.1472 
G01 X60.2210 Y21.3213 
G01 X60.2210 Y21.4987 
G01 X60.1864 Y21.6728 
G01 X60.1185 Y21.8368 
G01 X60.0199 Y21.9844 
G01 X59.8944 Y22.1099 
G01 X59.7468 Y22.2085 
G01 X59.5828 Y22.2764 
G01 X59.4087 Y22.3110 
G01 X58.4184 Y22.3110 
G01 X57.7860 Y22.9434 
G01 X57.7860 Y34.8390 
G01 X58.1387 Y34.8390 
G01 X58.3128 Y34.8736 
G01 X58.4768 Y34.9415 
G01 X58.6244 Y35.0401 
G01 X58.7499 Y35.1656 
G01 X58.8485 Y35.3132 
G01 X58.9164 Y35.4772 
G01 X58.9510 Y35.6513 
G01 X58.9510 Y35.8287 
G01 X58.9164 Y36.0028 
G01 X58.8485 Y36.1668 
G01 X58.7499 Y36.3144 
G01 X58.6868 Y36.3774 
G01 X59.1138 Y36.8043 
G01 X59.1515 Y36.7132 
G01 X59.2501 Y36.5656 
G01 X59.3756 Y36.4401 
G01 X59.5232 Y36.3415 
G01 X59.6872 Y36.2736 
G01 X59.8613 Y36.2390 
G01 X60.0387 Y36.2390 
G01 X60.2128 Y36.2736 
G01 X60.3768 Y36.3415 
G01 X60.5244 Y36.4401 
G01 X60.6499 Y36.5656 
G01 X60.7485 Y36.7132 
G01 X60.8164 Y36.8772 
G01 X60.8510 Y37.0513 
G01 X60.8510 Y39.0287 
G01 X60.8164 Y39.2028 
G01 X60.7485 Y39.3668 
G01 X60.6499 Y39.5144 
G01 X60.5244 Y39.6399 
G01 X60.3768 Y39.7385 
G01 X60.2128 Y39.8064 
G01 X60.0387 Y39.8410 
G01 X59.8613 Y39.8410 
G01 X59.6872 Y39.8064 
G01 X59.5232 Y39.7385 
G01 X59.3756 Y39.6399 
G01 X59.2501 Y39.5144 
G01 X59.1515 Y39.3668 
G01 X59.0836 Y39.2028 
G01 X59.0490 Y39.0287 
G01 X59.0490 Y38.5370 
G01 X59.0446 Y38.5340 
G01 X57.1516 Y36.6410 
G01 X56.1613 Y36.6410 
G01 X55.9872 Y36.6064 
G01 X55.8232 Y36.5385 
G01 X55.6756 Y36.4399 
G01 X55.5501 Y36.3144 
G01 X55.4515 Y36.1668 
G01 X55.3836 Y36.0028 
G01 X55.3490 Y35.8287 
G01 X55.3490 Y35.6513 
G01 X55.3836 Y35.4772 
G01 X55.4515 Y35.3132 
G01 X55.5501 Y35.1656 
G01 X55.6756 Y35.0401 
G01 X55.8232 Y34.9415 
G01 X55.9872 Y34.8736 
G01 X56.1613 Y34.8390 
G01 X56.5140 Y34.8390 
G01 X56.5140 Y22.6174 
G01 X56.5384 Y22.4945 
G01 X56.5864 Y22.3787 
G01 X56.6560 Y22.2746 
G01 X56.8832 Y22.0474 
G01 X56.8201 Y21.9844 
G01 X56.7215 Y21.8368 
G01 X56.6536 Y21.6728 
G01 X56.6190 Y21.4987 
G01 X56.6190 Y21.3213 
G01 X56.6536 Y21.1472 
G01 X56.7215 Y20.9832 
G01 X56.8201 Y20.8356 
G01 X56.8832 Y20.7726 
G01 X56.5160 Y20.4055 
G01 X56.5160 Y21.6526 
G01 X56.4916 Y21.7755 
G01 X56.4436 Y21.8913 
G01 X56.3740 Y21.9954 
G01 X56.2854 Y22.0840 
G01 X55.7172 Y22.6523 
G01 X55.7360 Y22.7714 
G00 Z2.5400 
G00 X26.0360 Y18.4160 
G01 Z-0.0200 F254.00 
G01 X26.0360 Y22.2240 F300.00 
G01 X29.8440 Y22.2240 
G01 X29.8440 Y18.4160 
G01 X26.0360 Y18.4160 
G00 Z2.5400 
G00 X29.4396 Y21.7707 
G01 Z-0.0200 F254.00 
G01 X29.4303 Y21.7932 F300.00 
G01 X29.4132 Y21.8103 
G01 X29.3907 Y21.8196 
G01 X26.4893 Y21.8196 
G01 X26.4668 Y21.8103 
G01 X26.4497 Y21.7932 
G01 X26.4404 Y21.7707 
G01 X26.4404 Y18.8693 
G01 X26.4497 Y18.8468 
G01 X26.4668 Y18.8297 
G01 X26.4893 Y18.8204 
G01 X29.3907 Y18.8204 
G01 X29.4132 Y18.8297 
G01 X29.4303 Y18.8468 
G01 X29.4396 Y18.8693 
G01 X29.4396 Y18.8935 
G01 X29.4396 Y21.7707 
G00 Z2.5400 
G00 X31.4707 Y49.6366 
G01 Z-0.0200 F254.00 
G01 X31.2921 Y49.6946 F300.00 
G01 X31.1248 Y49.7798 
G01 X30.9729 Y49.8902 
G01 X30.8402 Y50.0229 
G01 X30.7298 Y50.1748 
G01 X30.6446 Y50.3421 
G01 X30.5866 Y50.5207 
G01 X30.5615 Y50.6790 
G01 X30.8148 Y50.6790 
G01 X30.8453 Y50.5256 
G01 X30.9163 Y50.3544 
G01 X31.0192 Y50.2003 
G01 X31.1503 Y50.0692 
G01 X31.3044 Y49.9663 
G01 X31.4756 Y49.8953 
G01 X31.6290 Y49.8648 
G01 X31.6290 Y49.6115 
G01 X31.4707 Y49.6366 
G00 Z2.5400 
G00 X32.6908 Y50.7073 
G01 Z-0.0200 F254.00 
G01 X32.6908 Y50.8927 F300.00 
G01 X32.6547 Y51.0744 
G01 X32.5837 Y51.2456 
G01 X32.4808 Y51.3997 
G01 X32.3497 Y51.5308 
G01 X32.1956 Y51.6337 
G01 X32.0244 Y51.7047 
G01 X31.8710 Y51.7352 
G01 X31.8710 Y51.9885 
G01 X32.0293 Y51.9634 
G01 X32.2079 Y51.9054 
G01 X32.3752 Y51.8202 
G01 X32.5270 Y51.7098 
G01 X32.6598 Y51.5770 
G01 X32.7701 Y51.4252 
G01 X32.8554 Y51.2579 
G01 X32.8753 Y51.1967 
G01 X32.8790 Y51.1852 
G01 X32.8820 Y51.1760 
G01 X32.8845 Y51.1718 
G01 X32.8914 Y51.1649 
G01 X32.8978 Y51.1575 
G01 X32.9017 Y51.1547 
G01 X32.9107 Y51.1509 
G01 X32.9194 Y51.1465 
G01 X32.9241 Y51.1454 
G01 X32.9339 Y51.1454 
G01 X32.9436 Y51.1446 
G01 X32.9484 Y51.1454 
G01 X32.9574 Y51.1491 
G01 X32.9667 Y51.1521 
G01 X32.9708 Y51.1547 
G01 X32.9777 Y51.1616 
G01 X32.9851 Y51.1679 
G01 X32.9880 Y51.1718 
G01 X32.9917 Y51.1808 
G01 X32.9962 Y51.1895 
G01 X33.1496 Y51.5620 
G01 X33.5280 Y51.9404 
G01 X34.0224 Y52.1452 
G01 X34.5576 Y52.1452 
G01 X35.0520 Y51.9404 
G01 X35.4304 Y51.5620 
G01 X35.4990 Y51.3964 
G01 X35.5081 Y51.3745 
G01 X35.5254 Y51.3568 
G01 X35.5479 Y51.3475 
G01 X35.5721 Y51.3475 
G01 X35.5946 Y51.3568 
G01 X35.6117 Y51.3740 
G01 X35.6896 Y51.5620 
G01 X36.0680 Y51.9404 
G01 X36.5624 Y52.1452 
G01 X37.0976 Y52.1452 
G01 X37.5920 Y51.9404 
G01 X37.9704 Y51.5620 
G01 X38.0390 Y51.3964 
G01 X38.0481 Y51.3745 
G01 X38.0654 Y51.3568 
G01 X38.0879 Y51.3475 
G01 X38.1121 Y51.3475 
G01 X38.1346 Y51.3568 
G01 X38.1517 Y51.3740 
G01 X38.2296 Y51.5620 
G01 X38.6080 Y51.9404 
G01 X39.1024 Y52.1452 
G01 X39.6376 Y52.1452 
G01 X40.1320 Y51.9404 
G01 X40.5104 Y51.5620 
G01 X40.5790 Y51.3964 
G01 X40.5881 Y51.3745 
G01 X40.6054 Y51.3568 
G01 X40.6279 Y51.3475 
G01 X40.6521 Y51.3475 
G01 X40.6746 Y51.3568 
G01 X40.6917 Y51.3740 
G01 X40.7696 Y51.5620 
G01 X41.1480 Y51.9404 
G01 X41.6424 Y52.1452 
G01 X42.1776 Y52.1452 
G01 X42.6720 Y51.9404 
G01 X43.0504 Y51.5620 
G01 X43.1283 Y51.3740 
G01 X43.1370 Y51.3652 
G01 X43.1454 Y51.3568 
G01 X43.1676 Y51.3476 
G01 X43.1921 Y51.3475 
G01 X43.1985 Y51.3501 
G01 X43.2146 Y51.3568 
G01 X43.2233 Y51.3655 
G01 X43.2317 Y51.3740 
G01 X43.3096 Y51.5620 
G01 X43.6880 Y51.9404 
G01 X44.1824 Y52.1452 
G01 X44.7176 Y52.1452 
G01 X45.2120 Y51.9404 
G01 X45.5904 Y51.5620 
G01 X45.7952 Y51.0676 
G01 X45.7952 Y50.5324 
G01 X45.5904 Y50.0380 
G01 X45.2120 Y49.6596 
G01 X44.7176 Y49.4548 
G01 X44.1824 Y49.4548 
G01 X43.6880 Y49.6596 
G01 X43.3096 Y50.0380 
G01 X43.2317 Y50.2260 
G01 X43.2230 Y50.2348 
G01 X43.2146 Y50.2432 
G01 X43.1989 Y50.2497 
G01 X43.1921 Y50.2525 
G01 X43.1679 Y50.2525 
G01 X43.1454 Y50.2432 
G01 X43.1367 Y50.2345 
G01 X43.1283 Y50.2260 
G01 X43.0504 Y50.0380 
G01 X42.6720 Y49.6596 
G01 X42.1776 Y49.4548 
G01 X41.6424 Y49.4548 
G01 X41.1480 Y49.6596 
G01 X40.7696 Y50.0380 
G01 X40.6917 Y50.2260 
G01 X40.6746 Y50.2432 
G01 X40.6521 Y50.2525 
G01 X40.6279 Y50.2525 
G01 X40.6054 Y50.2432 
G01 X40.5883 Y50.2260 
G01 X40.5790 Y50.2036 
G01 X40.5104 Y50.0380 
G01 X40.1320 Y49.6596 
G01 X39.6376 Y49.4548 
G01 X39.1024 Y49.4548 
G01 X38.6080 Y49.6596 
G01 X38.2296 Y50.0380 
G01 X38.1517 Y50.2260 
G01 X38.1346 Y50.2432 
G01 X38.1121 Y50.2525 
G01 X38.0879 Y50.2525 
G01 X38.0654 Y50.2432 
G01 X38.0483 Y50.2260 
G01 X38.0390 Y50.2036 
G01 X37.9704 Y50.0380 
G01 X37.5920 Y49.6596 
G01 X37.0976 Y49.4548 
G01 X36.5624 Y49.4548 
G01 X36.0680 Y49.6596 
G01 X35.6896 Y50.0380 
G01 X35.6117 Y50.2260 
G01 X35.5946 Y50.2432 
G01 X35.5721 Y50.2525 
G01 X35.5479 Y50.2525 
G01 X35.5254 Y50.2432 
G01 X35.5083 Y50.2260 
G01 X35.4990 Y50.2036 
G01 X35.4304 Y50.0380 
G01 X35.0520 Y49.6596 
G01 X34.5576 Y49.4548 
G01 X34.0224 Y49.4548 
G01 X33.5280 Y49.6596 
G01 X33.1496 Y50.0380 
G01 X32.9963 Y50.4080 
G01 X32.9917 Y50.4191 
G01 X32.9880 Y50.4282 
G01 X32.9851 Y50.4321 
G01 X32.9777 Y50.4384 
G01 X32.9708 Y50.4453 
G01 X32.9667 Y50.4479 
G01 X32.9574 Y50.4509 
G01 X32.9484 Y50.4546 
G01 X32.9436 Y50.4554 
G01 X32.9339 Y50.4546 
G01 X32.9241 Y50.4546 
G01 X32.9194 Y50.4535 
G01 X32.9107 Y50.4491 
G01 X32.9017 Y50.4453 
G01 X32.8978 Y50.4425 
G01 X32.8914 Y50.4351 
G01 X32.8845 Y50.4282 
G01 X32.8820 Y50.4240 
G01 X32.8790 Y50.4147 
G01 X32.8753 Y50.4057 
G01 X32.8554 Y50.3421 
G01 X32.7702 Y50.1748 
G01 X32.6598 Y50.0229 
G01 X32.5270 Y49.8902 
G01 X32.3752 Y49.7798 
G01 X32.2079 Y49.6946 
G01 X32.0293 Y49.6366 
G01 X31.8710 Y49.6115 
G01 X31.8710 Y49.8648 
G01 X32.0244 Y49.8953 
G01 X32.1956 Y49.9663 
G01 X32.3497 Y50.0692 
G01 X32.4808 Y50.2003 
G01 X32.5837 Y50.3544 
G01 X32.6547 Y50.5256 
G01 X32.6908 Y50.7073 
G00 Z2.5400 
G00 X45.3908 Y50.7073 
G01 Z-0.0200 F254.00 
G01 X45.3908 Y50.8927 F300.00 
G01 X45.3547 Y51.0744 
G01 X45.2837 Y51.2456 
G01 X45.1808 Y51.3997 
G01 X45.0497 Y51.5308 
G01 X44.8956 Y51.6337 
G01 X44.7244 Y51.7047 
G01 X44.5427 Y51.7408 
G01 X44.3573 Y51.7408 
G01 X44.1756 Y51.7047 
G01 X44.0044 Y51.6337 
G01 X43.8503 Y51.5308 
G01 X43.7192 Y51.3997 
G01 X43.6163 Y51.2456 
G01 X43.5453 Y51.0744 
G01 X43.5092 Y50.8927 
G01 X43.5092 Y50.7073 
G01 X43.5453 Y50.5256 
G01 X43.6163 Y50.3544 
G01 X43.7192 Y50.2003 
G01 X43.8503 Y50.0692 
G01 X44.0044 Y49.9663 
G01 X44.1756 Y49.8953 
G01 X44.3573 Y49.8592 
G01 X44.5427 Y49.8592 
G01 X44.7244 Y49.8953 
G01 X44.8956 Y49.9663 
G01 X45.0497 Y50.0692 
G01 X45.1808 Y50.2003 
G01 X45.2837 Y50.3544 
G01 X45.3547 Y50.5256 
G01 X45.3908 Y50.7073 
G00 Z2.5400 
G00 X42.8508 Y50.7073 
G01 Z-0.0200 F254.00 
G01 X42.8508 Y50.8927 F300.00 
G01 X42.8147 Y51.0744 
G01 X42.7437 Y51.2456 
G01 X42.6408 Y51.3997 
G01 X42.5097 Y51.5308 
G01 X42.3556 Y51.6337 
G01 X42.1844 Y51.7047 
G01 X42.0027 Y51.7408 
G01 X41.8173 Y51.7408 
G01 X41.6356 Y51.7047 
G01 X41.4644 Y51.6337 
G01 X41.3103 Y51.5308 
G01 X41.1792 Y51.3997 
G01 X41.0763 Y51.2456 
G01 X41.0053 Y51.0744 
G01 X40.9692 Y50.8927 
G01 X40.9692 Y50.7073 
G01 X41.0053 Y50.5256 
G01 X41.0763 Y50.3544 
G01 X41.1792 Y50.2003 
G01 X41.3103 Y50.0692 
G01 X41.4644 Y49.9663 
G01 X41.6356 Y49.8953 
G01 X41.8173 Y49.8592 
G01 X42.0027 Y49.8592 
G01 X42.1844 Y49.8953 
G01 X42.3556 Y49.9663 
G01 X42.5097 Y50.0692 
G01 X42.6408 Y50.2003 
G01 X42.7437 Y50.3544 
G01 X42.8147 Y50.5256 
G01 X42.8508 Y50.7073 
G00 Z2.5400 
G00 X35.2308 Y50.7073 
G01 Z-0.0200 F254.00 
G01 X35.2308 Y50.8927 F300.00 
G01 X35.1947 Y51.0744 
G01 X35.1237 Y51.2456 
G01 X35.0208 Y51.3997 
G01 X34.8897 Y51.5308 
G01 X34.7356 Y51.6337 
G01 X34.5644 Y51.7047 
G01 X34.3827 Y51.7408 
G01 X34.1973 Y51.7408 
G01 X34.0156 Y51.7047 
G01 X33.8444 Y51.6337 
G01 X33.6903 Y51.5308 
G01 X33.5592 Y51.3997 
G01 X33.4563 Y51.2456 
G01 X33.3853 Y51.0744 
G01 X33.3492 Y50.8927 
G01 X33.3492 Y50.7073 
G01 X33.3853 Y50.5256 
G01 X33.4563 Y50.3544 
G01 X33.5592 Y50.2003 
G01 X33.6903 Y50.0692 
G01 X33.8444 Y49.9663 
G01 X34.0156 Y49.8953 
G01 X34.1973 Y49.8592 
G01 X34.3827 Y49.8592 
G01 X34.5644 Y49.8953 
G01 X34.7356 Y49.9663 
G01 X34.8897 Y50.0692 
G01 X35.0208 Y50.2003 
G01 X35.1237 Y50.3544 
G01 X35.1947 Y50.5256 
G01 X35.2308 Y50.7073 
G00 Z2.5400 
G00 X37.7708 Y50.7073 
G01 Z-0.0200 F254.00 
G01 X37.7708 Y50.8927 F300.00 
G01 X37.7347 Y51.0744 
G01 X37.6637 Y51.2456 
G01 X37.5608 Y51.3997 
G01 X37.4297 Y51.5308 
G01 X37.2756 Y51.6337 
G01 X37.1044 Y51.7047 
G01 X36.9227 Y51.7408 
G01 X36.7373 Y51.7408 
G01 X36.5556 Y51.7047 
G01 X36.3844 Y51.6337 
G01 X36.2303 Y51.5308 
G01 X36.0992 Y51.3997 
G01 X35.9963 Y51.2456 
G01 X35.9253 Y51.0744 
G01 X35.8892 Y50.8927 
G01 X35.8892 Y50.7073 
G01 X35.9253 Y50.5256 
G01 X35.9963 Y50.3544 
G01 X36.0992 Y50.2003 
G01 X36.2303 Y50.0692 
G01 X36.3844 Y49.9663 
G01 X36.5556 Y49.8953 
G01 X36.7373 Y49.8592 
G01 X36.9227 Y49.8592 
G01 X37.1044 Y49.8953 
G01 X37.2756 Y49.9663 
G01 X37.4297 Y50.0692 
G01 X37.5608 Y50.2003 
G01 X37.6637 Y50.3544 
G01 X37.7347 Y50.5256 
G01 X37.7708 Y50.7073 
G00 Z2.5400 
G00 X40.3108 Y50.7073 
G01 Z-0.0200 F254.00 
G01 X40.3108 Y50.8927 F300.00 
G01 X40.2747 Y51.0744 
G01 X40.2037 Y51.2456 
G01 X40.1008 Y51.3997 
G01 X39.9697 Y51.5308 
G01 X39.8156 Y51.6337 
G01 X39.6444 Y51.7047 
G01 X39.4627 Y51.7408 
G01 X39.2773 Y51.7408 
G01 X39.0956 Y51.7047 
G01 X38.9244 Y51.6337 
G01 X38.7703 Y51.5308 
G01 X38.6392 Y51.3997 
G01 X38.5363 Y51.2456 
G01 X38.4653 Y51.0744 
G01 X38.4292 Y50.8927 
G01 X38.4292 Y50.7073 
G01 X38.4653 Y50.5256 
G01 X38.5363 Y50.3544 
G01 X38.6392 Y50.2003 
G01 X38.7703 Y50.0692 
G01 X38.9244 Y49.9663 
G01 X39.0956 Y49.8953 
G01 X39.2773 Y49.8592 
G01 X39.4627 Y49.8592 
G01 X39.6444 Y49.8953 
G01 X39.8156 Y49.9663 
G01 X39.9697 Y50.0692 
G01 X40.1008 Y50.2003 
G01 X40.2037 Y50.3544 
G01 X40.2747 Y50.5256 
G01 X40.3108 Y50.7073 
G00 Z2.5400 
G00 X31.4756 Y51.7047 
G01 Z-0.0200 F254.00 
G01 X31.3044 Y51.6337 F300.00 
G01 X31.1503 Y51.5308 
G01 X31.0192 Y51.3997 
G01 X30.9163 Y51.2456 
G01 X30.8453 Y51.0744 
G01 X30.8148 Y50.9210 
G01 X30.5615 Y50.9210 
G01 X30.5866 Y51.0793 
G01 X30.6446 Y51.2579 
G01 X30.7298 Y51.4252 
G01 X30.8402 Y51.5770 
G01 X30.9729 Y51.7098 
G01 X31.1248 Y51.8202 
G01 X31.2921 Y51.9054 
G01 X31.4707 Y51.9634 
G01 X31.6290 Y51.9885 
G01 X31.6290 Y51.7352 
G01 X31.4756 Y51.7047 
G00 Z2.5400 
G00 X28.9307 Y49.6366 
G01 Z-0.0200 F254.00 
G01 X28.7521 Y49.6946 F300.00 
G01 X28.5848 Y49.7798 
G01 X28.4329 Y49.8902 
G01 X28.3002 Y50.0229 
G01 X28.1898 Y50.1748 
G01 X28.1046 Y50.3421 
G01 X28.0847 Y50.4033 
G01 X28.0810 Y50.4147 
G01 X28.0780 Y50.4240 
G01 X28.0754 Y50.4282 
G01 X28.0686 Y50.4351 
G01 X28.0622 Y50.4425 
G01 X28.0583 Y50.4453 
G01 X28.0493 Y50.4491 
G01 X28.0406 Y50.4535 
G01 X28.0359 Y50.4546 
G01 X28.0261 Y50.4546 
G01 X28.0164 Y50.4554 
G01 X28.0116 Y50.4546 
G01 X28.0026 Y50.4509 
G01 X27.9933 Y50.4479 
G01 X27.9892 Y50.4453 
G01 X27.9823 Y50.4384 
G01 X27.9749 Y50.4321 
G01 X27.9720 Y50.4282 
G01 X27.9683 Y50.4192 
G01 X27.9638 Y50.4105 
G01 X27.8104 Y50.0380 
G01 X27.4320 Y49.6596 
G01 X26.9376 Y49.4548 
G01 X26.4024 Y49.4548 
G01 X25.9080 Y49.6596 
G01 X25.5296 Y50.0380 
G01 X25.3248 Y50.5324 
G01 X25.3248 Y51.0676 
G01 X25.5296 Y51.5620 
G01 X25.9080 Y51.9404 
G01 X26.4024 Y52.1452 
G01 X26.9376 Y52.1452 
G01 X27.4320 Y51.9404 
G01 X27.8104 Y51.5620 
G01 X27.9637 Y51.1920 
G01 X27.9683 Y51.1808 
G01 X27.9720 Y51.1718 
G01 X27.9749 Y51.1679 
G01 X27.9823 Y51.1616 
G01 X27.9892 Y51.1547 
G01 X27.9933 Y51.1521 
G01 X28.0026 Y51.1491 
G01 X28.0116 Y51.1454 
G01 X28.0164 Y51.1446 
G01 X28.0261 Y51.1454 
G01 X28.0359 Y51.1454 
G01 X28.0406 Y51.1465 
G01 X28.0493 Y51.1509 
G01 X28.0583 Y51.1547 
G01 X28.0622 Y51.1575 
G01 X28.0686 Y51.1649 
G01 X28.0754 Y51.1718 
G01 X28.0780 Y51.1760 
G01 X28.0810 Y51.1852 
G01 X28.0847 Y51.1943 
G01 X28.1046 Y51.2579 
G01 X28.1898 Y51.4252 
G01 X28.3002 Y51.5770 
G01 X28.4329 Y51.7098 
G01 X28.5848 Y51.8202 
G01 X28.7521 Y51.9054 
G01 X28.9307 Y51.9634 
G01 X29.0890 Y51.9885 
G01 X29.0890 Y51.7352 
G01 X28.9356 Y51.7047 
G01 X28.7644 Y51.6337 
G01 X28.6103 Y51.5308 
G01 X28.4792 Y51.3997 
G01 X28.3763 Y51.2456 
G01 X28.3053 Y51.0744 
G01 X28.2692 Y50.8927 
G01 X28.2692 Y50.7073 
G01 X28.3053 Y50.5256 
G01 X28.3763 Y50.3544 
G01 X28.4792 Y50.2003 
G01 X28.6103 Y50.0692 
G01 X28.7644 Y49.9663 
G01 X28.9356 Y49.8953 
G01 X29.0890 Y49.8648 
G01 X29.0890 Y49.6115 
G01 X28.9307 Y49.6366 
G00 Z2.5400 
G00 X27.6108 Y50.7073 
G01 Z-0.0200 F254.00 
G01 X27.6108 Y50.8927 F300.00 
G01 X27.5747 Y51.0744 
G01 X27.5037 Y51.2456 
G01 X27.4008 Y51.3997 
G01 X27.2697 Y51.5308 
G01 X27.1156 Y51.6337 
G01 X26.9444 Y51.7047 
G01 X26.7627 Y51.7408 
G01 X26.5773 Y51.7408 
G01 X26.3956 Y51.7047 
G01 X26.2244 Y51.6337 
G01 X26.0703 Y51.5308 
G01 X25.9392 Y51.3997 
G01 X25.8363 Y51.2456 
G01 X25.7653 Y51.0744 
G01 X25.7292 Y50.8927 
G01 X25.7292 Y50.7073 
G01 X25.7653 Y50.5256 
G01 X25.8363 Y50.3544 
G01 X25.9392 Y50.2003 
G01 X26.0703 Y50.0692 
G01 X26.2244 Y49.9663 
G01 X26.3956 Y49.8953 
G01 X26.5773 Y49.8592 
G01 X26.7627 Y49.8592 
G01 X26.9444 Y49.8953 
G01 X27.1156 Y49.9663 
G01 X27.2697 Y50.0692 
G01 X27.4008 Y50.2003 
G01 X27.5037 Y50.3544 
G01 X27.5747 Y50.5256 
G01 X27.6108 Y50.7073 
G00 Z2.5400 
G00 X30.1147 Y51.0744 
G01 Z-0.0200 F254.00 
G01 X30.0437 Y51.2456 F300.00 
G01 X29.9408 Y51.3997 
G01 X29.8097 Y51.5308 
G01 X29.6556 Y51.6337 
G01 X29.4844 Y51.7047 
G01 X29.3310 Y51.7352 
G01 X29.3310 Y51.9885 
G01 X29.4893 Y51.9634 
G01 X29.6679 Y51.9054 
G01 X29.8352 Y51.8202 
G01 X29.9870 Y51.7098 
G01 X30.1198 Y51.5770 
G01 X30.2302 Y51.4252 
G01 X30.3154 Y51.2579 
G01 X30.3734 Y51.0793 
G01 X30.3985 Y50.9210 
G01 X30.1452 Y50.9210 
G01 X30.1147 Y51.0744 
G00 Z2.5400 
G00 X30.3734 Y50.5207 
G01 Z-0.0200 F254.00 
G01 X30.3154 Y50.3421 F300.00 
G01 X30.2302 Y50.1748 
G01 X30.1198 Y50.0229 
G01 X29.9870 Y49.8902 
G01 X29.8352 Y49.7798 
G01 X29.6679 Y49.6946 
G01 X29.4893 Y49.6366 
G01 X29.3310 Y49.6115 
G01 X29.3310 Y49.8648 
G01 X29.4844 Y49.8953 
G01 X29.6556 Y49.9663 
G01 X29.8097 Y50.0692 
G01 X29.9408 Y50.2003 
G01 X30.0437 Y50.3544 
G01 X30.1147 Y50.5256 
G01 X30.1452 Y50.6790 
G01 X30.3985 Y50.6790 
G01 X30.3734 Y50.5207 
G00 Z2.5400 
G00 X46.9148 Y2.4473 
G01 Z-0.0200 F254.00 
G01 X46.9148 Y2.6327 F300.00 
G01 X46.8787 Y2.8144 
G01 X46.8077 Y2.9856 
G01 X46.7048 Y3.1397 
G01 X46.5737 Y3.2708 
G01 X46.4196 Y3.3737 
G01 X46.2484 Y3.4447 
G01 X46.0950 Y3.4752 
G01 X46.0950 Y3.7285 
G01 X46.2533 Y3.7034 
G01 X46.4319 Y3.6454 
G01 X46.5992 Y3.5602 
G01 X46.7510 Y3.4498 
G01 X46.8838 Y3.3170 
G01 X46.9942 Y3.1652 
G01 X47.0794 Y2.9979 
G01 X47.0993 Y2.9367 
G01 X47.1030 Y2.9253 
G01 X47.1060 Y2.9160 
G01 X47.1085 Y2.9118 
G01 X47.1154 Y2.9049 
G01 X47.1218 Y2.8975 
G01 X47.1257 Y2.8947 
G01 X47.1347 Y2.8909 
G01 X47.1434 Y2.8865 
G01 X47.1481 Y2.8854 
G01 X47.1579 Y2.8854 
G01 X47.1676 Y2.8846 
G01 X47.1724 Y2.8854 
G01 X47.1814 Y2.8891 
G01 X47.1907 Y2.8921 
G01 X47.1948 Y2.8947 
G01 X47.2017 Y2.9015 
G01 X47.2091 Y2.9079 
G01 X47.2120 Y2.9118 
G01 X47.2157 Y2.9208 
G01 X47.2202 Y2.9295 
G01 X47.3736 Y3.3020 
G01 X47.7520 Y3.6804 
G01 X48.2464 Y3.8852 
G01 X48.7816 Y3.8852 
G01 X49.2760 Y3.6804 
G01 X49.6544 Y3.3020 
G01 X49.7230 Y3.1364 
G01 X49.7323 Y3.1140 
G01 X49.7494 Y3.0968 
G01 X49.7719 Y3.0875 
G01 X49.7961 Y3.0875 
G01 X49.8186 Y3.0968 
G01 X49.8357 Y3.1140 
G01 X49.9136 Y3.3020 
G01 X50.2920 Y3.6804 
G01 X50.7864 Y3.8852 
G01 X51.3216 Y3.8852 
G01 X51.8160 Y3.6804 
G01 X52.1944 Y3.3020 
G01 X52.2723 Y3.1139 
G01 X52.2810 Y3.1052 
G01 X52.2894 Y3.0968 
G01 X52.3116 Y3.0876 
G01 X52.3361 Y3.0875 
G01 X52.3425 Y3.0901 
G01 X52.3586 Y3.0968 
G01 X52.3673 Y3.1055 
G01 X52.3757 Y3.1139 
G01 X52.4536 Y3.3020 
G01 X52.8320 Y3.6804 
G01 X53.3264 Y3.8852 
G01 X53.8616 Y3.8852 
G01 X54.3560 Y3.6804 
G01 X54.7344 Y3.3020 
G01 X54.9392 Y2.8076 
G01 X54.9392 Y2.2724 
G01 X54.7344 Y1.7780 
G01 X54.3560 Y1.3996 
G01 X53.8616 Y1.1948 
G01 X53.3264 Y1.1948 
G01 X52.8320 Y1.3996 
G01 X52.4536 Y1.7780 
G01 X52.3757 Y1.9660 
G01 X52.3670 Y1.9748 
G01 X52.3586 Y1.9832 
G01 X52.3429 Y1.9897 
G01 X52.3361 Y1.9925 
G01 X52.3119 Y1.9925 
G01 X52.2894 Y1.9832 
G01 X52.2807 Y1.9745 
G01 X52.2723 Y1.9660 
G01 X52.1944 Y1.7780 
G01 X51.8160 Y1.3996 
G01 X51.3216 Y1.1948 
G01 X50.7864 Y1.1948 
G01 X50.2920 Y1.3996 
G01 X49.9136 Y1.7780 
G01 X49.8357 Y1.9660 
G01 X49.8186 Y1.9832 
G01 X49.7961 Y1.9925 
G01 X49.7719 Y1.9925 
G01 X49.7494 Y1.9832 
G01 X49.7323 Y1.9660 
G01 X49.7230 Y1.9436 
G01 X49.6544 Y1.7780 
G01 X49.2760 Y1.3996 
G01 X48.7816 Y1.1948 
G01 X48.2464 Y1.1948 
G01 X47.7520 Y1.3996 
G01 X47.3736 Y1.7780 
G01 X47.2203 Y2.1480 
G01 X47.2157 Y2.1592 
G01 X47.2120 Y2.1682 
G01 X47.2091 Y2.1721 
G01 X47.2017 Y2.1785 
G01 X47.1948 Y2.1853 
G01 X47.1907 Y2.1879 
G01 X47.1814 Y2.1909 
G01 X47.1724 Y2.1946 
G01 X47.1676 Y2.1954 
G01 X47.1579 Y2.1946 
G01 X47.1481 Y2.1946 
G01 X47.1434 Y2.1935 
G01 X47.1347 Y2.1891 
G01 X47.1257 Y2.1853 
G01 X47.1218 Y2.1825 
G01 X47.1154 Y2.1750 
G01 X47.1085 Y2.1682 
G01 X47.1060 Y2.1640 
G01 X47.1030 Y2.1547 
G01 X47.0993 Y2.1457 
G01 X47.0794 Y2.0821 
G01 X46.9942 Y1.9148 
G01 X46.8838 Y1.7629 
G01 X46.7510 Y1.6302 
G01 X46.5992 Y1.5198 
G01 X46.4319 Y1.4346 
G01 X46.2533 Y1.3766 
G01 X46.0950 Y1.3515 
G01 X46.0950 Y1.6048 
G01 X46.2484 Y1.6353 
G01 X46.4196 Y1.7063 
G01 X46.5737 Y1.8092 
G01 X46.7048 Y1.9403 
G01 X46.8077 Y2.0944 
G01 X46.8787 Y2.2656 
G01 X46.9148 Y2.4473 
G00 Z2.5400 
G00 X54.5348 Y2.4473 
G01 Z-0.0200 F254.00 
G01 X54.5348 Y2.6327 F300.00 
G01 X54.4987 Y2.8144 
G01 X54.4277 Y2.9856 
G01 X54.3248 Y3.1397 
G01 X54.1937 Y3.2708 
G01 X54.0396 Y3.3737 
G01 X53.8684 Y3.4447 
G01 X53.6867 Y3.4808 
G01 X53.5013 Y3.4808 
G01 X53.3196 Y3.4447 
G01 X53.1484 Y3.3737 
G01 X52.9943 Y3.2708 
G01 X52.8632 Y3.1397 
G01 X52.7603 Y2.9856 
G01 X52.6893 Y2.8144 
G01 X52.6532 Y2.6327 
G01 X52.6532 Y2.4473 
G01 X52.6893 Y2.2656 
G01 X52.7603 Y2.0944 
G01 X52.8632 Y1.9403 
G01 X52.9943 Y1.8092 
G01 X53.1484 Y1.7063 
G01 X53.3196 Y1.6353 
G01 X53.5013 Y1.5992 
G01 X53.6867 Y1.5992 
G01 X53.8684 Y1.6353 
G01 X54.0396 Y1.7063 
G01 X54.1937 Y1.8092 
G01 X54.3248 Y1.9403 
G01 X54.4277 Y2.0944 
G01 X54.4987 Y2.2656 
G01 X54.5348 Y2.4473 
G00 Z2.5400 
G00 X51.9948 Y2.4473 
G01 Z-0.0200 F254.00 
G01 X51.9948 Y2.6327 F300.00 
G01 X51.9587 Y2.8144 
G01 X51.8877 Y2.9856 
G01 X51.7848 Y3.1397 
G01 X51.6537 Y3.2708 
G01 X51.4996 Y3.3737 
G01 X51.3284 Y3.4447 
G01 X51.1467 Y3.4808 
G01 X50.9613 Y3.4808 
G01 X50.7796 Y3.4447 
G01 X50.6084 Y3.3737 
G01 X50.4543 Y3.2708 
G01 X50.3232 Y3.1397 
G01 X50.2203 Y2.9856 
G01 X50.1493 Y2.8144 
G01 X50.1132 Y2.6327 
G01 X50.1132 Y2.4473 
G01 X50.1493 Y2.2656 
G01 X50.2203 Y2.0944 
G01 X50.3232 Y1.9403 
G01 X50.4543 Y1.8092 
G01 X50.6084 Y1.7063 
G01 X50.7796 Y1.6353 
G01 X50.9613 Y1.5992 
G01 X51.1467 Y1.5992 
G01 X51.3284 Y1.6353 
G01 X51.4996 Y1.7063 
G01 X51.6537 Y1.8092 
G01 X51.7848 Y1.9403 
G01 X51.8877 Y2.0944 
G01 X51.9587 Y2.2656 
G01 X51.9948 Y2.4473 
G00 Z2.5400 
G00 X49.4548 Y2.4473 
G01 Z-0.0200 F254.00 
G01 X49.4548 Y2.6327 F300.00 
G01 X49.4187 Y2.8144 
G01 X49.3477 Y2.9856 
G01 X49.2448 Y3.1397 
G01 X49.1137 Y3.2708 
G01 X48.9596 Y3.3737 
G01 X48.7884 Y3.4447 
G01 X48.6067 Y3.4808 
G01 X48.4213 Y3.4808 
G01 X48.2396 Y3.4447 
G01 X48.0684 Y3.3737 
G01 X47.9143 Y3.2708 
G01 X47.7832 Y3.1397 
G01 X47.6803 Y2.9856 
G01 X47.6093 Y2.8144 
G01 X47.5732 Y2.6327 
G01 X47.5732 Y2.4473 
G01 X47.6093 Y2.2656 
G01 X47.6803 Y2.0944 
G01 X47.7832 Y1.9403 
G01 X47.9143 Y1.8092 
G01 X48.0684 Y1.7063 
G01 X48.2396 Y1.6353 
G01 X48.4213 Y1.5992 
G01 X48.6067 Y1.5992 
G01 X48.7884 Y1.6353 
G01 X48.9596 Y1.7063 
G01 X49.1137 Y1.8092 
G01 X49.2448 Y1.9403 
G01 X49.3477 Y2.0944 
G01 X49.4187 Y2.2656 
G01 X49.4548 Y2.4473 
G00 Z2.5400 
G00 X45.6947 Y1.3766 
G01 Z-0.0200 F254.00 
G01 X45.5161 Y1.4346 F300.00 
G01 X45.3488 Y1.5198 
G01 X45.1969 Y1.6302 
G01 X45.0642 Y1.7629 
G01 X44.9538 Y1.9148 
G01 X44.8686 Y2.0821 
G01 X44.8487 Y2.1433 
G01 X44.8450 Y2.1547 
G01 X44.8420 Y2.1640 
G01 X44.8394 Y2.1682 
G01 X44.8326 Y2.1750 
G01 X44.8262 Y2.1825 
G01 X44.8223 Y2.1853 
G01 X44.8133 Y2.1891 
G01 X44.8046 Y2.1935 
G01 X44.7999 Y2.1946 
G01 X44.7901 Y2.1946 
G01 X44.7804 Y2.1954 
G01 X44.7756 Y2.1946 
G01 X44.7666 Y2.1909 
G01 X44.7573 Y2.1879 
G01 X44.7532 Y2.1853 
G01 X44.7463 Y2.1784 
G01 X44.7389 Y2.1721 
G01 X44.7360 Y2.1682 
G01 X44.7323 Y2.1592 
G01 X44.7278 Y2.1505 
G01 X44.5744 Y1.7780 
G01 X44.1960 Y1.3996 
G01 X43.7016 Y1.1948 
G01 X43.1664 Y1.1948 
G01 X42.6720 Y1.3996 
G01 X42.2936 Y1.7780 
G01 X42.2250 Y1.9436 
G01 X42.2159 Y1.9655 
G01 X42.1986 Y1.9832 
G01 X42.1761 Y1.9925 
G01 X42.1519 Y1.9925 
G01 X42.1294 Y1.9832 
G01 X42.1123 Y1.9660 
G01 X42.0344 Y1.7780 
G01 X41.6560 Y1.3996 
G01 X41.1616 Y1.1948 
G01 X40.6264 Y1.1948 
G01 X40.1320 Y1.3996 
G01 X39.7536 Y1.7780 
G01 X39.6850 Y1.9436 
G01 X39.6759 Y1.9655 
G01 X39.6586 Y1.9832 
G01 X39.6361 Y1.9925 
G01 X39.6119 Y1.9925 
G01 X39.5894 Y1.9832 
G01 X39.5723 Y1.9660 
G01 X39.4944 Y1.7780 
G01 X39.1160 Y1.3996 
G01 X38.6216 Y1.1948 
G01 X38.0864 Y1.1948 
G01 X37.5920 Y1.3996 
G01 X37.2136 Y1.7780 
G01 X37.1450 Y1.9436 
G01 X37.1359 Y1.9655 
G01 X37.1186 Y1.9832 
G01 X37.0961 Y1.9925 
G01 X37.0719 Y1.9925 
G01 X37.0494 Y1.9832 
G01 X37.0323 Y1.9660 
G01 X36.9544 Y1.7780 
G01 X36.5760 Y1.3996 
G01 X36.0816 Y1.1948 
G01 X35.5464 Y1.1948 
G01 X35.0520 Y1.3996 
G01 X34.6736 Y1.7780 
G01 X34.6050 Y1.9436 
G01 X34.5959 Y1.9655 
G01 X34.5786 Y1.9832 
G01 X34.5561 Y1.9925 
G01 X34.5319 Y1.9925 
G01 X34.5094 Y1.9832 
G01 X34.4923 Y1.9660 
G01 X34.4144 Y1.7780 
G01 X34.0360 Y1.3996 
G01 X33.5416 Y1.1948 
G01 X33.0064 Y1.1948 
G01 X32.5120 Y1.3996 
G01 X32.1336 Y1.7780 
G01 X32.0650 Y1.9436 
G01 X32.0559 Y1.9655 
G01 X32.0386 Y1.9832 
G01 X32.0161 Y1.9925 
G01 X31.9919 Y1.9925 
G01 X31.9694 Y1.9832 
G01 X31.9523 Y1.9660 
G01 X31.8744 Y1.7780 
G01 X31.4960 Y1.3996 
G01 X31.0016 Y1.1948 
G01 X30.4664 Y1.1948 
G01 X29.9720 Y1.3996 
G01 X29.5936 Y1.7780 
G01 X29.3888 Y2.2724 
G01 X29.3888 Y2.8076 
G01 X29.5936 Y3.3020 
G01 X29.9720 Y3.6804 
G01 X30.4664 Y3.8852 
G01 X31.0016 Y3.8852 
G01 X31.4960 Y3.6804 
G01 X31.8744 Y3.3020 
G01 X31.9523 Y3.1140 
G01 X31.9694 Y3.0968 
G01 X31.9919 Y3.0875 
G01 X32.0161 Y3.0875 
G01 X32.0386 Y3.0968 
G01 X32.0557 Y3.1140 
G01 X32.0650 Y3.1364 
G01 X32.1336 Y3.3020 
G01 X32.5120 Y3.6804 
G01 X33.0064 Y3.8852 
G01 X33.5416 Y3.8852 
G01 X34.0360 Y3.6804 
G01 X34.4144 Y3.3020 
G01 X34.4923 Y3.1140 
G01 X34.5094 Y3.0968 
G01 X34.5319 Y3.0875 
G01 X34.5561 Y3.0875 
G01 X34.5786 Y3.0968 
G01 X34.5957 Y3.1140 
G01 X34.6050 Y3.1364 
G01 X34.6736 Y3.3020 
G01 X35.0520 Y3.6804 
G01 X35.5464 Y3.8852 
G01 X36.0816 Y3.8852 
G01 X36.5760 Y3.6804 
G01 X36.9544 Y3.3020 
G01 X37.0323 Y3.1140 
G01 X37.0494 Y3.0968 
G01 X37.0719 Y3.0875 
G01 X37.0961 Y3.0875 
G01 X37.1186 Y3.0968 
G01 X37.1357 Y3.1140 
G01 X37.1450 Y3.1364 
G01 X37.2136 Y3.3020 
G01 X37.5920 Y3.6804 
G01 X38.0864 Y3.8852 
G01 X38.6216 Y3.8852 
G01 X39.1160 Y3.6804 
G01 X39.4944 Y3.3020 
G01 X39.5723 Y3.1140 
G01 X39.5894 Y3.0968 
G01 X39.6119 Y3.0875 
G01 X39.6361 Y3.0875 
G01 X39.6586 Y3.0968 
G01 X39.6757 Y3.1140 
G01 X39.6850 Y3.1364 
G01 X39.7536 Y3.3020 
G01 X40.1320 Y3.6804 
G01 X40.6264 Y3.8852 
G01 X41.1616 Y3.8852 
G01 X41.6560 Y3.6804 
G01 X42.0344 Y3.3020 
G01 X42.1123 Y3.1140 
G01 X42.1294 Y3.0968 
G01 X42.1519 Y3.0875 
G01 X42.1761 Y3.0875 
G01 X42.1986 Y3.0968 
G01 X42.2157 Y3.1140 
G01 X42.2250 Y3.1364 
G01 X42.2936 Y3.3020 
G01 X42.6720 Y3.6804 
G01 X43.1664 Y3.8852 
G01 X43.7016 Y3.8852 
G01 X44.1960 Y3.6804 
G01 X44.5744 Y3.3020 
G01 X44.7277 Y2.9320 
G01 X44.7323 Y2.9208 
G01 X44.7360 Y2.9118 
G01 X44.7389 Y2.9079 
G01 X44.7463 Y2.9015 
G01 X44.7532 Y2.8947 
G01 X44.7573 Y2.8921 
G01 X44.7666 Y2.8891 
G01 X44.7756 Y2.8854 
G01 X44.7804 Y2.8846 
G01 X44.7901 Y2.8854 
G01 X44.7999 Y2.8854 
G01 X44.8046 Y2.8865 
G01 X44.8133 Y2.8909 
G01 X44.8223 Y2.8947 
G01 X44.8262 Y2.8975 
G01 X44.8326 Y2.9049 
G01 X44.8394 Y2.9118 
G01 X44.8420 Y2.9160 
G01 X44.8450 Y2.9253 
G01 X44.8487 Y2.9343 
G01 X44.8686 Y2.9979 
G01 X44.9538 Y3.1652 
G01 X45.0642 Y3.3170 
G01 X45.1969 Y3.4498 
G01 X45.3488 Y3.5602 
G01 X45.5161 Y3.6454 
G01 X45.6947 Y3.7034 
G01 X45.8530 Y3.7285 
G01 X45.8530 Y3.4752 
G01 X45.6996 Y3.4447 
G01 X45.5284 Y3.3737 
G01 X45.3743 Y3.2708 
G01 X45.2432 Y3.1397 
G01 X45.1403 Y2.9856 
G01 X45.0693 Y2.8144 
G01 X45.0332 Y2.6327 
G01 X45.0332 Y2.4473 
G01 X45.0693 Y2.2656 
G01 X45.1403 Y2.0944 
G01 X45.2432 Y1.9403 
G01 X45.3743 Y1.8092 
G01 X45.5284 Y1.7063 
G01 X45.6996 Y1.6353 
G01 X45.8530 Y1.6048 
G01 X45.8530 Y1.3515 
G01 X45.6947 Y1.3766 
G00 Z2.5400 
G00 X44.3748 Y2.4473 
G01 Z-0.0200 F254.00 
G01 X44.3748 Y2.6327 F300.00 
G01 X44.3387 Y2.8144 
G01 X44.2677 Y2.9856 
G01 X44.1648 Y3.1397 
G01 X44.0337 Y3.2708 
G01 X43.8796 Y3.3737 
G01 X43.7084 Y3.4447 
G01 X43.5267 Y3.4808 
G01 X43.3413 Y3.4808 
G01 X43.1596 Y3.4447 
G01 X42.9884 Y3.3737 
G01 X42.8343 Y3.2708 
G01 X42.7032 Y3.1397 
G01 X42.6003 Y2.9856 
G01 X42.5293 Y2.8144 
G01 X42.4932 Y2.6327 
G01 X42.4932 Y2.4473 
G01 X42.5293 Y2.2656 
G01 X42.6003 Y2.0944 
G01 X42.7032 Y1.9403 
G01 X42.8343 Y1.8092 
G01 X42.9884 Y1.7063 
G01 X43.1596 Y1.6353 
G01 X43.3413 Y1.5992 
G01 X43.5267 Y1.5992 
G01 X43.7084 Y1.6353 
G01 X43.8796 Y1.7063 
G01 X44.0337 Y1.8092 
G01 X44.1648 Y1.9403 
G01 X44.2677 Y2.0944 
G01 X44.3387 Y2.2656 
G01 X44.3748 Y2.4473 
G00 Z2.5400 
G00 X41.8348 Y2.4473 
G01 Z-0.0200 F254.00 
G01 X41.8348 Y2.6327 F300.00 
G01 X41.7987 Y2.8144 
G01 X41.7277 Y2.9856 
G01 X41.6248 Y3.1397 
G01 X41.4937 Y3.2708 
G01 X41.3396 Y3.3737 
G01 X41.1684 Y3.4447 
G01 X40.9867 Y3.4808 
G01 X40.8013 Y3.4808 
G01 X40.6196 Y3.4447 
G01 X40.4484 Y3.3737 
G01 X40.2943 Y3.2708 
G01 X40.1632 Y3.1397 
G01 X40.0603 Y2.9856 
G01 X39.9893 Y2.8144 
G01 X39.9532 Y2.6327 
G01 X39.9532 Y2.4473 
G01 X39.9893 Y2.2656 
G01 X40.0603 Y2.0944 
G01 X40.1632 Y1.9403 
G01 X40.2943 Y1.8092 
G01 X40.4484 Y1.7063 
G01 X40.6196 Y1.6353 
G01 X40.8013 Y1.5992 
G01 X40.9867 Y1.5992 
G01 X41.1684 Y1.6353 
G01 X41.3396 Y1.7063 
G01 X41.4937 Y1.8092 
G01 X41.6248 Y1.9403 
G01 X41.7277 Y2.0944 
G01 X41.7987 Y2.2656 
G01 X41.8348 Y2.4473 
G00 Z2.5400 
G00 X39.2948 Y2.4473 
G01 Z-0.0200 F254.00 
G01 X39.2948 Y2.6327 F300.00 
G01 X39.2587 Y2.8144 
G01 X39.1877 Y2.9856 
G01 X39.0848 Y3.1397 
G01 X38.9537 Y3.2708 
G01 X38.7996 Y3.3737 
G01 X38.6284 Y3.4447 
G01 X38.4467 Y3.4808 
G01 X38.2613 Y3.4808 
G01 X38.0796 Y3.4447 
G01 X37.9084 Y3.3737 
G01 X37.7543 Y3.2708 
G01 X37.6232 Y3.1397 
G01 X37.5203 Y2.9856 
G01 X37.4493 Y2.8144 
G01 X37.4132 Y2.6327 
G01 X37.4132 Y2.4473 
G01 X37.4493 Y2.2656 
G01 X37.5203 Y2.0944 
G01 X37.6232 Y1.9403 
G01 X37.7543 Y1.8092 
G01 X37.9084 Y1.7063 
G01 X38.0796 Y1.6353 
G01 X38.2613 Y1.5992 
G01 X38.4467 Y1.5992 
G01 X38.6284 Y1.6353 
G01 X38.7996 Y1.7063 
G01 X38.9537 Y1.8092 
G01 X39.0848 Y1.9403 
G01 X39.1877 Y2.0944 
G01 X39.2587 Y2.2656 
G01 X39.2948 Y2.4473 
G00 Z2.5400 
G00 X36.7548 Y2.4473 
G01 Z-0.0200 F254.00 
G01 X36.7548 Y2.6327 F300.00 
G01 X36.7187 Y2.8144 
G01 X36.6477 Y2.9856 
G01 X36.5448 Y3.1397 
G01 X36.4137 Y3.2708 
G01 X36.2596 Y3.3737 
G01 X36.0884 Y3.4447 
G01 X35.9067 Y3.4808 
G01 X35.7213 Y3.4808 
G01 X35.5396 Y3.4447 
G01 X35.3684 Y3.3737 
G01 X35.2143 Y3.2708 
G01 X35.0832 Y3.1397 
G01 X34.9803 Y2.9856 
G01 X34.9093 Y2.8144 
G01 X34.8732 Y2.6327 
G01 X34.8732 Y2.4473 
G01 X34.9093 Y2.2656 
G01 X34.9803 Y2.0944 
G01 X35.0832 Y1.9403 
G01 X35.2143 Y1.8092 
G01 X35.3684 Y1.7063 
G01 X35.5396 Y1.6353 
G01 X35.7213 Y1.5992 
G01 X35.9067 Y1.5992 
G01 X36.0884 Y1.6353 
G01 X36.2596 Y1.7063 
G01 X36.4137 Y1.8092 
G01 X36.5448 Y1.9403 
G01 X36.6477 Y2.0944 
G01 X36.7187 Y2.2656 
G01 X36.7548 Y2.4473 
G00 Z2.5400 
G00 X34.2148 Y2.4473 
G01 Z-0.0200 F254.00 
G01 X34.2148 Y2.6327 F300.00 
G01 X34.1787 Y2.8144 
G01 X34.1077 Y2.9856 
G01 X34.0048 Y3.1397 
G01 X33.8737 Y3.2708 
G01 X33.7196 Y3.3737 
G01 X33.5484 Y3.4447 
G01 X33.3667 Y3.4808 
G01 X33.1813 Y3.4808 
G01 X32.9996 Y3.4447 
G01 X32.8284 Y3.3737 
G01 X32.6743 Y3.2708 
G01 X32.5432 Y3.1397 
G01 X32.4403 Y2.9856 
G01 X32.3693 Y2.8144 
G01 X32.3332 Y2.6327 
G01 X32.3332 Y2.4473 
G01 X32.3693 Y2.2656 
G01 X32.4403 Y2.0944 
G01 X32.5432 Y1.9403 
G01 X32.6743 Y1.8092 
G01 X32.8284 Y1.7063 
G01 X32.9996 Y1.6353 
G01 X33.1813 Y1.5992 
G01 X33.3667 Y1.5992 
G01 X33.5484 Y1.6353 
G01 X33.7196 Y1.7063 
G01 X33.8737 Y1.8092 
G01 X34.0048 Y1.9403 
G01 X34.1077 Y2.0944 
G01 X34.1787 Y2.2656 
G01 X34.2148 Y2.4473 
G00 Z2.5400 
G00 X31.6748 Y2.4473 
G01 Z-0.0200 F254.00 
G01 X31.6748 Y2.6327 F300.00 
G01 X31.6387 Y2.8144 
G01 X31.5677 Y2.9856 
G01 X31.4648 Y3.1397 
G01 X31.3337 Y3.2708 
G01 X31.1796 Y3.3737 
G01 X31.0084 Y3.4447 
G01 X30.8267 Y3.4808 
G01 X30.6413 Y3.4808 
G01 X30.4596 Y3.4447 
G01 X30.2884 Y3.3737 
G01 X30.1343 Y3.2708 
G01 X30.0032 Y3.1397 
G01 X29.9003 Y2.9856 
G01 X29.8293 Y2.8144 
G01 X29.7932 Y2.6327 
G01 X29.7932 Y2.4473 
G01 X29.8293 Y2.2656 
G01 X29.9003 Y2.0944 
G01 X30.0032 Y1.9403 
G01 X30.1343 Y1.8092 
G01 X30.2884 Y1.7063 
G01 X30.4596 Y1.6353 
G01 X30.6413 Y1.5992 
G01 X30.8267 Y1.5992 
G01 X31.0084 Y1.6353 
G01 X31.1796 Y1.7063 
G01 X31.3337 Y1.8092 
G01 X31.4648 Y1.9403 
G01 X31.5677 Y2.0944 
G01 X31.6387 Y2.2656 
G01 X31.6748 Y2.4473 
G00 Z2.5400 
G00 X39.0920 Y34.6436 
G01 Z-0.0200 F254.00 
G01 X38.9186 Y34.7155 F300.00 
G01 X38.7625 Y34.8198 
G01 X38.6298 Y34.9525 
G01 X38.5255 Y35.1086 
G01 X38.4536 Y35.2820 
G01 X38.4224 Y35.4390 
G01 X38.6793 Y35.4390 
G01 X38.6959 Y35.3555 
G01 X38.7488 Y35.2279 
G01 X38.8255 Y35.1131 
G01 X38.9231 Y35.0155 
G01 X39.0379 Y34.9388 
G01 X39.1655 Y34.8859 
G01 X39.2490 Y34.8693 
G01 X39.2490 Y34.6124 
G01 X39.0920 Y34.6436 
G00 Z2.5400 
G00 X40.0441 Y35.7645 
G01 Z-0.0200 F254.00 
G01 X39.9912 Y35.8921 F300.00 
G01 X39.9145 Y36.0069 
G01 X39.8169 Y36.1045 
G01 X39.7021 Y36.1812 
G01 X39.5745 Y36.2341 
G01 X39.4910 Y36.2507 
G01 X39.4910 Y36.5076 
G01 X39.6480 Y36.4764 
G01 X39.8214 Y36.4045 
G01 X39.9775 Y36.3002 
G01 X40.1102 Y36.1675 
G01 X40.2145 Y36.0114 
G01 X40.2864 Y35.8380 
G01 X40.3176 Y35.6810 
G01 X40.0607 Y35.6810 
G01 X40.0441 Y35.7645 
G00 Z2.5400 
G00 X40.2864 Y35.2820 
G01 Z-0.0200 F254.00 
G01 X40.2145 Y35.1086 F300.00 
G01 X40.1102 Y34.9525 
G01 X39.9775 Y34.8198 
G01 X39.8214 Y34.7155 
G01 X39.6480 Y34.6436 
G01 X39.4910 Y34.6124 
G01 X39.4910 Y34.8693 
G01 X39.5745 Y34.8859 
G01 X39.7021 Y34.9388 
G01 X39.8169 Y35.0155 
G01 X39.9145 Y35.1131 
G01 X39.9912 Y35.2279 
G01 X40.0441 Y35.3555 
G01 X40.0607 Y35.4390 
G01 X40.3176 Y35.4390 
G01 X40.2864 Y35.2820 
G00 Z2.5400 
G00 X38.4536 Y35.8380 
G01 Z-0.0200 F254.00 
G01 X38.5255 Y36.0114 F300.00 
G01 X38.6298 Y36.1675 
G01 X38.7625 Y36.3002 
G01 X38.9186 Y36.4045 
G01 X39.0920 Y36.4764 
G01 X39.2490 Y36.5076 
G01 X39.2490 Y36.2507 
G01 X39.1655 Y36.2341 
G01 X39.0379 Y36.1812 
G01 X38.9231 Y36.1045 
G01 X38.8255 Y36.0069 
G01 X38.7488 Y35.8921 
G01 X38.6959 Y35.7645 
G01 X38.6793 Y35.6810 
G01 X38.4224 Y35.6810 
G01 X38.4536 Y35.8380 
G00 Z2.5400 
G00 X20.0420 Y40.9936 
G01 Z-0.0200 F254.00 
G01 X19.8686 Y41.0655 F300.00 
G01 X19.7125 Y41.1698 
G01 X19.5798 Y41.3025 
G01 X19.4755 Y41.4586 
G01 X19.4036 Y41.6320 
G01 X19.3724 Y41.7890 
G01 X19.6293 Y41.7890 
G01 X19.6459 Y41.7055 
G01 X19.6988 Y41.5779 
G01 X19.7755 Y41.4631 
G01 X19.8731 Y41.3655 
G01 X19.9879 Y41.2888 
G01 X20.1155 Y41.2359 
G01 X20.1990 Y41.2193 
G01 X20.1990 Y40.9624 
G01 X20.0420 Y40.9936 
G00 Z2.5400 
G00 X20.9941 Y42.1145 
G01 Z-0.0200 F254.00 
G01 X20.9412 Y42.2421 F300.00 
G01 X20.8645 Y42.3569 
G01 X20.7669 Y42.4545 
G01 X20.6521 Y42.5312 
G01 X20.5245 Y42.5841 
G01 X20.4410 Y42.6007 
G01 X20.4410 Y42.8576 
G01 X20.5980 Y42.8264 
G01 X20.7714 Y42.7545 
G01 X20.9275 Y42.6502 
G01 X21.0602 Y42.5175 
G01 X21.1645 Y42.3614 
G01 X21.2364 Y42.1880 
G01 X21.2676 Y42.0310 
G01 X21.0107 Y42.0310 
G01 X20.9941 Y42.1145 
G00 Z2.5400 
G00 X21.2364 Y41.6320 
G01 Z-0.0200 F254.00 
G01 X21.1645 Y41.4586 F300.00 
G01 X21.0602 Y41.3025 
G01 X20.9275 Y41.1698 
G01 X20.7714 Y41.0655 
G01 X20.5980 Y40.9936 
G01 X20.4410 Y40.9624 
G01 X20.4410 Y41.2193 
G01 X20.5245 Y41.2359 
G01 X20.6521 Y41.2888 
G01 X20.7669 Y41.3655 
G01 X20.8645 Y41.4631 
G01 X20.9412 Y41.5779 
G01 X20.9941 Y41.7055 
G01 X21.0107 Y41.7890 
G01 X21.2676 Y41.7890 
G01 X21.2364 Y41.6320 
G00 Z2.5400 
G00 X19.4036 Y42.1880 
G01 Z-0.0200 F254.00 
G01 X19.4755 Y42.3614 F300.00 
G01 X19.5798 Y42.5175 
G01 X19.7125 Y42.6502 
G01 X19.8686 Y42.7545 
G01 X20.0420 Y42.8264 
G01 X20.1990 Y42.8576 
G01 X20.1990 Y42.6007 
G01 X20.1155 Y42.5841 
G01 X19.9879 Y42.5312 
G01 X19.8731 Y42.4545 
G01 X19.7755 Y42.3569 
G01 X19.6988 Y42.2421 
G01 X19.6459 Y42.1145 
G01 X19.6293 Y42.0310 
G01 X19.3724 Y42.0310 
G01 X19.4036 Y42.1880 
G00 Z2.5400 
G00 X14.6980 Y27.1917 
G01 Z-0.0200 F254.00 
G01 X14.6807 Y27.1273 F300.00 
G01 X14.6474 Y27.0697 
G01 X14.6003 Y27.0226 
G01 X14.5426 Y26.9893 
G01 X14.4783 Y26.9720 
G01 X14.0910 Y26.9720 
G01 X14.0910 Y27.2240 
G01 X14.4454 Y27.2240 
G01 X14.4460 Y28.1790 
G01 X14.6980 Y28.1790 
G01 X14.6980 Y27.1917 
G00 Z2.5400 
G00 X13.4940 Y27.2246 
G01 Z-0.0200 F254.00 
G01 X13.4946 Y27.2240 F300.00 
G01 X13.8490 Y27.2240 
G01 X13.8490 Y26.9720 
G01 X13.4617 Y26.9720 
G01 X13.3973 Y26.9893 
G01 X13.3397 Y27.0226 
G01 X13.2926 Y27.0697 
G01 X13.2593 Y27.1273 
G01 X13.2420 Y27.1917 
G01 X13.2420 Y28.1790 
G01 X13.4940 Y28.1790 
G01 X13.4940 Y27.2246 
G00 Z2.5400 
G00 X13.4940 Y29.3754 
G01 Z-0.0200 F254.00 
G01 X13.4940 Y28.4210 F300.00 
G01 X13.2420 Y28.4210 
G01 X13.2420 Y29.4083 
G01 X13.2593 Y29.4726 
G01 X13.2926 Y29.5303 
G01 X13.3397 Y29.5774 
G01 X13.3973 Y29.6107 
G01 X13.4617 Y29.6280 
G01 X13.8490 Y29.6280 
G01 X13.8490 Y29.3760 
G01 X13.4946 Y29.3760 
G00 Z2.5400 
G00 X14.4783 Y29.6280 
G01 Z-0.0200 F254.00 
G01 X14.5426 Y29.6107 F300.00 
G01 X14.6003 Y29.5774 
G01 X14.6474 Y29.5303 
G01 X14.6807 Y29.4726 
G01 X14.6980 Y29.4083 
G01 X14.6980 Y28.4210 
G01 X14.4460 Y28.4210 
G01 X14.4460 Y29.3754 
G01 X14.0910 Y29.3760 
G01 X14.0910 Y29.6280 
G01 X14.4783 Y29.6280 
G00 Z2.5400 
G00 X15.6283 Y23.8280 
G01 Z-0.0200 F254.00 
G01 X15.6926 Y23.8107 F300.00 
G01 X15.7503 Y23.7774 
G01 X15.7974 Y23.7303 
G01 X15.8307 Y23.6726 
G01 X15.8480 Y23.6083 
G01 X15.8480 Y22.6210 
G01 X15.5960 Y22.6210 
G01 X15.5960 Y23.5754 
G01 X14.0910 Y23.5760 
G01 X14.0910 Y23.8280 
G01 X15.6283 Y23.8280 
G00 Z2.5400 
G00 X12.3440 Y23.5754 
G01 Z-0.0200 F254.00 
G01 X12.3440 Y22.6210 F300.00 
G01 X12.0920 Y22.6210 
G01 X12.0920 Y23.6083 
G01 X12.1093 Y23.6726 
G01 X12.1426 Y23.7303 
G01 X12.1897 Y23.7774 
G01 X12.2473 Y23.8107 
G01 X12.3117 Y23.8280 
G01 X13.8490 Y23.8280 
G01 X13.8490 Y23.5760 
G01 X12.3446 Y23.5760 
G00 Z2.5400 
G00 X12.3440 Y21.4246 
G01 Z-0.0200 F254.00 
G01 X12.3446 Y21.4240 F300.00 
G01 X13.8490 Y21.4240 
G01 X13.8490 Y21.1720 
G01 X12.3117 Y21.1720 
G01 X12.2474 Y21.1893 
G01 X12.1897 Y21.2226 
G01 X12.1426 Y21.2697 
G01 X12.1093 Y21.3273 
G01 X12.0920 Y21.3917 
G01 X12.0920 Y22.3790 
G01 X12.3440 Y22.3790 
G01 X12.3440 Y21.4246 
G00 Z2.5400 
G00 X15.8480 Y21.3917 
G01 Z-0.0200 F254.00 
G01 X15.8307 Y21.3273 F300.00 
G01 X15.7974 Y21.2697 
G01 X15.7503 Y21.2226 
G01 X15.6926 Y21.1893 
G01 X15.6283 Y21.1720 
G01 X14.0910 Y21.1720 
G01 X14.0910 Y21.4240 
G01 X15.5954 Y21.4240 
G01 X15.5960 Y22.3790 
G01 X15.8480 Y22.3790 
G01 X15.8480 Y21.3917 
G00 Z2.5400 
G00 X20.4567 Y17.1770 
G01 Z-0.0200 F254.00 
G01 X20.3923 Y17.1943 F300.00 
G01 X20.3347 Y17.2276 
G01 X20.2876 Y17.2747 
G01 X20.2543 Y17.3323 
G01 X20.2370 Y17.3967 
G01 X20.2370 Y17.6590 
G01 X20.4890 Y17.6590 
G01 X20.4890 Y17.4296 
G01 X20.7440 Y17.4290 
G01 X20.7440 Y17.1770 
G01 X20.4567 Y17.1770 
G00 Z2.5400 
G00 X12.2145 Y16.2033 
G01 Z-0.0200 F254.00 
G01 X12.2318 Y16.2676 F300.00 
G01 X12.2651 Y16.3253 
G01 X12.3122 Y16.3724 
G01 X12.3698 Y16.4057 
G01 X12.4342 Y16.4230 
G01 X13.2765 Y16.4230 
G01 X13.2765 Y16.1710 
G01 X12.4671 Y16.1710 
G01 X12.4665 Y15.3610 
G01 X12.2145 Y15.3610 
G01 X12.2145 Y16.2033 
G00 Z2.5400 
G00 X45.5554 Y18.0079 
G01 Z-0.0200 F254.00 
G01 X45.5554 Y16.2721 F300.00 
G01 X45.3179 Y16.0346 
G01 X44.8291 Y16.0346 
G01 X44.8066 Y16.0253 
G01 X44.7895 Y16.0082 
G01 X43.1393 Y14.3580 
G01 X42.7569 Y14.1996 
G01 X42.3541 Y14.1996 
G01 X42.3316 Y14.1903 
G01 X42.3145 Y14.1732 
G01 X39.9593 Y11.8180 
G01 X39.5769 Y11.6596 
G01 X38.1721 Y11.6596 
G01 X38.1497 Y11.6503 
G01 X38.1325 Y11.6332 
G01 X37.5240 Y11.0246 
G01 X36.1360 Y11.0246 
G01 X35.5103 Y11.6503 
G01 X35.4879 Y11.6596 
G01 X30.9600 Y11.6596 
G01 X30.9376 Y11.6503 
G01 X30.9215 Y11.6342 
G01 X30.0385 Y11.6342 
G01 X30.0224 Y11.6503 
G01 X30.0000 Y11.6596 
G01 X25.8800 Y11.6596 
G01 X25.8576 Y11.6503 
G01 X25.8415 Y11.6342 
G01 X24.9585 Y11.6342 
G01 X24.9424 Y11.6503 
G01 X24.9200 Y11.6596 
G01 X22.1080 Y11.6596 
G01 X21.7257 Y11.8180 
G01 X21.6415 Y11.9022 
G01 X21.6246 Y11.9191 
G01 X21.6089 Y11.9256 
G01 X21.6021 Y11.9284 
G01 X21.5779 Y11.9284 
G01 X21.5554 Y11.9191 
G01 X21.5383 Y11.9020 
G01 X21.4543 Y11.8180 
G01 X21.0719 Y11.6596 
G01 X14.2588 Y11.6596 
G01 X14.2363 Y11.6503 
G01 X14.2192 Y11.6332 
G01 X14.1539 Y11.5679 
G01 X13.9458 Y11.4817 
G01 X13.9371 Y11.4730 
G01 X13.9287 Y11.4646 
G01 X13.9195 Y11.4424 
G01 X13.9194 Y11.4179 
G01 X13.9220 Y11.4115 
G01 X13.9287 Y11.3954 
G01 X13.9374 Y11.3867 
G01 X13.9458 Y11.3783 
G01 X14.1539 Y11.2921 
G01 X14.5296 Y10.9164 
G01 X14.7329 Y10.4256 
G01 X14.7329 Y10.3091 
G01 X14.7422 Y10.2866 
G01 X14.7593 Y10.2695 
G01 X15.0891 Y9.9397 
G01 X15.1116 Y9.9304 
G01 X18.5425 Y9.9304 
G01 X18.8202 Y10.0454 
G01 X19.2798 Y10.0454 
G01 X19.7045 Y9.8695 
G01 X20.0295 Y9.5445 
G01 X20.2054 Y9.1198 
G01 X20.2054 Y8.6602 
G01 X20.0295 Y8.2355 
G01 X19.7045 Y7.9105 
G01 X19.2798 Y7.7346 
G01 X18.8202 Y7.7346 
G01 X18.5425 Y7.8496 
G01 X14.4605 Y7.8496 
G01 X14.0782 Y8.0080 
G01 X13.2708 Y8.8153 
G01 X13.2484 Y8.8246 
G01 X13.1319 Y8.8246 
G01 X12.6411 Y9.0279 
G01 X12.5587 Y9.1103 
G01 X12.5362 Y9.1196 
G01 X8.1000 Y9.1196 
G01 X8.0776 Y9.1103 
G01 X8.0615 Y9.0942 
G01 X7.1785 Y9.0942 
G01 X7.1624 Y9.1103 
G01 X7.1400 Y9.1196 
G01 X3.0200 Y9.1196 
G01 X2.9976 Y9.1103 
G01 X2.9815 Y9.0942 
G01 X2.0985 Y9.0942 
G01 X1.4742 Y9.7185 
G01 X1.4742 Y10.6015 
G01 X2.0985 Y11.2258 
G01 X2.9815 Y11.2258 
G01 X2.9976 Y11.2097 
G01 X3.0200 Y11.2004 
G01 X7.1400 Y11.2004 
G01 X7.1624 Y11.2097 
G01 X7.1785 Y11.2258 
G01 X8.0615 Y11.2258 
G01 X8.0776 Y11.2097 
G01 X8.1000 Y11.2004 
G01 X12.5362 Y11.2004 
G01 X12.5587 Y11.2097 
G01 X12.5758 Y11.2268 
G01 X12.6411 Y11.2921 
G01 X12.8491 Y11.3783 
G01 X12.8579 Y11.3870 
G01 X12.8663 Y11.3954 
G01 X12.8728 Y11.4111 
G01 X12.8756 Y11.4179 
G01 X12.8756 Y11.4421 
G01 X12.8663 Y11.4646 
G01 X12.8576 Y11.4733 
G01 X12.8491 Y11.4817 
G01 X12.6411 Y11.5679 
G01 X12.2654 Y11.9436 
G01 X12.0621 Y12.4344 
G01 X12.0621 Y12.9656 
G01 X12.2654 Y13.4564 
G01 X12.6411 Y13.8321 
G01 X12.9119 Y13.9443 
G01 X12.9291 Y13.9614 
G01 X12.9384 Y13.9839 
G01 X12.9384 Y14.0081 
G01 X12.9291 Y14.0306 
G01 X12.9119 Y14.0477 
G01 X12.8895 Y14.0570 
G01 X12.4342 Y14.0570 
G01 X12.3698 Y14.0743 
G01 X12.3122 Y14.1076 
G01 X12.2651 Y14.1547 
G01 X12.2318 Y14.2123 
G01 X12.2145 Y14.2767 
G01 X12.2145 Y15.1190 
G01 X12.4665 Y15.1190 
G01 X12.4665 Y14.3096 
G01 X14.3279 Y14.3090 
G01 X14.3285 Y15.1190 
G01 X14.5805 Y15.1190 
G01 X14.5805 Y14.2767 
G01 X14.5632 Y14.2123 
G01 X14.5299 Y14.1547 
G01 X14.4828 Y14.1076 
G01 X14.4251 Y14.0743 
G01 X14.3608 Y14.0570 
G01 X13.9055 Y14.0570 
G01 X13.8831 Y14.0477 
G01 X13.8659 Y14.0306 
G01 X13.8567 Y14.0084 
G01 X13.8566 Y13.9839 
G01 X13.8659 Y13.9614 
G01 X13.8831 Y13.9443 
G01 X14.1539 Y13.8321 
G01 X14.2363 Y13.7497 
G01 X14.2588 Y13.7404 
G01 X21.0719 Y13.7404 
G01 X21.4543 Y13.5820 
G01 X21.5554 Y13.4809 
G01 X21.5779 Y13.4716 
G01 X21.6021 Y13.4716 
G01 X21.6085 Y13.4742 
G01 X21.6246 Y13.4809 
G01 X21.6417 Y13.4980 
G01 X21.7257 Y13.5820 
G01 X22.1080 Y13.7404 
G01 X24.9200 Y13.7404 
G01 X24.9424 Y13.7497 
G01 X24.9585 Y13.7658 
G01 X25.8415 Y13.7658 
G01 X25.8576 Y13.7497 
G01 X25.8800 Y13.7404 
G01 X30.0000 Y13.7404 
G01 X30.0224 Y13.7497 
G01 X30.0385 Y13.7658 
G01 X30.9215 Y13.7658 
G01 X30.9376 Y13.7497 
G01 X30.9600 Y13.7404 
G01 X35.4879 Y13.7404 
G01 X35.5103 Y13.7497 
G01 X35.5275 Y13.7668 
G01 X36.1360 Y14.3754 
G01 X37.5240 Y14.3754 
G01 X38.1497 Y13.7497 
G01 X38.1721 Y13.7404 
G01 X38.9259 Y13.7404 
G01 X38.9483 Y13.7497 
G01 X38.9655 Y13.7668 
G01 X41.3207 Y16.1220 
G01 X41.7030 Y16.2804 
G01 X42.1059 Y16.2804 
G01 X42.1283 Y16.2897 
G01 X42.1455 Y16.3068 
G01 X43.3353 Y17.4966 
G01 X43.3446 Y17.5191 
G01 X43.3446 Y18.0079 
G01 X43.4003 Y18.0636 
G01 X43.4096 Y18.0860 
G01 X43.4096 Y18.3767 
G01 X43.4003 Y18.3991 
G01 X43.3832 Y18.4163 
G01 X43.3610 Y18.4255 
G01 X43.3365 Y18.4256 
G01 X43.3140 Y18.4163 
G01 X43.2969 Y18.3991 
G01 X43.2074 Y18.1831 
G01 X42.7769 Y17.7526 
G01 X42.2144 Y17.5196 
G01 X41.6056 Y17.5196 
G01 X41.0431 Y17.7526 
G01 X40.7954 Y18.0003 
G01 X40.7730 Y18.0096 
G01 X38.5543 Y18.0096 
G01 X38.5318 Y18.0003 
G01 X38.5147 Y17.9832 
G01 X38.5054 Y17.9607 
G01 X38.5054 Y17.4467 
G01 X38.2503 Y16.8310 
G01 X37.7790 Y16.3597 
G01 X37.1633 Y16.1046 
G01 X36.4967 Y16.1046 
G01 X35.8810 Y16.3597 
G01 X35.5103 Y16.7303 
G01 X35.4879 Y16.7396 
G01 X30.9600 Y16.7396 
G01 X30.9376 Y16.7303 
G01 X30.9215 Y16.7142 
G01 X30.0385 Y16.7142 
G01 X30.0224 Y16.7303 
G01 X30.0000 Y16.7396 
G01 X25.8800 Y16.7396 
G01 X25.8576 Y16.7303 
G01 X25.8415 Y16.7142 
G01 X24.9585 Y16.7142 
G01 X24.9424 Y16.7303 
G01 X24.9200 Y16.7396 
G01 X22.1080 Y16.7396 
G01 X21.7257 Y16.8980 
G01 X21.4346 Y17.1891 
G01 X21.4326 Y17.1926 
G01 X21.4261 Y17.1976 
G01 X21.4204 Y17.2033 
G01 X21.4166 Y17.2049 
G01 X21.4133 Y17.2074 
G01 X21.4054 Y17.2095 
G01 X21.3979 Y17.2126 
G01 X21.3938 Y17.2126 
G01 X21.3899 Y17.2137 
G01 X21.3818 Y17.2126 
G01 X21.3737 Y17.2126 
G01 X21.3699 Y17.2110 
G01 X21.3658 Y17.2105 
G01 X21.3587 Y17.2064 
G01 X21.3512 Y17.2033 
G01 X21.3483 Y17.2004 
G01 X21.3376 Y17.1943 
G01 X21.2733 Y17.1770 
G01 X20.9860 Y17.1770 
G01 X20.9860 Y17.4290 
G01 X21.2404 Y17.4290 
G01 X21.2410 Y18.1304 
G01 X20.9860 Y18.1310 
G01 X20.9860 Y18.3830 
G01 X21.2733 Y18.3830 
G01 X21.3376 Y18.3657 
G01 X21.3483 Y18.3596 
G01 X21.3512 Y18.3567 
G01 X21.3587 Y18.3536 
G01 X21.3658 Y18.3495 
G01 X21.3699 Y18.3490 
G01 X21.3737 Y18.3474 
G01 X21.3818 Y18.3474 
G01 X21.3899 Y18.3463 
G01 X21.3938 Y18.3474 
G01 X21.3979 Y18.3474 
G01 X21.4054 Y18.3505 
G01 X21.4133 Y18.3526 
G01 X21.4166 Y18.3551 
G01 X21.4204 Y18.3567 
G01 X21.4261 Y18.3624 
G01 X21.4326 Y18.3674 
G01 X21.4346 Y18.3709 
G01 X21.7257 Y18.6620 
G01 X22.1080 Y18.8204 
G01 X24.3107 Y18.8204 
G01 X24.3332 Y18.8297 
G01 X24.3503 Y18.8468 
G01 X24.3596 Y18.8693 
G01 X24.3596 Y22.3800 
G01 X24.3503 Y22.4024 
G01 X24.3342 Y22.4185 
G01 X24.3342 Y23.3015 
G01 X24.9585 Y23.9258 
G01 X25.8415 Y23.9258 
G01 X25.8576 Y23.9097 
G01 X25.8800 Y23.9004 
G01 X30.0000 Y23.9004 
G01 X30.0224 Y23.9097 
G01 X30.0385 Y23.9258 
G01 X30.9215 Y23.9258 
G01 X31.5458 Y23.3015 
G01 X31.5458 Y22.4185 
G01 X31.5297 Y22.4024 
G01 X31.5204 Y22.3800 
G01 X31.5204 Y18.8693 
G01 X31.5297 Y18.8468 
G01 X31.5468 Y18.8297 
G01 X31.5693 Y18.8204 
G01 X35.4879 Y18.8204 
G01 X35.5103 Y18.8297 
G01 X35.5275 Y18.8468 
G01 X35.7803 Y19.0997 
G01 X35.7896 Y19.1221 
G01 X35.7896 Y20.2479 
G01 X35.7803 Y20.2703 
G01 X35.7632 Y20.2875 
G01 X35.1546 Y20.8960 
G01 X35.1546 Y22.2840 
G01 X36.1360 Y23.2654 
G01 X37.5240 Y23.2654 
G01 X38.5054 Y22.2840 
G01 X38.5054 Y20.8960 
G01 X37.8797 Y20.2703 
G01 X37.8704 Y20.2479 
G01 X37.8704 Y20.1953 
G01 X37.8797 Y20.1729 
G01 X37.8966 Y20.1560 
G01 X37.9059 Y20.1520 
G01 X37.9193 Y20.1464 
G01 X37.9435 Y20.1464 
G01 X37.9531 Y20.1504 
G01 X38.3669 Y20.1504 
G01 X38.5118 Y20.0904 
G01 X40.7730 Y20.0904 
G01 X40.7954 Y20.0997 
G01 X40.8125 Y20.1168 
G01 X41.0431 Y20.3474 
G01 X41.6056 Y20.5804 
G01 X42.2144 Y20.5804 
G01 X42.7769 Y20.3474 
G01 X43.2074 Y19.9169 
G01 X43.2969 Y19.7009 
G01 X43.3140 Y19.6837 
G01 X43.3365 Y19.6744 
G01 X43.3607 Y19.6744 
G01 X43.3832 Y19.6837 
G01 X43.4003 Y19.7009 
G01 X43.4096 Y19.7233 
G01 X43.4096 Y30.1740 
G01 X43.4003 Y30.1964 
G01 X43.3832 Y30.2135 
G01 X43.3446 Y30.2521 
G01 X43.3446 Y31.9879 
G01 X43.5821 Y32.2254 
G01 X45.3179 Y32.2254 
G01 X45.5554 Y31.9879 
G01 X45.5554 Y30.2521 
G01 X45.4997 Y30.1964 
G01 X45.4904 Y30.1740 
G01 X45.4904 Y18.0860 
G01 X45.4997 Y18.0636 
G01 X45.5168 Y18.0465 
G01 X45.5554 Y18.0079 
G00 Z2.5400 
G00 X13.9910 Y13.4232 
G01 Z-0.0200 F254.00 
G01 X13.8385 Y13.5251 F300.00 
G01 X13.6691 Y13.5952 
G01 X13.4892 Y13.6310 
G01 X13.3058 Y13.6310 
G01 X13.1259 Y13.5952 
G01 X12.9565 Y13.5251 
G01 X12.8040 Y13.4232 
G01 X12.6743 Y13.2935 
G01 X12.5724 Y13.1410 
G01 X12.5023 Y12.9716 
G01 X12.4665 Y12.7917 
G01 X12.4665 Y12.6083 
G01 X12.5023 Y12.4284 
G01 X12.5724 Y12.2590 
G01 X12.6743 Y12.1065 
G01 X12.8040 Y11.9768 
G01 X12.9565 Y11.8749 
G01 X13.1259 Y11.8048 
G01 X13.3058 Y11.7690 
G01 X13.4892 Y11.7690 
G01 X13.6691 Y11.8048 
G01 X13.8385 Y11.8749 
G01 X13.9910 Y11.9768 
G01 X14.0781 Y12.0640 
G01 X20.9276 Y12.0640 
G01 X21.0505 Y12.0884 
G01 X21.1663 Y12.1364 
G01 X21.2704 Y12.2060 
G01 X21.3590 Y12.2946 
G01 X21.4286 Y12.3987 
G01 X21.4766 Y12.5145 
G01 X21.5010 Y12.6374 
G01 X21.5010 Y12.7626 
G01 X21.4766 Y12.8855 
G01 X21.4286 Y13.0013 
G01 X21.3590 Y13.1054 
G01 X21.2704 Y13.1940 
G01 X21.1663 Y13.2636 
G01 X21.0505 Y13.3116 
G01 X20.9276 Y13.3360 
G01 X14.0781 Y13.3360 
G01 X13.9910 Y13.4232 
G00 Z2.5400 
G00 X25.6740 Y13.3614 
G01 Z-0.0200 F254.00 
G01 X25.1260 Y13.3614 F300.00 
G01 X25.1006 Y13.3360 
G01 X22.2524 Y13.3360 
G01 X22.1295 Y13.3116 
G01 X22.0137 Y13.2636 
G01 X21.9096 Y13.1940 
G01 X21.8210 Y13.1054 
G01 X21.7514 Y13.0013 
G01 X21.7034 Y12.8855 
G01 X21.6790 Y12.7626 
G01 X21.6790 Y12.6374 
G01 X21.7034 Y12.5145 
G01 X21.7514 Y12.3987 
G01 X21.8210 Y12.2946 
G01 X21.9096 Y12.2060 
G01 X22.0137 Y12.1364 
G01 X22.1295 Y12.0884 
G01 X22.2524 Y12.0640 
G01 X25.1006 Y12.0640 
G01 X25.1260 Y12.0386 
G01 X25.6740 Y12.0386 
G01 X25.6994 Y12.0640 
G01 X30.1806 Y12.0640 
G01 X30.2060 Y12.0386 
G01 X30.7540 Y12.0386 
G01 X30.7794 Y12.0640 
G01 X35.6685 Y12.0640 
G01 X36.3035 Y11.4290 
G01 X37.3565 Y11.4290 
G01 X37.9915 Y12.0640 
G01 X39.4326 Y12.0640 
G01 X39.5555 Y12.0884 
G01 X39.6713 Y12.1364 
G01 X39.7754 Y12.2060 
G01 X42.1734 Y14.6040 
G01 X42.6126 Y14.6040 
G01 X42.7355 Y14.6284 
G01 X42.8513 Y14.6764 
G01 X42.9554 Y14.7460 
G01 X43.0440 Y14.8346 
G01 X44.6484 Y16.4390 
G01 X45.1504 Y16.4390 
G01 X45.1510 Y17.8404 
G01 X45.0860 Y17.8410 
G01 X45.0860 Y30.4190 
G01 X45.1504 Y30.4190 
G01 X45.1510 Y31.8204 
G01 X43.7496 Y31.8210 
G01 X43.7490 Y30.4196 
G01 X43.8140 Y30.4190 
G01 X43.8140 Y17.8410 
G01 X43.7496 Y17.8410 
G01 X43.7490 Y17.3384 
G01 X42.2866 Y15.8760 
G01 X41.8474 Y15.8760 
G01 X41.7245 Y15.8516 
G01 X41.6087 Y15.8036 
G01 X41.5046 Y15.7340 
G01 X39.1065 Y13.3360 
G01 X37.9915 Y13.3360 
G01 X37.3565 Y13.9710 
G01 X36.3035 Y13.9710 
G01 X35.6685 Y13.3360 
G01 X30.7794 Y13.3360 
G01 X30.7540 Y13.3614 
G01 X30.2060 Y13.3614 
G01 X30.1806 Y13.3360 
G01 X25.6994 Y13.3360 
G01 X25.6740 Y13.3614 
G00 Z2.5400 
G00 X25.6740 Y23.5214 
G01 Z-0.0200 F254.00 
G01 X25.1260 Y23.5214 F300.00 
G01 X24.7386 Y23.1340 
G01 X24.7386 Y22.5860 
G01 X24.7640 Y22.5606 
G01 X24.7640 Y18.4160 
G01 X22.2524 Y18.4160 
G01 X22.1295 Y18.3916 
G01 X22.0137 Y18.3436 
G01 X21.9096 Y18.2740 
G01 X21.8210 Y18.1854 
G01 X21.7514 Y18.0813 
G01 X21.7034 Y17.9655 
G01 X21.6790 Y17.8426 
G01 X21.6790 Y17.7174 
G01 X21.7034 Y17.5945 
G01 X21.7514 Y17.4787 
G01 X21.8210 Y17.3746 
G01 X21.9096 Y17.2860 
G01 X22.0137 Y17.2164 
G01 X22.1295 Y17.1684 
G01 X22.2524 Y17.1440 
G01 X25.1006 Y17.1440 
G01 X25.1260 Y17.1186 
G01 X25.6740 Y17.1186 
G01 X25.6994 Y17.1440 
G01 X30.1806 Y17.1440 
G01 X30.2060 Y17.1186 
G01 X30.7540 Y17.1186 
G01 X30.7794 Y17.1440 
G01 X35.7276 Y17.1440 
G01 X35.7429 Y17.1138 
G01 X35.8605 Y16.9520 
G01 X36.0020 Y16.8105 
G01 X36.1638 Y16.6929 
G01 X36.3421 Y16.6021 
G01 X36.5324 Y16.5403 
G01 X36.7300 Y16.5090 
G01 X36.9300 Y16.5090 
G01 X37.1276 Y16.5403 
G01 X37.3179 Y16.6021 
G01 X37.4962 Y16.6929 
G01 X37.6580 Y16.8105 
G01 X37.7995 Y16.9520 
G01 X37.9171 Y17.1138 
G01 X38.0079 Y17.2921 
G01 X38.0697 Y17.4824 
G01 X38.1010 Y17.6800 
G01 X38.1010 Y17.8800 
G01 X38.0697 Y18.0776 
G01 X38.0593 Y18.1098 
G01 X38.3634 Y18.4140 
G01 X40.9803 Y18.4140 
G01 X41.0511 Y18.3164 
G01 X41.1764 Y18.1911 
G01 X41.3198 Y18.0869 
G01 X41.4778 Y18.0065 
G01 X41.6463 Y17.9517 
G01 X41.8214 Y17.9240 
G01 X41.9986 Y17.9240 
G01 X42.1737 Y17.9517 
G01 X42.3422 Y18.0065 
G01 X42.5002 Y18.0869 
G01 X42.6436 Y18.1911 
G01 X42.7689 Y18.3164 
G01 X42.8731 Y18.4598 
G01 X42.9535 Y18.6178 
G01 X43.0083 Y18.7863 
G01 X43.0360 Y18.9614 
G01 X43.0360 Y19.1386 
G01 X43.0083 Y19.3137 
G01 X42.9535 Y19.4822 
G01 X42.8731 Y19.6402 
G01 X42.7689 Y19.7836 
G01 X42.6436 Y19.9089 
G01 X42.5002 Y20.0131 
G01 X42.3422 Y20.0935 
G01 X42.1737 Y20.1483 
G01 X41.9986 Y20.1760 
G01 X41.8214 Y20.1760 
G01 X41.6463 Y20.1483 
G01 X41.4778 Y20.0935 
G01 X41.3198 Y20.0131 
G01 X41.1764 Y19.9089 
G01 X41.0511 Y19.7836 
G01 X40.9803 Y19.6860 
G01 X38.4314 Y19.6860 
G01 X38.3455 Y19.7216 
G01 X38.2226 Y19.7460 
G01 X38.0974 Y19.7460 
G01 X37.9745 Y19.7216 
G01 X37.8587 Y19.6736 
G01 X37.7546 Y19.6040 
G01 X37.6946 Y19.5440 
G01 X37.6060 Y19.4554 
G01 X37.4660 Y19.3155 
G01 X37.4660 Y20.4285 
G01 X38.1010 Y21.0635 
G01 X38.1010 Y22.1165 
G01 X37.3565 Y22.8610 
G01 X36.3035 Y22.8610 
G01 X35.5590 Y22.1165 
G01 X35.5590 Y21.0635 
G01 X36.1940 Y20.4285 
G01 X36.1940 Y18.8824 
G01 X36.1638 Y18.8671 
G01 X36.0020 Y18.7495 
G01 X35.8605 Y18.6080 
G01 X35.7429 Y18.4462 
G01 X35.7276 Y18.4160 
G01 X31.1160 Y18.4160 
G01 X31.1160 Y22.5606 
G01 X31.1414 Y22.5860 
G01 X31.1414 Y23.1340 
G01 X30.7540 Y23.5214 
G01 X30.2060 Y23.5214 
G01 X30.1806 Y23.4960 
G01 X25.6994 Y23.4960 
G01 X25.6740 Y23.5214 
G00 Z2.5400 
G00 X19.8010 Y8.8160 
G01 Z-0.0200 F254.00 
G01 X19.8010 Y8.9640 F300.00 
G01 X19.7722 Y9.1091 
G01 X19.7155 Y9.2457 
G01 X19.6334 Y9.3687 
G01 X19.5287 Y9.4734 
G01 X19.4057 Y9.5555 
G01 X19.2691 Y9.6122 
G01 X19.1240 Y9.6410 
G01 X18.9760 Y9.6410 
G01 X18.8309 Y9.6122 
G01 X18.6943 Y9.5555 
G01 X18.6501 Y9.5260 
G01 X14.9309 Y9.5260 
G01 X14.3285 Y10.1284 
G01 X14.3285 Y10.2517 
G01 X14.2927 Y10.4316 
G01 X14.2226 Y10.6010 
G01 X14.1207 Y10.7535 
G01 X13.9910 Y10.8832 
G01 X13.8385 Y10.9851 
G01 X13.6691 Y11.0552 
G01 X13.4892 Y11.0910 
G01 X13.3058 Y11.0910 
G01 X13.1259 Y11.0552 
G01 X12.9565 Y10.9851 
G01 X12.8040 Y10.8832 
G01 X12.7169 Y10.7960 
G01 X7.9194 Y10.7960 
G01 X7.8940 Y10.8214 
G01 X7.3460 Y10.8214 
G01 X7.3206 Y10.7960 
G01 X2.8394 Y10.7960 
G01 X2.8140 Y10.8214 
G01 X2.2660 Y10.8214 
G01 X1.8786 Y10.4340 
G01 X1.8786 Y9.8860 
G01 X2.2660 Y9.4986 
G01 X2.8140 Y9.4986 
G01 X2.8394 Y9.5240 
G01 X7.3206 Y9.5240 
G01 X7.3460 Y9.4986 
G01 X7.8940 Y9.4986 
G01 X7.9194 Y9.5240 
G01 X12.7169 Y9.5240 
G01 X12.8040 Y9.4368 
G01 X12.9565 Y9.3349 
G01 X13.1259 Y9.2648 
G01 X13.3058 Y9.2290 
G01 X13.4291 Y9.2290 
G01 X14.2621 Y8.3960 
G01 X14.3662 Y8.3264 
G01 X14.4820 Y8.2784 
G01 X14.6049 Y8.2540 
G01 X18.6501 Y8.2540 
G01 X18.6943 Y8.2245 
G01 X18.8309 Y8.1678 
G01 X18.9760 Y8.1390 
G01 X19.1240 Y8.1390 
G01 X19.2691 Y8.1678 
G01 X19.4057 Y8.2245 
G01 X19.5287 Y8.3066 
G01 X19.6334 Y8.4113 
G01 X19.7155 Y8.5343 
G01 X19.7722 Y8.6709 
G01 X19.8010 Y8.8160 
G00 Z2.5400 
G00 X14.3608 Y16.4230 
G01 Z-0.0200 F254.00 
G01 X14.4251 Y16.4057 F300.00 
G01 X14.4828 Y16.3724 
G01 X14.5299 Y16.3253 
G01 X14.5632 Y16.2676 
G01 X14.5805 Y16.2033 
G01 X14.5805 Y15.3610 
G01 X14.3285 Y15.3610 
G01 X14.3285 Y16.1704 
G01 X13.5185 Y16.1710 
G01 X13.5185 Y16.4230 
G01 X14.3608 Y16.4230 
G00 Z2.5400 
G00 X20.2370 Y18.1633 
G01 Z-0.0200 F254.00 
G01 X20.2543 Y18.2277 F300.00 
G01 X20.2876 Y18.2853 
G01 X20.3347 Y18.3324 
G01 X20.3923 Y18.3657 
G01 X20.4567 Y18.3830 
G01 X20.7440 Y18.3830 
G01 X20.7440 Y18.1310 
G01 X20.4896 Y18.1310 
G01 X20.4890 Y17.9010 
G01 X20.2370 Y17.9010 
G01 X20.2370 Y18.1633 
G00 Z2.5400 
G00 X23.4861 Y40.9729 
G01 Z-0.0200 F254.00 
G01 X23.0799 Y40.8046 F300.00 
G01 X22.6401 Y40.8046 
G01 X22.2338 Y40.9729 
G01 X21.9229 Y41.2838 
G01 X21.7546 Y41.6901 
G01 X21.7546 Y42.1299 
G01 X21.9229 Y42.5361 
G01 X22.2338 Y42.8471 
G01 X22.6401 Y43.0154 
G01 X23.0799 Y43.0154 
G01 X23.4862 Y42.8471 
G01 X23.7971 Y42.5361 
G01 X23.9654 Y42.1299 
G01 X23.9654 Y41.6901 
G01 X23.7971 Y41.2838 
G01 X23.4861 Y40.9729 
G00 Z2.5400 
G00 X23.5610 Y41.8410 
G01 Z-0.0200 F254.00 
G01 X23.5610 Y41.9790 F300.00 
G01 X23.5341 Y42.1145 
G01 X23.4812 Y42.2421 
G01 X23.4045 Y42.3569 
G01 X23.3069 Y42.4545 
G01 X23.1921 Y42.5312 
G01 X23.0645 Y42.5841 
G01 X22.9290 Y42.6110 
G01 X22.7910 Y42.6110 
G01 X22.6555 Y42.5841 
G01 X22.5279 Y42.5312 
G01 X22.4131 Y42.4545 
G01 X22.3155 Y42.3569 
G01 X22.2388 Y42.2421 
G01 X22.1859 Y42.1145 
G01 X22.1590 Y41.9790 
G01 X22.1590 Y41.8410 
G01 X22.1859 Y41.7055 
G01 X22.2388 Y41.5779 
G01 X22.3155 Y41.4631 
G01 X22.4131 Y41.3655 
G01 X22.5279 Y41.2888 
G01 X22.6555 Y41.2359 
G01 X22.7910 Y41.2090 
G01 X22.9290 Y41.2090 
G01 X23.0645 Y41.2359 
G01 X23.1921 Y41.2888 
G01 X23.3069 Y41.3655 
G01 X23.4045 Y41.4631 
G01 X23.4812 Y41.5779 
G01 X23.5341 Y41.7055 
G01 X23.5610 Y41.8410 
G00 Z2.5400 
G00 X22.3520 Y49.6596 
G01 Z-0.0200 F254.00 
G01 X21.8576 Y49.4548 F300.00 
G01 X21.3224 Y49.4548 
G01 X20.8280 Y49.6596 
G01 X20.4496 Y50.0380 
G01 X20.3717 Y50.2260 
G01 X20.3630 Y50.2348 
G01 X20.3546 Y50.2432 
G01 X20.3324 Y50.2524 
G01 X20.3079 Y50.2525 
G01 X20.3015 Y50.2499 
G01 X20.2854 Y50.2432 
G01 X20.2767 Y50.2345 
G01 X20.2683 Y50.2260 
G01 X20.1904 Y50.0380 
G01 X19.8120 Y49.6596 
G01 X19.3176 Y49.4548 
G01 X18.7824 Y49.4548 
G01 X18.2880 Y49.6596 
G01 X17.9096 Y50.0380 
G01 X17.8317 Y50.2260 
G01 X17.8230 Y50.2348 
G01 X17.8146 Y50.2432 
G01 X17.7924 Y50.2524 
G01 X17.7679 Y50.2525 
G01 X17.7615 Y50.2499 
G01 X17.7454 Y50.2432 
G01 X17.7367 Y50.2345 
G01 X17.7283 Y50.2260 
G01 X17.6504 Y50.0380 
G01 X17.2720 Y49.6596 
G01 X16.7776 Y49.4548 
G01 X16.2424 Y49.4548 
G01 X15.7480 Y49.6596 
G01 X15.3696 Y50.0380 
G01 X15.2917 Y50.2260 
G01 X15.2830 Y50.2348 
G01 X15.2746 Y50.2432 
G01 X15.2524 Y50.2524 
G01 X15.2279 Y50.2525 
G01 X15.2215 Y50.2499 
G01 X15.2054 Y50.2432 
G01 X15.1967 Y50.2345 
G01 X15.1883 Y50.2260 
G01 X15.1104 Y50.0380 
G01 X14.7320 Y49.6596 
G01 X14.2376 Y49.4548 
G01 X13.7024 Y49.4548 
G01 X13.2080 Y49.6596 
G01 X12.8296 Y50.0380 
G01 X12.7517 Y50.2260 
G01 X12.7346 Y50.2432 
G01 X12.7121 Y50.2525 
G01 X12.6879 Y50.2525 
G01 X12.6654 Y50.2432 
G01 X12.6483 Y50.2260 
G01 X12.6390 Y50.2036 
G01 X12.5704 Y50.0380 
G01 X12.1920 Y49.6596 
G01 X11.6976 Y49.4548 
G01 X11.1624 Y49.4548 
G01 X10.6680 Y49.6596 
G01 X10.2896 Y50.0380 
G01 X10.2117 Y50.2260 
G01 X10.1946 Y50.2432 
G01 X10.1721 Y50.2525 
G01 X10.1479 Y50.2525 
G01 X10.1254 Y50.2432 
G01 X10.1083 Y50.2260 
G01 X10.0990 Y50.2036 
G01 X10.0304 Y50.0380 
G01 X9.6520 Y49.6596 
G01 X9.1576 Y49.4548 
G01 X8.6224 Y49.4548 
G01 X8.1280 Y49.6596 
G01 X7.7496 Y50.0380 
G01 X7.5448 Y50.5324 
G01 X7.5448 Y51.0676 
G01 X7.7496 Y51.5620 
G01 X8.1280 Y51.9404 
G01 X8.6224 Y52.1452 
G01 X9.1576 Y52.1452 
G01 X9.6520 Y51.9404 
G01 X10.0304 Y51.5620 
G01 X10.0990 Y51.3964 
G01 X10.1081 Y51.3745 
G01 X10.1254 Y51.3568 
G01 X10.1479 Y51.3475 
G01 X10.1721 Y51.3475 
G01 X10.1946 Y51.3568 
G01 X10.2117 Y51.3740 
G01 X10.2896 Y51.5620 
G01 X10.6680 Y51.9404 
G01 X11.1624 Y52.1452 
G01 X11.6976 Y52.1452 
G01 X12.1920 Y51.9404 
G01 X12.5704 Y51.5620 
G01 X12.6390 Y51.3964 
G01 X12.6481 Y51.3745 
G01 X12.6654 Y51.3568 
G01 X12.6879 Y51.3475 
G01 X12.7121 Y51.3475 
G01 X12.7346 Y51.3568 
G01 X12.7517 Y51.3740 
G01 X12.8296 Y51.5620 
G01 X13.2080 Y51.9404 
G01 X13.7024 Y52.1452 
G01 X14.2376 Y52.1452 
G01 X14.7320 Y51.9404 
G01 X15.1104 Y51.5620 
G01 X15.1883 Y51.3740 
G01 X15.1970 Y51.3652 
G01 X15.2054 Y51.3568 
G01 X15.2211 Y51.3503 
G01 X15.2279 Y51.3475 
G01 X15.2521 Y51.3475 
G01 X15.2746 Y51.3568 
G01 X15.2833 Y51.3655 
G01 X15.2917 Y51.3740 
G01 X15.3696 Y51.5620 
G01 X15.7480 Y51.9404 
G01 X16.2424 Y52.1452 
G01 X16.7776 Y52.1452 
G01 X17.2720 Y51.9404 
G01 X17.6504 Y51.5620 
G01 X17.7283 Y51.3740 
G01 X17.7370 Y51.3652 
G01 X17.7454 Y51.3568 
G01 X17.7611 Y51.3503 
G01 X17.7679 Y51.3475 
G01 X17.7921 Y51.3475 
G01 X17.8146 Y51.3568 
G01 X17.8233 Y51.3655 
G01 X17.8317 Y51.3740 
G01 X17.9096 Y51.5620 
G01 X18.2880 Y51.9404 
G01 X18.7824 Y52.1452 
G01 X19.3176 Y52.1452 
G01 X19.8120 Y51.9404 
G01 X20.1904 Y51.5620 
G01 X20.2683 Y51.3740 
G01 X20.2770 Y51.3652 
G01 X20.2854 Y51.3568 
G01 X20.3011 Y51.3503 
G01 X20.3079 Y51.3475 
G01 X20.3321 Y51.3475 
G01 X20.3546 Y51.3568 
G01 X20.3633 Y51.3655 
G01 X20.3717 Y51.3740 
G01 X20.4496 Y51.5620 
G01 X20.8280 Y51.9404 
G01 X21.3224 Y52.1452 
G01 X21.8576 Y52.1452 
G01 X22.3520 Y51.9404 
G01 X22.7304 Y51.5620 
G01 X22.9352 Y51.0676 
G01 X22.9352 Y50.5324 
G01 X22.7304 Y50.0380 
G01 X22.3520 Y49.6596 
G00 Z2.5400 
G00 X9.8308 Y50.7073 
G01 Z-0.0200 F254.00 
G01 X9.8308 Y50.8927 F300.00 
G01 X9.7947 Y51.0744 
G01 X9.7237 Y51.2456 
G01 X9.6208 Y51.3997 
G01 X9.4897 Y51.5308 
G01 X9.3356 Y51.6337 
G01 X9.1644 Y51.7047 
G01 X8.9827 Y51.7408 
G01 X8.7973 Y51.7408 
G01 X8.6156 Y51.7047 
G01 X8.4444 Y51.6337 
G01 X8.2903 Y51.5308 
G01 X8.1592 Y51.3997 
G01 X8.0563 Y51.2456 
G01 X7.9853 Y51.0744 
G01 X7.9492 Y50.8927 
G01 X7.9492 Y50.7073 
G01 X7.9853 Y50.5256 
G01 X8.0563 Y50.3544 
G01 X8.1592 Y50.2003 
G01 X8.2903 Y50.0692 
G01 X8.4444 Y49.9663 
G01 X8.6156 Y49.8953 
G01 X8.7973 Y49.8592 
G01 X8.9827 Y49.8592 
G01 X9.1644 Y49.8953 
G01 X9.3356 Y49.9663 
G01 X9.4897 Y50.0692 
G01 X9.6208 Y50.2003 
G01 X9.7237 Y50.3544 
G01 X9.7947 Y50.5256 
G01 X9.8308 Y50.7073 
G00 Z2.5400 
G00 X12.3708 Y50.7073 
G01 Z-0.0200 F254.00 
G01 X12.3708 Y50.8927 F300.00 
G01 X12.3347 Y51.0744 
G01 X12.2637 Y51.2456 
G01 X12.1608 Y51.3997 
G01 X12.0297 Y51.5308 
G01 X11.8756 Y51.6337 
G01 X11.7044 Y51.7047 
G01 X11.5227 Y51.7408 
G01 X11.3373 Y51.7408 
G01 X11.1556 Y51.7047 
G01 X10.9844 Y51.6337 
G01 X10.8303 Y51.5308 
G01 X10.6992 Y51.3997 
G01 X10.5963 Y51.2456 
G01 X10.5253 Y51.0744 
G01 X10.4892 Y50.8927 
G01 X10.4892 Y50.7073 
G01 X10.5253 Y50.5256 
G01 X10.5963 Y50.3544 
G01 X10.6992 Y50.2003 
G01 X10.8303 Y50.0692 
G01 X10.9844 Y49.9663 
G01 X11.1556 Y49.8953 
G01 X11.3373 Y49.8592 
G01 X11.5227 Y49.8592 
G01 X11.7044 Y49.8953 
G01 X11.8756 Y49.9663 
G01 X12.0297 Y50.0692 
G01 X12.1608 Y50.2003 
G01 X12.2637 Y50.3544 
G01 X12.3347 Y50.5256 
G01 X12.3708 Y50.7073 
G00 Z2.5400 
G00 X14.9108 Y50.7073 
G01 Z-0.0200 F254.00 
G01 X14.9108 Y50.8927 F300.00 
G01 X14.8747 Y51.0744 
G01 X14.8037 Y51.2456 
G01 X14.7008 Y51.3997 
G01 X14.5697 Y51.5308 
G01 X14.4156 Y51.6337 
G01 X14.2444 Y51.7047 
G01 X14.0627 Y51.7408 
G01 X13.8773 Y51.7408 
G01 X13.6956 Y51.7047 
G01 X13.5244 Y51.6337 
G01 X13.3703 Y51.5308 
G01 X13.2392 Y51.3997 
G01 X13.1363 Y51.2456 
G01 X13.0653 Y51.0744 
G01 X13.0292 Y50.8927 
G01 X13.0292 Y50.7073 
G01 X13.0653 Y50.5256 
G01 X13.1363 Y50.3544 
G01 X13.2392 Y50.2003 
G01 X13.3703 Y50.0692 
G01 X13.5244 Y49.9663 
G01 X13.6956 Y49.8953 
G01 X13.8773 Y49.8592 
G01 X14.0627 Y49.8592 
G01 X14.2444 Y49.8953 
G01 X14.4156 Y49.9663 
G01 X14.5697 Y50.0692 
G01 X14.7008 Y50.2003 
G01 X14.8037 Y50.3544 
G01 X14.8747 Y50.5256 
G01 X14.9108 Y50.7073 
G00 Z2.5400 
G00 X17.4508 Y50.7073 
G01 Z-0.0200 F254.00 
G01 X17.4508 Y50.8927 F300.00 
G01 X17.4147 Y51.0744 
G01 X17.3437 Y51.2456 
G01 X17.2408 Y51.3997 
G01 X17.1097 Y51.5308 
G01 X16.9556 Y51.6337 
G01 X16.7844 Y51.7047 
G01 X16.6027 Y51.7408 
G01 X16.4173 Y51.7408 
G01 X16.2356 Y51.7047 
G01 X16.0644 Y51.6337 
G01 X15.9103 Y51.5308 
G01 X15.7792 Y51.3997 
G01 X15.6763 Y51.2456 
G01 X15.6053 Y51.0744 
G01 X15.5692 Y50.8927 
G01 X15.5692 Y50.7073 
G01 X15.6053 Y50.5256 
G01 X15.6763 Y50.3544 
G01 X15.7792 Y50.2003 
G01 X15.9103 Y50.0692 
G01 X16.0644 Y49.9663 
G01 X16.2356 Y49.8953 
G01 X16.4173 Y49.8592 
G01 X16.6027 Y49.8592 
G01 X16.7844 Y49.8953 
G01 X16.9556 Y49.9663 
G01 X17.1097 Y50.0692 
G01 X17.2408 Y50.2003 
G01 X17.3437 Y50.3544 
G01 X17.4147 Y50.5256 
G01 X17.4508 Y50.7073 
G00 Z2.5400 
G00 X19.9908 Y50.7073 
G01 Z-0.0200 F254.00 
G01 X19.9908 Y50.8927 F300.00 
G01 X19.9547 Y51.0744 
G01 X19.8837 Y51.2456 
G01 X19.7808 Y51.3997 
G01 X19.6497 Y51.5308 
G01 X19.4956 Y51.6337 
G01 X19.3244 Y51.7047 
G01 X19.1427 Y51.7408 
G01 X18.9573 Y51.7408 
G01 X18.7756 Y51.7047 
G01 X18.6044 Y51.6337 
G01 X18.4503 Y51.5308 
G01 X18.3192 Y51.3997 
G01 X18.2163 Y51.2456 
G01 X18.1453 Y51.0744 
G01 X18.1092 Y50.8927 
G01 X18.1092 Y50.7073 
G01 X18.1453 Y50.5256 
G01 X18.2163 Y50.3544 
G01 X18.3192 Y50.2003 
G01 X18.4503 Y50.0692 
G01 X18.6044 Y49.9663 
G01 X18.7756 Y49.8953 
G01 X18.9573 Y49.8592 
G01 X19.1427 Y49.8592 
G01 X19.3244 Y49.8953 
G01 X19.4956 Y49.9663 
G01 X19.6497 Y50.0692 
G01 X19.7808 Y50.2003 
G01 X19.8837 Y50.3544 
G01 X19.9547 Y50.5256 
G01 X19.9908 Y50.7073 
G00 Z2.5400 
G00 X22.5308 Y50.7073 
G01 Z-0.0200 F254.00 
G01 X22.5308 Y50.8927 F300.00 
G01 X22.4947 Y51.0744 
G01 X22.4237 Y51.2456 
G01 X22.3208 Y51.3997 
G01 X22.1897 Y51.5308 
G01 X22.0356 Y51.6337 
G01 X21.8644 Y51.7047 
G01 X21.6827 Y51.7408 
G01 X21.4973 Y51.7408 
G01 X21.3156 Y51.7047 
G01 X21.1444 Y51.6337 
G01 X20.9903 Y51.5308 
G01 X20.8592 Y51.3997 
G01 X20.7563 Y51.2456 
G01 X20.6853 Y51.0744 
G01 X20.6492 Y50.8927 
G01 X20.6492 Y50.7073 
G01 X20.6853 Y50.5256 
G01 X20.7563 Y50.3544 
G01 X20.8592 Y50.2003 
G01 X20.9903 Y50.0692 
G01 X21.1444 Y49.9663 
G01 X21.3156 Y49.8953 
G01 X21.4973 Y49.8592 
G01 X21.6827 Y49.8592 
G01 X21.8644 Y49.8953 
G01 X22.0356 Y49.9663 
G01 X22.1897 Y50.0692 
G01 X22.3208 Y50.2003 
G01 X22.4237 Y50.3544 
G01 X22.4947 Y50.5256 
G01 X22.5308 Y50.7073 
G00 Z2.5400 
G00 X7.9983 Y30.1234 
G01 Z-0.0200 F254.00 
G01 X8.5334 Y29.5883 F300.00 
G01 X8.5334 Y29.3310 
G01 X8.2814 Y29.3310 
G01 X8.2814 Y29.4840 
G01 X7.8940 Y29.8714 
G01 X7.7410 Y29.8714 
G01 X7.7410 Y30.1234 
G01 X7.9983 Y30.1234 
G00 Z2.5400 
G00 X6.7066 Y29.0890 
G01 Z-0.0200 F254.00 
G01 X6.9586 Y29.0890 F300.00 
G01 X6.9586 Y28.9360 
G01 X7.3460 Y28.5486 
G01 X7.4990 Y28.5486 
G01 X7.4990 Y28.2966 
G01 X7.2417 Y28.2966 
G01 X6.7066 Y28.8317 
G01 X6.7066 Y29.0890 
G00 Z2.5400 
G00 X6.7066 Y29.5883 
G01 Z-0.0200 F254.00 
G01 X7.2417 Y30.1234 F300.00 
G01 X7.4990 Y30.1234 
G01 X7.4990 Y29.8714 
G01 X7.3460 Y29.8714 
G01 X6.9586 Y29.4840 
G01 X6.9586 Y29.3310 
G01 X6.7066 Y29.3310 
G01 X6.7066 Y29.5883 
G00 Z2.5400 
G00 X8.5334 Y28.8317 
G01 Z-0.0200 F254.00 
G01 X7.9983 Y28.2966 F300.00 
G01 X7.7410 Y28.2966 
G01 X7.7410 Y28.5486 
G01 X7.8940 Y28.5486 
G01 X8.2814 Y28.9360 
G01 X8.2814 Y29.0890 
G01 X8.5334 Y29.0890 
G01 X8.5334 Y28.8317 
G00 Z2.5400 
G00 X54.8893 Y54.1732 
G01 Z-0.0200 F254.00 
G01 X55.0679 Y54.1152 F300.00 
G01 X55.2352 Y54.0299 
G01 X55.3870 Y53.9196 
G01 X55.5198 Y53.7868 
G01 X55.6302 Y53.6350 
G01 X55.7154 Y53.4677 
G01 X55.7734 Y53.2891 
G01 X55.8028 Y53.1037 
G01 X55.8028 Y52.1910 
G01 X55.5508 Y52.1910 
G01 X55.5508 Y53.1025 
G01 X55.5147 Y53.2842 
G01 X55.4437 Y53.4554 
G01 X55.3408 Y53.6095 
G01 X55.2097 Y53.7406 
G01 X55.0556 Y53.8435 
G01 X54.8844 Y53.9145 
G01 X54.7310 Y53.9450 
G01 X54.7310 Y54.1983 
G01 X54.8893 Y54.1732 
G00 Z2.5400 
G00 X54.1521 Y50.0248 
G01 Z-0.0200 F254.00 
G01 X53.9848 Y50.1100 F300.00 
G01 X53.8329 Y50.2204 
G01 X53.7002 Y50.3531 
G01 X53.5898 Y50.5050 
G01 X53.5046 Y50.6723 
G01 X53.4847 Y50.7335 
G01 X53.4810 Y50.7449 
G01 X53.4780 Y50.7542 
G01 X53.4754 Y50.7584 
G01 X53.4686 Y50.7653 
G01 X53.4622 Y50.7727 
G01 X53.4583 Y50.7755 
G01 X53.4493 Y50.7793 
G01 X53.4406 Y50.7837 
G01 X53.4359 Y50.7848 
G01 X53.4261 Y50.7848 
G01 X53.4164 Y50.7856 
G01 X53.4116 Y50.7848 
G01 X53.4026 Y50.7811 
G01 X53.3933 Y50.7781 
G01 X53.3892 Y50.7755 
G01 X53.3823 Y50.7686 
G01 X53.3749 Y50.7623 
G01 X53.3720 Y50.7584 
G01 X53.3683 Y50.7493 
G01 X53.3638 Y50.7407 
G01 X53.2104 Y50.3682 
G01 X52.8320 Y49.9898 
G01 X52.6598 Y49.9185 
G01 X52.6427 Y49.9013 
G01 X42.4993 Y39.7580 
G01 X42.1169 Y39.5996 
G01 X27.1141 Y39.5996 
G01 X27.0916 Y39.5903 
G01 X27.0745 Y39.5732 
